; Generated by Kiri:Moto 3.0.D24
; Thu Sep 23 2021 09:20:43 GMT-0700 (Mountain Standard Time)
; Bed left:0 right:300 top:300 bottom:0
; Bed type: fixed
; Target: Voron V2.4 300mm
; --- process ---
; processName = default
; sliceHeight = 0.2
; sliceShells = 3
; sliceShellOrder = in-out
; sliceLayerStart = last
; sliceFillAngle = 45
; sliceFillOverlap = 0.3
; sliceFillSparse = 0.2
; sliceFillType = hex
; sliceAdaptive = false
; sliceMinHeight = 0
; sliceSupportDensity = 0.25
; sliceSupportOffset = 0.4
; sliceSupportGap = 0
; sliceSupportSize = 6
; sliceSupportArea = 0.25
; sliceSupportExtra = 0
; sliceSupportAngle = 1
; sliceSupportNozzle = 0
; sliceSolidMinArea = 15
; sliceSolidLayers = 3
; sliceBottomLayers = 3
; sliceTopLayers = 3
; firstLayerRate = 10
; firstLayerPrintMult = 1
; firstLayerYOffset = 0
; firstLayerBrim = 0
; firstLayerBeltLead = 0
; firstLayerFanSpeed = 0
; outputTemp = 210
; outputBedTemp = 70
; outputFanSpeed = 255
; outputFeedrate = 30
; outputFinishrate = 30
; outputSeekrate = 80
; outputShellMult = 1.15
; outputFillMult = 1.15
; outputSparseMult = 1.15
; outputRetractDist = 6
; outputRetractSpeed = 70
; outputRetractWipe = 0
; outputRetractDwell = 0
; outputShortPoly = 50
; outputMinSpeed = 5
; outputCoastDist = 0.1
; outputLayerRetract = false
; detectThinWalls = false
; zHopDistance = 0
; antiBacklash = 0
; outputOriginCenter = false
; ranges = 
; sliceLineWidth = 0
; sliceFillWidth = 1
; sliceFillRepeat = 1
; sliceFillRate = 0
; sliceSupportSpan = 5
; sliceSupportEnable = false
; sliceSupportOutline = true
; firstSliceHeight = 0.25
; firstLayerFillRate = 35
; firstLayerLineMult = 1
; firstLayerNozzleTemp = 0
; firstLayerBedTemp = 0
; firstLayerBrimIn = 0
; firstLayerBrimTrig = 0
; firstLayerBrimComb = 0
; firstLayerBrimGap = 0
; firstLayerBeltBump = 0
; outputRaft = false
; outputRaftSpacing = 0.2
; outputBrimCount = 2
; outputBrimOffset = 2
; outputPurgeTower = true
; outputBeltFirst = false
; outputLoops = 0
; outputInvertX = false
; outputInvertY = false
; arcTolerance = 0
; gcodePauseLayers = null
; firstLayerFlatten = 0
; --- startup ---
print_start bed=70 extruder=210
G1 E-6.0000 F4200 ; e-retract 6
;; --- layer 0 (0.250 @ 0.255) ---
M106 S0
G1 Z0.2550 F4800
G1 X147.3000 Y148.3000
G1 E6.0000 F4200 ; e-engage 6
G1 X141.9139 E0.2023 F600
G1 X141.6475 Y148.3133 E0.0100
G1 X141.4110 Y148.3373 E0.0089
G1 X141.1837 Y148.3715 E0.0086
G1 X140.9541 Y148.4179 E0.0088
G1 X140.7270 Y148.4758 E0.0088
G1 X140.5029 Y148.5449 E0.0088
G1 X140.2825 Y148.6251 E0.0088
G1 X140.0669 Y148.7160 E0.0088
G1 X139.8543 Y148.8183 E0.0089
G1 X139.6458 Y148.9322 E0.0089
G1 X139.4498 Y149.0520 E0.0086
G1 X139.2559 Y149.1842 E0.0088
G1 X139.0680 Y149.3265 E0.0089
G1 X138.8863 Y149.4794 E0.0089
G1 X138.7179 Y149.6356 E0.0086
G1 X138.5533 Y149.8044 E0.0089
G1 X138.3961 Y149.9829 E0.0089
G1 X138.2529 Y150.1625 E0.0086
G1 X138.1161 Y150.3527 E0.0088
G1 X137.9883 Y150.5507 E0.0088
G1 X137.8697 Y150.7566 E0.0089
G1 X137.7649 Y150.9611 E0.0086
G1 X137.6678 Y151.1762 E0.0089
G1 X137.5814 Y151.3974 E0.0089
G1 X137.5077 Y151.6164 E0.0087
G1 X137.4433 Y151.8467 E0.0090
G1 X137.3914 Y152.0752 E0.0088
G1 X137.3513 Y152.3045 E0.0087
G1 X137.3225 Y152.5340 E0.0087
G1 X137.3050 Y152.7709 E0.0089
G1 X137.2993 Y153.0007 E0.0086
G1 X137.3052 Y153.2352 E0.0088
G1 X137.3223 Y153.4643 E0.0086
G1 X137.3510 Y153.6956 E0.0088
G1 X137.3914 Y153.9264 E0.0088
G1 X137.4433 Y154.1550 E0.0088
G1 X137.5077 Y154.3850 E0.0090
G1 X137.5814 Y154.6044 E0.0087
G1 X137.6662 Y154.8212 E0.0087
G1 X137.7641 Y155.0390 E0.0090
G1 X137.8698 Y155.2450 E0.0087
G1 X137.9883 Y155.4509 E0.0089
G1 X138.1137 Y155.6450 E0.0087
G1 X138.2520 Y155.8380 E0.0089
G1 X138.3963 Y156.0189 E0.0087
G1 X138.5502 Y156.1937 E0.0087
G1 X138.7137 Y156.3618 E0.0088
G1 X138.8887 Y156.5245 E0.0090
G1 X139.0658 Y156.6731 E0.0087
G1 X139.2513 Y156.8139 E0.0087
G1 X139.4448 Y156.9462 E0.0088
G1 X139.6446 Y157.0686 E0.0088
G1 X139.8503 Y157.1810 E0.0088
G1 X140.0613 Y157.2830 E0.0088
G1 X140.2773 Y157.3743 E0.0088
G1 X140.5017 Y157.4563 E0.0090
G1 X140.7266 Y157.5257 E0.0088
G1 X140.9498 Y157.5825 E0.0086
G1 X141.1781 Y157.6290 E0.0087
G1 X141.4095 Y157.6642 E0.0088
G1 X141.6429 Y157.6878 E0.0088
G1 X141.8811 Y157.7000 E0.0090
G1 X162.7000 E0.7818
G1 Y142.3000 E0.5783
M117 1% layer 0 / 25
G1 X147.3000 E0.5783
G1 Y148.3000 E0.2253
G1 X146.9000 Y147.9000 F4800
G1 X141.9040 E0.1876 F600
G1 X141.6174 Y147.9143 E0.0108
G1 X141.3610 Y147.9403 E0.0097
G1 X141.1142 Y147.9775 E0.0094
G1 X140.8651 Y148.0278 E0.0095
G1 X140.6186 Y148.0906 E0.0095
G1 X140.3754 Y148.1656 E0.0096
G1 X140.1363 Y148.2527 E0.0096
G1 X139.9024 Y148.3513 E0.0095
G1 X139.6716 Y148.4624 E0.0096
G1 X139.4455 Y148.5858 E0.0097
G1 X139.2327 Y148.7159 E0.0094
G1 X139.0224 Y148.8593 E0.0096
G1 X138.8183 Y149.0138 E0.0096
G1 X138.6214 Y149.1795 E0.0097
G1 X138.4386 Y149.3492 E0.0094
G1 X138.2598 Y149.5324 E0.0096
G1 X138.0895 Y149.7259 E0.0097
G1 X137.9340 Y149.9209 E0.0094
G1 X137.7855 Y150.1274 E0.0095
G1 X137.6467 Y150.3423 E0.0096
G1 X137.5182 Y150.5655 E0.0097
G1 X137.4044 Y150.7875 E0.0094
G1 X137.2990 Y151.0211 E0.0096
G1 X137.2053 Y151.2608 E0.0097
G1 X137.1253 Y151.4988 E0.0094
G1 X137.0554 Y151.7484 E0.0097
G1 X136.9991 Y151.9964 E0.0095
G1 X136.9556 Y152.2451 E0.0095
G1 X136.9243 Y152.4944 E0.0094
G1 X136.9054 Y152.7512 E0.0097
G1 X136.8992 Y153.0007 E0.0094
G1 X136.9055 Y153.2552 E0.0096
G1 X136.9242 Y153.5039 E0.0094
G1 X136.9553 Y153.7548 E0.0095
G1 X136.9991 Y154.0052 E0.0095
G1 X137.0554 Y154.2533 E0.0096
G1 X137.1253 Y154.5027 E0.0097
G1 X137.2054 Y154.7410 E0.0094
G1 X137.2973 Y154.9761 E0.0095
G1 X137.4035 Y155.2124 E0.0097
G1 X137.5183 Y155.4361 E0.0094
G1 X137.6468 Y155.6593 E0.0097
G1 X137.7829 Y155.8701 E0.0094
G1 X137.9329 Y156.0794 E0.0097
G1 X138.0897 Y156.2759 E0.0094
G1 X138.2566 Y156.4655 E0.0095
G1 X138.4340 Y156.6479 E0.0096
G1 X138.6238 Y156.8243 E0.0097
G1 X138.8161 Y156.9858 E0.0094
G1 X139.0173 Y157.1385 E0.0095
G1 X139.2273 Y157.2821 E0.0096
G1 X139.4441 Y157.4149 E0.0095
G1 X139.6673 Y157.5369 E0.0096
G1 X139.8963 Y157.6475 E0.0095
G1 X140.1306 Y157.7466 E0.0096
G1 X140.3740 Y157.8355 E0.0097
G1 X140.6182 Y157.9109 E0.0096
G1 X140.8605 Y157.9726 E0.0094
G1 X141.1081 Y158.0229 E0.0095
G1 X141.3592 Y158.0611 E0.0095
G1 X141.6125 Y158.0868 E0.0096
G1 X141.8709 Y158.1000 E0.0097
G1 X163.1000 E0.7972
G1 Y141.9000 E0.6083
M117 2% layer 0 / 25
G1 X146.9000 E0.6083
G1 Y147.9000 E0.2253
G1 E-6.0000 F4200 ; e-retract 6
G1 X146.5000 Y151.5000 F4800
G1 E6.0000 F4200 ; e-engage 6
G1 Y154.5000 E0.1127 F372
G1 X149.5000 E0.1127
G1 Y151.5000 E0.1127
G1 X146.5000 E0.1127
G1 X146.1000 Y151.1000 F4800
G1 Y154.9000 E0.1427 F391
G1 X149.9000 E0.1427
G1 Y151.1000 E0.1427
G1 X146.1000 E0.1427
G1 X145.7000 Y150.7000 F4800
G1 Y155.3000 E0.1727 F410
G1 X150.3000 E0.1727
G1 Y150.7000 E0.1727
G1 X145.7000 E0.1727
G1 X149.2200 Y152.3457 F4800
G1 X148.6543 Y151.7800 E0.0300 F2100
G1 X148.0886 E0.0212
G1 X149.2200 Y152.9114 E0.0601
M117 3% layer 0 / 25
G1 Y153.4771 E0.0212
G1 X147.5229 Y151.7800 E0.0901
G1 X146.9573 E0.0212
G1 X149.2200 Y154.0427 E0.1202
G1 X148.8316 Y154.2200 E0.0160
G1 X146.7800 Y152.1684 E0.1089
G1 Y152.7341 E0.0212
G1 X148.2659 Y154.2200 E0.0789
G1 X147.7002 E0.0212
G1 X146.7800 Y153.2998 E0.0489
G1 X146.9573 Y154.0427 E0.0287
G1 E-6.0000 F4200 ; e-retract 6
G1 X156.5000 Y154.5000 F4800
G1 E6.0000 F4200 ; e-engage 6
G1 X159.5000 E0.1127 F372
G1 Y151.5000 E0.1127
G1 X156.5000 E0.1127
G1 Y154.5000 E0.1127
G1 X156.1000 Y154.9000 F4800
G1 X159.9000 E0.1427 F391
G1 Y151.1000 E0.1427
G1 X156.1000 E0.1427
G1 Y154.9000 E0.1427
G1 X155.7000 Y155.3000 F4800
G1 X160.3000 E0.1727 F410
G1 Y150.7000 E0.1727
G1 X155.7000 E0.1727
G1 Y155.3000 E0.1727
G1 X159.2200 Y152.3457 F4800
G1 X158.6543 Y151.7800 E0.0300 F2100
G1 X158.0886 E0.0212
G1 X159.2200 Y152.9114 E0.0601
G1 Y153.4771 E0.0212
G1 X157.5229 Y151.7800 E0.0901
G1 X156.9573 E0.0212
G1 X159.2200 Y154.0427 E0.1202
M117 4% layer 0 / 25
G1 X158.8316 Y154.2200 E0.0160
G1 X156.7800 Y152.1684 E0.1089
G1 Y152.7341 E0.0212
G1 X158.2659 Y154.2200 E0.0789
G1 X157.7002 E0.0212
G1 X156.7800 Y153.2998 E0.0489
G1 X156.9573 Y154.0427 E0.0287
G1 E-6.0000 F4200 ; e-retract 6
G1 X156.5000 Y148.5000 F4800
G1 E6.0000 F4200 ; e-engage 6
G1 X159.5000 E0.1127 F372
G1 Y145.5000 E0.1127
G1 X156.5000 E0.1127
G1 Y148.5000 E0.1127
G1 X156.1000 Y148.9000 F4800
G1 X159.9000 E0.1427 F391
G1 Y145.1000 E0.1427
G1 X156.1000 E0.1427
G1 Y148.9000 E0.1427
G1 X155.7000 Y149.3000 F4800
G1 X160.3000 E0.1727 F410
G1 Y144.7000 E0.1727
G1 X155.7000 E0.1727
G1 Y149.3000 E0.1727
G1 X159.2200 Y146.3457 F4800
G1 X158.6543 Y145.7800 E0.0300 F2100
G1 X158.0886 E0.0212
G1 X159.2200 Y146.9114 E0.0601
G1 Y147.4771 E0.0212
G1 X157.5229 Y145.7800 E0.0901
G1 X156.9573 E0.0212
G1 X159.2200 Y148.0427 E0.1202
G1 X158.8316 Y148.2200 E0.0160
G1 X156.7800 Y146.1684 E0.1089
G1 Y146.7341 E0.0212
G1 X158.2659 Y148.2200 E0.0789
G1 X157.7002 E0.0212
G1 X156.7800 Y147.2998 E0.0489
G1 X156.9573 Y148.0427 E0.0287
G1 E-6.0000 F4200 ; e-retract 6
G1 X153.5000 Y148.5000 F4800
M117 5% layer 0 / 25
G1 E6.0000 F4200 ; e-engage 6
G1 Y145.5000 E0.1127 F372
G1 X150.5000 E0.1127
G1 Y148.5000 E0.1127
G1 X153.5000 E0.1127
G1 X153.9000 Y148.9000 F4800
G1 Y145.1000 E0.1427 F391
G1 X150.1000 E0.1427
G1 Y148.9000 E0.1427
G1 X153.9000 E0.1427
G1 X154.3000 Y149.3000 F4800
G1 Y144.7000 E0.1727 F410
G1 X149.7000 E0.1727
G1 Y149.3000 E0.1727
G1 X154.3000 E0.1727
G1 X153.2200 Y146.3457 F4800
G1 X152.6543 Y145.7800 E0.0300 F2100
G1 X152.0886 E0.0212
G1 X153.2200 Y146.9114 E0.0601
G1 Y147.4771 E0.0212
G1 X151.5229 Y145.7800 E0.0901
G1 X150.9573 E0.0212
G1 X153.2200 Y148.0427 E0.1202
G1 X152.8316 Y148.2200 E0.0160
G1 X150.7800 Y146.1684 E0.1089
G1 Y146.7341 E0.0212
G1 X152.2659 Y148.2200 E0.0789
G1 X151.7002 E0.0212
G1 X150.7800 Y147.2998 E0.0489
G1 X150.9573 Y148.0427 E0.0287
G1 E-6.0000 F4200 ; e-retract 6
G1 X143.3176 Y152.2855 F4800
G1 E6.0000 F4200 ; e-engage 6
G1 X143.2397 Y152.1577 E0.0056 F356
G1 X143.1497 Y152.0385 E0.0056
G1 X143.0481 Y151.9287 E0.0056
G1 X142.9362 Y151.8298 E0.0056
G1 X142.8150 Y151.7424 E0.0056
G1 X142.6834 Y151.6663 E0.0057
G1 X142.5497 Y151.6059 E0.0055
G1 X142.4078 Y151.5581 E0.0056
G1 X142.2621 Y151.5246 E0.0056
G1 X142.1141 Y151.5059 E0.0056
G1 X141.9622 Y151.5020 E0.0057
G1 X141.8111 Y151.5135 E0.0057
G1 X141.6665 Y151.5390 E0.0055
G1 X141.5225 Y151.5795 E0.0056
G1 X141.3835 Y151.6341 E0.0056
G1 X141.2481 Y151.7037 E0.0057
G1 X141.1252 Y151.7831 E0.0055
G1 X141.0061 Y151.8784 E0.0057
G1 X140.9011 Y151.9808 E0.0055
G1 X140.8048 Y152.0956 E0.0056
G1 X140.7208 Y152.2187 E0.0056
G1 X140.6491 Y152.3503 E0.0056
G1 X140.5904 Y152.4901 E0.0057
G1 X140.5467 Y152.6326 E0.0056
G1 X140.5172 Y152.7796 E0.0056
G1 X140.5025 Y152.9283 E0.0056
G1 X140.5025 Y153.0755 E0.0055
G1 X140.5172 Y153.2221 E0.0055
G1 X140.5467 Y153.3690 E0.0056
G1 X140.5904 Y153.5113 E0.0056
G1 X140.6495 Y153.6519 E0.0057
G1 X140.7208 Y153.7828 E0.0056
G1 X140.8051 Y153.9064 E0.0056
G1 X140.8993 Y154.0187 E0.0055
G1 X141.0082 Y154.1252 E0.0057
G1 X141.1231 Y154.2168 E0.0055
G1 X141.2488 Y154.2982 E0.0056
G1 X141.3816 Y154.3665 E0.0056
M117 6% layer 0 / 25
G1 X141.5232 Y154.4222 E0.0057
G1 X141.6638 Y154.4619 E0.0055
G1 X141.8118 Y154.4881 E0.0056
G1 X141.9607 Y154.4995 E0.0056
G1 X142.1119 Y154.4959 E0.0057
G1 X142.2605 Y154.4773 E0.0056
G1 X142.4059 Y154.4441 E0.0056
G1 X142.5477 Y154.3965 E0.0056
G1 X142.6840 Y154.3350 E0.0056
G1 X142.8133 Y154.2603 E0.0056
G1 X142.9347 Y154.1731 E0.0056
G1 X143.0485 Y154.0724 E0.0057
G1 X143.1484 Y153.9647 E0.0055
G1 X143.2402 Y153.8432 E0.0057
G1 X143.3166 Y153.7181 E0.0055
G1 X143.3824 Y153.5810 E0.0057
G1 X143.4325 Y153.4432 E0.0055
G1 X143.4696 Y153.2979 E0.0056
G1 X143.4919 Y153.1499 E0.0056
G1 X143.4993 Y153.0007 E0.0056
G1 X143.4921 Y152.8541 E0.0055
G1 X143.4698 Y152.7054 E0.0056
G1 X143.4332 Y152.5606 E0.0056
G1 X143.3824 Y152.4204 E0.0056
G1 X143.3176 Y152.2855 E0.0056
G1 X143.6696 Y152.0944 F4800
G1 X143.6223 Y152.0123 E0.0036 F372
G1 X143.5710 Y151.9325 E0.0036
G1 X143.5157 Y151.8555 E0.0036
G1 X143.4568 Y151.7814 E0.0036
G1 X143.3943 Y151.7104 E0.0035
G1 X143.3280 Y151.6423 E0.0036
G1 X143.2589 Y151.5780 E0.0035
G1 X143.1863 Y151.5169 E0.0036
G1 X143.1111 Y151.4598 E0.0035
G1 X143.0326 Y151.4062 E0.0036
G1 X142.9519 Y151.3567 E0.0036
G1 X142.8664 Y151.3100 E0.0037
G1 X142.7839 Y151.2703 E0.0034
G1 X142.6962 Y151.2332 E0.0036
G1 X142.6073 Y151.2007 E0.0036
G1 X142.5168 Y151.1727 E0.0036
G1 X142.4251 Y151.1492 E0.0036
G1 X142.3322 Y151.1303 E0.0036
G1 X142.2386 Y151.1161 E0.0036
G1 X142.1444 Y151.1065 E0.0036
G1 X142.0497 Y151.1017 E0.0036
G1 X141.9522 Y151.1016 E0.0037
G1 X141.8585 Y151.1063 E0.0035
G1 X141.7611 Y151.1161 E0.0037
G1 X141.6700 Y151.1298 E0.0035
G1 X141.5772 Y151.1486 E0.0036
G1 X141.4854 Y151.1720 E0.0036
G1 X141.3949 Y151.1999 E0.0036
G1 X141.3061 Y151.2322 E0.0035
G1 X141.2186 Y151.2691 E0.0036
G1 X141.1335 Y151.3100 E0.0035
G1 X141.0477 Y151.3569 E0.0037
G1 X140.9693 Y151.4048 E0.0034
G1 X140.8911 Y151.4581 E0.0036
G1 X140.8158 Y151.5152 E0.0035
G1 X140.7408 Y151.5783 E0.0037
G1 X140.6735 Y151.6407 E0.0034
G1 X140.6075 Y151.7084 E0.0035
G1 X140.5430 Y151.7817 E0.0037
G1 X140.4855 Y151.8538 E0.0035
G1 X140.4304 Y151.9304 E0.0035
G1 X140.3791 Y152.0099 E0.0036
G1 X140.3303 Y152.0947 E0.0037
G1 X140.2882 Y152.1767 E0.0035
G1 X140.2496 Y152.2623 E0.0035
G1 X140.2139 Y152.3536 E0.0037
G1 X140.1847 Y152.4405 E0.0034
G1 X140.1584 Y152.5342 E0.0037
G1 X140.1375 Y152.6265 E0.0036
G1 X140.1210 Y152.7205 E0.0036
G1 X140.1097 Y152.8112 E0.0034
G1 X140.1025 Y152.9087 E0.0037
G1 X140.1002 Y153.0010 E0.0035
G1 X140.1026 Y153.0955 E0.0036
G1 X140.1094 Y153.1870 E0.0034
G1 X140.1211 Y153.2816 E0.0036
G1 X140.1375 Y153.3750 E0.0036
G1 X140.1584 Y153.4673 E0.0036
G1 X140.1847 Y153.5611 E0.0037
G1 X140.2138 Y153.6478 E0.0034
G1 X140.2486 Y153.7367 E0.0036
G1 X140.2885 Y153.8255 E0.0037
G1 X140.3302 Y153.9068 E0.0034
G1 X140.3791 Y153.9918 E0.0037
G1 X140.4287 Y154.0685 E0.0034
G1 X140.4858 Y154.1482 E0.0037
G1 X140.5430 Y154.2199 E0.0034
G1 X140.6056 Y154.2910 E0.0036
G1 X140.6721 Y154.3593 E0.0036
G1 X140.7430 Y154.4253 E0.0036
G1 X140.8134 Y154.4844 E0.0034
G1 X140.8890 Y154.5418 E0.0036
G1 X140.9674 Y154.5954 E0.0036
G1 X141.0481 Y154.6448 E0.0036
G1 X141.1314 Y154.6903 E0.0036
G1 X141.2164 Y154.7314 E0.0035
G1 X141.3036 Y154.7683 E0.0036
G1 X141.3954 Y154.8018 E0.0037
G1 X141.4855 Y154.8296 E0.0035
G1 X141.5744 Y154.8522 E0.0034
G1 X141.6678 Y154.8712 E0.0036
G1 X141.7615 Y154.8855 E0.0036
G1 X141.8556 Y154.8950 E0.0036
G1 X141.9504 Y154.8999 E0.0036
G1 X142.0479 Y154.9000 E0.0037
G1 X142.1415 Y154.8953 E0.0035
G1 X142.2389 Y154.8854 E0.0037
G1 X142.3300 Y154.8717 E0.0035
G1 X142.4228 Y154.8530 E0.0036
G1 X142.5144 Y154.8296 E0.0036
G1 X142.6051 Y154.8016 E0.0036
G1 X142.6940 Y154.7693 E0.0036
G1 X142.7814 Y154.7324 E0.0036
G1 X142.8666 Y154.6914 E0.0036
G1 X142.9499 Y154.6461 E0.0036
G1 X143.0306 Y154.5968 E0.0036
G1 X143.1112 Y154.5416 E0.0037
G1 X143.1846 Y154.4861 E0.0035
G1 X143.2568 Y154.4254 E0.0035
G1 X143.3284 Y154.3589 E0.0037
G1 X143.3926 Y154.2931 E0.0035
G1 X143.4554 Y154.2218 E0.0036
G1 X143.5141 Y154.1482 E0.0035
G1 X143.5712 Y154.0687 E0.0037
G1 X143.6211 Y153.9913 E0.0035
G1 X143.6685 Y153.9094 E0.0036
G1 X143.7115 Y153.8253 E0.0035
G1 X143.7516 Y153.7363 E0.0037
G1 X143.7853 Y153.6504 E0.0035
G1 X143.8152 Y153.5613 E0.0035
G1 X143.8416 Y153.4671 E0.0037
G1 X143.8621 Y153.3773 E0.0035
G1 X143.8789 Y153.2813 E0.0037
G1 X143.8904 Y153.1898 E0.0035
G1 X143.8974 Y153.0955 E0.0036
G1 X143.8998 Y153.0008 E0.0036
G1 X143.8974 Y152.9060 E0.0036
G1 X143.8906 Y152.8146 E0.0034
G1 X143.8789 Y152.7200 E0.0036
G1 X143.8625 Y152.6265 E0.0036
G1 X143.8416 Y152.5343 E0.0036
G1 X143.8160 Y152.4431 E0.0036
G1 X143.7851 Y152.3506 E0.0037
G1 X143.7516 Y152.2654 E0.0034
G1 X143.7127 Y152.1787 E0.0036
G1 X143.6696 Y152.0944 E0.0036
G1 X144.0212 Y151.9033 F4800
G1 X143.9640 Y151.8041 E0.0043 F387
G1 X143.9019 Y151.7076 E0.0043
G1 X143.8349 Y151.6143 E0.0043
G1 X143.7636 Y151.5246 E0.0043
