;FLAVOR:RepRap
;TIME:814
;Filament used: 0.656209m
;Layer height: 0.2
;MINX:103.8
;MINY:135.3
;MINZ:0.2
;MAXX:164.7
;MAXY:164.7
;MAXZ:10.2
;Generated with Cura_SteamEngine 5.0.0
T0
M190 S80
M104 S230
M109 S230
M82 ;absolute extrusion mode
print_start
M83 ;relative extrusion mode
G1 F4800 E-6.5
;LAYER_COUNT:50
;LAYER:0
M107
G1 F600 Z0.4
G0 F7200 X110.273 Y140.982 Z0.4
G1 F600 Z0.4
G0 F7200 X108.375 Y145.506
;TYPE:SKIRT
G1 F600 Z0.2
G1 F1920 E6.5
G1 F1800 X108.384 Y144.841 E0.02489
G1 X108.433 Y144.209 E0.02372
G1 X108.561 Y143.588 E0.02372
G1 X108.765 Y142.989 E0.02368
G1 X109.044 Y142.42 E0.02371
G1 X109.392 Y141.89 E0.02372
G1 X109.804 Y141.408 E0.02373
G1 X110.273 Y140.982 E0.02371
G1 X110.792 Y140.619 E0.0237
G1 X111.353 Y140.324 E0.02372
G1 X111.947 Y140.101 E0.02374
G1 X112.563 Y139.956 E0.02368
G1 X113.268 Y139.886 E0.02651
G1 X113.73 Y139.875 E0.01729
G1 X122.893 Y139.875 E0.34286
G1 X123.72 Y139.889 E0.03095
G1 X124.124 Y139.912 E0.01514
G1 X124.867 Y139.985 E0.02794
G1 X127.563 Y140.214 E0.10124
G1 X130.248 Y140.366 E0.10063
G1 X132.928 Y140.441 E0.10032
G1 X135.613 Y140.441 E0.10047
G1 X138.301 Y140.364 E0.10062
G1 X140.981 Y140.212 E0.10044
G1 X143.682 Y139.982 E0.10143
G1 X144.408 Y139.909 E0.0273
G1 X144.769 Y139.886 E0.01354
G1 X145.23 Y139.875 E0.01725
G1 X154.458 Y139.875 E0.34529
G1 X155.156 Y139.884 E0.02612
G1 X155.788 Y139.933 E0.02372
G1 X156.408 Y140.06 E0.02368
G1 X157.008 Y140.264 E0.02371
G1 X157.578 Y140.542 E0.02373
G1 X158.108 Y140.89 E0.02372
G1 X158.589 Y141.302 E0.0237
G1 X159.016 Y141.771 E0.02373
G1 X159.379 Y142.29 E0.0237
G1 X159.675 Y142.85 E0.0237
G1 X159.898 Y143.444 E0.02374
G1 X160.044 Y144.06 E0.02369
G1 X160.114 Y144.766 E0.02655
G1 X160.125 Y145.225 E0.01718
G1 X160.125 Y154.426 E0.34428
G1 X160.116 Y155.153 E0.0272
G1 X160.068 Y155.785 E0.02372
G1 X159.941 Y156.406 E0.02372
G1 X159.737 Y157.006 E0.02371
G1 X159.459 Y157.575 E0.0237
G1 X159.111 Y158.105 E0.02372
G1 X158.7 Y158.587 E0.0237
G1 X158.231 Y159.014 E0.02373
G1 X157.713 Y159.378 E0.02369
G1 X157.152 Y159.674 E0.02373
G1 X156.559 Y159.897 E0.02371
G1 X155.942 Y160.043 E0.02372
G1 X155.232 Y160.114 E0.0267
G1 X154.77 Y160.125 E0.01729
G1 X145.518 Y160.124 E0.34619
G1 X144.78 Y160.111 E0.02762
G1 X144.376 Y160.088 E0.01514
G1 X143.633 Y160.015 E0.02794
G1 X140.937 Y159.786 E0.10124
G1 X138.252 Y159.634 E0.10063
G1 X135.572 Y159.559 E0.10032
G1 X132.887 Y159.559 E0.10047
G1 X130.199 Y159.636 E0.10062
G1 X127.519 Y159.788 E0.10044
G1 X124.818 Y160.018 E0.10143
G1 X124.092 Y160.091 E0.0273
G1 X123.731 Y160.114 E0.01354
G1 X123.27 Y160.125 E0.01725
G1 X114.042 Y160.125 E0.34529
G1 X113.344 Y160.116 E0.02612
G1 X112.712 Y160.067 E0.02372
G1 X112.092 Y159.94 E0.02368
G1 X111.492 Y159.736 E0.02371
G1 X110.922 Y159.458 E0.02373
G1 X110.392 Y159.11 E0.02372
G1 X109.911 Y158.698 E0.0237
G1 X109.484 Y158.229 E0.02373
G1 X109.121 Y157.71 E0.0237
G1 X108.825 Y157.15 E0.0237
G1 X108.602 Y156.556 E0.02374
G1 X108.456 Y155.94 E0.02369
G1 X108.386 Y155.227 E0.02681
G1 X108.375 Y154.758 E0.01755
G1 X108.375 Y145.506 E0.34619
G0 F7200 X108.825 Y145.512
G1 F1800 X108.834 Y144.847 E0.02489
G1 X108.883 Y144.244 E0.02264
G1 X109.01 Y143.653 E0.02262
G1 X109.214 Y143.084 E0.02262
G1 X109.491 Y142.547 E0.02261
G1 X109.837 Y142.051 E0.02263
G1 X110.245 Y141.605 E0.02262
G1 X110.708 Y141.216 E0.02263
G1 X111.219 Y140.892 E0.02264
G1 X111.768 Y140.639 E0.02262
G1 X112.345 Y140.459 E0.02262
G1 X112.941 Y140.358 E0.02262
G1 X113.281 Y140.336 E0.01275
G1 X113.73 Y140.325 E0.01681
G1 X122.893 Y140.325 E0.34286
G1 X123.712 Y140.339 E0.03065
G1 X124.08 Y140.36 E0.01379
G1 X124.787 Y140.43 E0.02658
G1 X127.534 Y140.663 E0.10316
G1 X130.245 Y140.816 E0.1016
G1 X132.916 Y140.891 E0.09998
G1 X135.626 Y140.891 E0.1014
G1 X138.303 Y140.814 E0.10021
G1 X141.044 Y140.659 E0.10273
G1 X143.7 Y140.433 E0.09974
G1 X144.453 Y140.357 E0.02832
G1 X144.782 Y140.336 E0.01234
G1 X145.23 Y140.325 E0.01677
G1 X154.452 Y140.325 E0.34507
G1 X155.15 Y140.334 E0.02612
G1 X155.753 Y140.382 E0.02263
G1 X156.344 Y140.509 E0.02262
G1 X156.913 Y140.713 E0.02262
G1 X157.451 Y140.99 E0.02264
G1 X157.947 Y141.335 E0.02261
G1 X158.393 Y141.743 E0.02262
G1 X158.782 Y142.206 E0.02263
G1 X159.106 Y142.716 E0.02261
G1 X159.36 Y143.265 E0.02263
G1 X159.54 Y143.842 E0.02262
G1 X159.642 Y144.438 E0.02263
G1 X159.664 Y144.779 E0.01279
G1 X159.675 Y145.225 E0.01669
G1 X159.675 Y154.421 E0.34409
G1 X159.666 Y155.148 E0.0272
G1 X159.618 Y155.75 E0.0226
G1 X159.492 Y156.342 E0.02265
G1 X159.288 Y156.911 E0.02262
G1 X159.012 Y157.449 E0.02263
G1 X158.667 Y157.945 E0.02261
G1 X158.259 Y158.392 E0.02265
G1 X157.796 Y158.781 E0.02263
G1 X157.286 Y159.105 E0.02261
G1 X156.737 Y159.36 E0.02265
G1 X156.16 Y159.539 E0.02261
G1 X155.564 Y159.641 E0.02263
G1 X155.219 Y159.664 E0.01294
G1 X154.77 Y159.675 E0.01681
G1 X145.526 Y159.674 E0.34589
G1 X144.788 Y159.661 E0.02762
G1 X144.42 Y159.64 E0.01379
G1 X143.713 Y159.57 E0.02658
G1 X140.966 Y159.337 E0.10316
G1 X138.255 Y159.184 E0.1016
G1 X135.584 Y159.109 E0.09998
G1 X132.874 Y159.109 E0.1014
G1 X130.197 Y159.186 E0.10021
G1 X127.456 Y159.341 E0.10273
G1 X124.802 Y159.567 E0.09967
G1 X124.047 Y159.643 E0.02839
G1 X123.718 Y159.664 E0.01234
G1 X123.27 Y159.675 E0.01677
G1 X114.048 Y159.675 E0.34507
G1 X113.35 Y159.666 E0.02612
G1 X112.747 Y159.618 E0.02263
G1 X112.156 Y159.491 E0.02262
G1 X111.587 Y159.287 E0.02262
G1 X111.049 Y159.01 E0.02264
G1 X110.553 Y158.665 E0.02261
G1 X110.107 Y158.257 E0.02262
G1 X109.718 Y157.794 E0.02263
G1 X109.394 Y157.284 E0.02261
G1 X109.14 Y156.735 E0.02263
G1 X108.96 Y156.158 E0.02262
G1 X108.858 Y155.562 E0.02263
G1 X108.836 Y155.215 E0.01301
G1 X108.825 Y154.758 E0.0171
G1 X108.825 Y145.512 E0.34596
G0 F7200 X109.275 Y145.518
G1 F1800 X109.284 Y144.853 E0.02489
G1 X109.332 Y144.281 E0.02148
G1 X109.459 Y143.721 E0.02149
G1 X109.662 Y143.184 E0.02148
G1 X109.938 Y142.681 E0.02147
G1 X110.281 Y142.22 E0.0215
G1 X110.684 Y141.812 E0.02146
G1 X111.141 Y141.464 E0.02149
G1 X111.641 Y141.182 E0.02148
G1 X112.176 Y140.973 E0.02149
G1 X112.734 Y140.84 E0.02146
G1 X113.293 Y140.786 E0.02101
G1 X113.73 Y140.775 E0.01636
G1 X122.893 Y140.775 E0.34286
G1 X123.704 Y140.789 E0.03035
G1 X124.036 Y140.808 E0.01244
G1 X124.778 Y140.881 E0.0279
G1 X127.507 Y141.113 E0.10248
G1 X130.207 Y141.266 E0.10119
G1 X132.903 Y141.341 E0.10092
G1 X135.639 Y141.341 E0.10237
G1 X138.342 Y141.264 E0.10118
G1 X141.036 Y141.111 E0.10097
G1 X143.784 Y140.877 E0.1032
G1 X144.498 Y140.805 E0.02685
G1 X144.795 Y140.786 E0.01114
G1 X145.23 Y140.775 E0.01628
G1 X154.446 Y140.775 E0.34484
G1 X155.144 Y140.784 E0.02612
G1 X155.716 Y140.832 E0.02148
G1 X156.276 Y140.958 E0.02148
G1 X156.813 Y141.161 E0.02148
G1 X157.317 Y141.436 E0.02148
G1 X157.778 Y141.779 E0.0215
G1 X158.186 Y142.182 E0.02146
G1 X158.535 Y142.639 E0.02152
G1 X158.817 Y143.139 E0.02148
G1 X159.026 Y143.673 E0.02146
G1 X159.16 Y144.231 E0.02147
G1 X159.214 Y144.792 E0.02109
G1 X159.225 Y145.225 E0.01621
G1 X159.225 Y154.415 E0.34387
G1 X159.216 Y155.142 E0.0272
G1 X159.169 Y155.714 E0.02148
G1 X159.043 Y156.274 E0.02148
G1 X158.84 Y156.812 E0.02152
G1 X158.565 Y157.315 E0.02145
G1 X158.222 Y157.776 E0.0215
G1 X157.819 Y158.185 E0.02148
G1 X157.363 Y158.534 E0.02149
G1 X156.863 Y158.816 E0.02148
G1 X156.329 Y159.026 E0.02147
G1 X155.771 Y159.16 E0.02147
G1 X155.207 Y159.214 E0.0212
G1 X154.77 Y159.225 E0.01636
G1 X145.534 Y159.224 E0.34559
G1 X144.796 Y159.211 E0.02762
G1 X144.464 Y159.192 E0.01244
G1 X143.722 Y159.119 E0.0279
G1 X140.993 Y158.887 E0.10248
G1 X138.293 Y158.734 E0.10119
G1 X135.597 Y158.659 E0.10092
G1 X132.861 Y158.659 E0.10237
G1 X130.158 Y158.736 E0.10118
G1 X127.464 Y158.889 E0.10097
G1 X124.716 Y159.123 E0.1032
G1 X124.002 Y159.195 E0.02685
G1 X123.705 Y159.214 E0.01114
G1 X123.27 Y159.225 E0.01628
G1 X114.054 Y159.225 E0.34484
G1 X113.356 Y159.216 E0.02612
G1 X112.784 Y159.168 E0.02148
G1 X112.224 Y159.042 E0.02148
G1 X111.687 Y158.839 E0.02148
G1 X111.183 Y158.564 E0.02148
G1 X110.722 Y158.221 E0.0215
G1 X110.314 Y157.818 E0.02146
G1 X109.965 Y157.361 E0.02152
G1 X109.683 Y156.861 E0.02148
G1 X109.474 Y156.327 E0.02146
G1 X109.34 Y155.769 E0.02147
G1 X109.286 Y155.202 E0.02131
G1 X109.275 Y154.758 E0.01662
G1 X109.275 Y145.518 E0.34574
G0 F7200 X109.725 Y145.524
G1 F1800 X109.734 Y144.859 E0.02489
G1 X109.782 Y144.319 E0.02029
G1 X109.908 Y143.793 E0.02024
G1 X110.11 Y143.29 E0.02028
G1 X110.384 Y142.822 E0.02029
G1 X110.724 Y142.4 E0.02028
G1 X111.122 Y142.033 E0.02026
G1 X111.569 Y141.728 E0.02025
G1 X112.057 Y141.492 E0.02028
G1 X112.574 Y141.33 E0.02027
G1 X113.306 Y141.235 E0.02762
G1 X113.73 Y141.225 E0.01587
G1 X122.893 Y141.225 E0.34286
G1 X123.696 Y141.239 E0.03005
G1 X123.992 Y141.256 E0.01109
G1 X124.702 Y141.326 E0.0267
G1 X127.479 Y141.561 E0.10428
G1 X130.169 Y141.714 E0.10082
G1 X132.927 Y141.791 E0.10324
G1 X135.652 Y141.791 E0.10196
G1 X138.343 Y141.714 E0.10073
G1 X141.065 Y141.56 E0.10201
G1 X143.803 Y141.327 E0.10282
G1 X144.543 Y141.252 E0.02783
G1 X144.807 Y141.235 E0.0099
G1 X145.23 Y141.225 E0.01583
G1 X154.44 Y141.225 E0.34462
G1 X155.138 Y141.234 E0.02612
G1 X155.678 Y141.281 E0.02028
G1 X156.205 Y141.407 E0.02027
G1 X156.708 Y141.609 E0.02028
G1 X157.176 Y141.883 E0.02029
G1 X157.598 Y142.222 E0.02025
G1 X157.966 Y142.62 E0.02028
G1 X158.271 Y143.067 E0.02025
G1 X158.508 Y143.555 E0.0203
G1 X158.669 Y144.072 E0.02026
G1 X158.765 Y144.804 E0.02762
G1 X158.775 Y145.225 E0.01576
G1 X158.775 Y154.409 E0.34364
G1 X158.766 Y155.136 E0.0272
G1 X158.719 Y155.676 E0.02028
G1 X158.594 Y156.203 E0.02027
G1 X158.392 Y156.706 E0.02028
G1 X158.119 Y157.174 E0.02027
G1 X157.779 Y157.597 E0.02031
G1 X157.382 Y157.965 E0.02026
G1 X156.934 Y158.27 E0.02028
G1 X156.447 Y158.507 E0.02027
G1 X155.93 Y158.669 E0.02027
G1 X155.194 Y158.765 E0.02777
G1 X154.77 Y158.775 E0.01587
G1 X145.542 Y158.774 E0.34529
G1 X144.804 Y158.761 E0.02762
G1 X144.508 Y158.744 E0.01109
G1 X143.798 Y158.674 E0.0267
G1 X141.021 Y158.439 E0.10428
G1 X138.331 Y158.286 E0.10082
G1 X135.573 Y158.209 E0.10324
G1 X132.848 Y158.209 E0.10196
G1 X130.157 Y158.286 E0.10073
G1 X127.435 Y158.44 E0.10201
G1 X124.697 Y158.673 E0.10282
G1 X123.957 Y158.748 E0.02783
G1 X123.693 Y158.765 E0.0099
G1 X123.27 Y158.775 E0.01583
G1 X114.06 Y158.775 E0.34462
G1 X113.362 Y158.766 E0.02612
G1 X112.822 Y158.719 E0.02028
G1 X112.295 Y158.593 E0.02027
G1 X111.792 Y158.391 E0.02028
G1 X111.324 Y158.117 E0.02029
G1 X110.902 Y157.778 E0.02025
G1 X110.534 Y157.38 E0.02028
G1 X110.229 Y156.933 E0.02025
G1 X109.992 Y156.445 E0.0203
G1 X109.831 Y155.928 E0.02026
G1 X109.735 Y155.19 E0.02785
G1 X109.725 Y154.758 E0.01617
G1 X109.725 Y145.524 E0.34551
G0 F7200 X110.175 Y145.53
G1 F1800 X110.184 Y144.865 E0.02489
G1 X110.231 Y144.36 E0.01898
G1 X110.357 Y143.868 E0.019
G1 X110.558 Y143.402 E0.01899
G1 X110.829 Y142.973 E0.01899
G1 X111.165 Y142.593 E0.01898
G1 X111.556 Y142.269 E0.019
G1 X111.993 Y142.011 E0.01899
G1 X112.465 Y141.825 E0.01898
G1 X112.961 Y141.715 E0.01901
G1 X113.319 Y141.685 E0.01344
G1 X113.73 Y141.675 E0.01538
G1 X122.893 Y141.675 E0.34286
G1 X123.688 Y141.689 E0.02975
G1 X123.948 Y141.704 E0.00974
G1 X124.689 Y141.777 E0.02786
G1 X127.416 Y142.008 E0.1024
G1 X130.165 Y142.164 E0.10303
G1 X132.914 Y142.241 E0.1029
G1 X135.63 Y142.241 E0.10163
G1 X138.383 Y142.162 E0.10305
G1 X141.127 Y142.007 E0.10284
G1 X143.833 Y141.776 E0.10162
G1 X144.588 Y141.7 E0.02839
G1 X145.139 Y141.676 E0.02064
G1 X154.435 Y141.675 E0.34783
G1 X155.133 Y141.684 E0.02612
G1 X155.638 Y141.731 E0.01898
G1 X156.13 Y141.856 E0.01899
G1 X156.596 Y142.057 E0.01899
G1 X157.025 Y142.328 E0.01899
G1 X157.406 Y142.664 E0.01901
G1 X157.729 Y143.054 E0.01895
G1 X157.988 Y143.491 E0.01901
G1 X158.174 Y143.963 E0.01898
G1 X158.284 Y144.459 E0.01901
G1 X158.315 Y144.817 E0.01345
G1 X158.325 Y145.225 E0.01527
G1 X158.325 Y154.404 E0.34346
G1 X158.316 Y155.131 E0.0272
G1 X158.27 Y155.636 E0.01897
G1 X158.145 Y156.128 E0.01899
G1 X157.944 Y156.595 E0.01902
G1 X157.673 Y157.024 E0.01899
G1 X157.338 Y157.405 E0.01898
G1 X156.947 Y157.728 E0.01898
G1 X156.51 Y157.987 E0.01901
G1 X156.038 Y158.174 E0.019
G1 X155.543 Y158.284 E0.01897
G1 X155.181 Y158.315 E0.01359
G1 X154.77 Y158.325 E0.01538
G1 X145.55 Y158.324 E0.34499
G1 X144.812 Y158.311 E0.02762
G1 X144.552 Y158.296 E0.00974
G1 X143.811 Y158.223 E0.02786
G1 X141.084 Y157.992 E0.1024
G1 X138.335 Y157.836 E0.10303
G1 X135.586 Y157.759 E0.1029
G1 X132.87 Y157.759 E0.10163
G1 X130.117 Y157.838 E0.10305
G1 X127.373 Y157.993 E0.10284
G1 X124.667 Y158.224 E0.10162
G1 X123.912 Y158.3 E0.02839
G1 X123.361 Y158.324 E0.02064
G1 X114.065 Y158.325 E0.34783
G1 X113.367 Y158.316 E0.02612
G1 X112.862 Y158.269 E0.01898
G1 X112.37 Y158.144 E0.01899
G1 X111.904 Y157.943 E0.01899
G1 X111.475 Y157.672 E0.01899
G1 X111.094 Y157.336 E0.01901
G1 X110.771 Y156.946 E0.01895
G1 X110.512 Y156.509 E0.01901
G1 X110.326 Y156.037 E0.01898
G1 X110.216 Y155.541 E0.01901
G1 X110.185 Y155.178 E0.01363
G1 X110.175 Y154.758 E0.01572
G1 X110.175 Y145.53 E0.34529
G1 F4800 E-6.5
G1 F600 Z0.4
;MESH:inverted_pyramid.stl(1)
G0 F7200 X113.6 Y145.1 Z0.4
;TYPE:WALL-OUTER
G1 F600 Z0.2
G1 F1920 E6.5
G1 F1800 X113.6 Y154.9 E0.32595
G1 X123.4 Y154.9 E0.32595
G1 X123.4 Y150 E0.16297
G1 X123.4 Y145.1 E0.16297
G1 X113.6 Y145.1 E0.32595
G0 F7200 X113.6 Y145.3
G0 X114 Y145.5
;TYPE:WALL-INNER
G1 F1800 X114 Y154.5 E0.29934
G1 X123 Y154.5 E0.29934
G1 X123 Y150 E0.14967
G1 X123 Y145.5 E0.14967
G1 X114 Y145.5 E0.29934
G1 F4800 E-6.5
G1 F600 Z0.4
;MESH:inverted_pyramid.stl
G0 F7200 X145.1 Y145.1 Z0.4
;TYPE:WALL-OUTER
G1 F600 Z0.2
G1 F1920 E6.5
G1 F1800 X145.1 Y154.9 E0.32595
G1 X154.9 Y154.9 E0.32595
G1 X154.9 Y145.1 E0.32595
G1 X145.1 Y145.1 E0.32595
G0 F7200 X145.1 Y145.3
G0 X145.5 Y145.5
;TYPE:WALL-INNER
G1 F1800 X145.5 Y154.5 E0.29934
G1 X154.5 Y154.5 E0.29934
G1 X154.5 Y145.5 E0.29934
G1 X145.5 Y145.5 E0.29934
G1 F4800 E-6.5
G1 F600 Z0.4
;MESH:NONMESH
G0 F7200 X113.4 Y144.9 Z0.4
;TIME_ELAPSED:30.504864
;LAYER:1
M106 S85
;TYPE:WALL-OUTER
;MESH:inverted_pyramid.stl(1)
G1 F600 Z0.4
G1 F1920 E6.5
G1 F792.1 X113.4 Y155.1 E0.33925
G1 X123.6 Y155.1 E0.33925
G1 X123.6 Y150 E0.16963
G1 X123.6 Y144.9 E0.16963
G1 X113.4 Y144.9 E0.33925
G0 F9900 X113.4 Y145.1
G0 X113.8 Y145.3
;TYPE:WALL-INNER
G1 F1035.9 X113.8 Y154.7 E0.31265
G1 X123.2 Y154.7 E0.31265
G1 X123.2 Y150 E0.15632
G1 X123.2 Y145.3 E0.15632
G1 X113.8 Y145.3 E0.31265
G0 F9900 X114.2 Y145.7
G1 F1035.9 X114.2 Y154.3 E0.28604
G1 X122.8 Y154.3 E0.28604
G1 X122.8 Y150 E0.14302
G1 X122.8 Y145.7 E0.14302
G1 X114.2 Y145.7 E0.28604
G0 F9900 X114.118 Y145.618
G1 F4800 E-6.5
G1 F600 Z0.6
;MESH:inverted_pyramid.stl
G0 F9900 X114.118 Y145.618 Z0.6
G0 X144.9 Y144.9
;TYPE:WALL-OUTER
G1 F600 Z0.4
G1 F1920 E6.5
G1 F792.1 X144.9 Y155.1 E0.33925
G1 X155.1 Y155.1 E0.33925
G1 X155.1 Y150 E0.16963
G1 X155.1 Y144.9 E0.16963
G1 X144.9 Y144.9 E0.33925
G0 F9900 X144.9 Y145.1
G0 X145.3 Y145.3
;TYPE:WALL-INNER
G1 F1035.9 X145.3 Y154.7 E0.31265
G1 X154.7 Y154.7 E0.31265
G1 X154.7 Y150 E0.15632
G1 X154.7 Y145.3 E0.15632
G1 X145.3 Y145.3 E0.31265
G0 F9900 X145.7 Y145.7
G1 F1035.9 X145.7 Y154.3 E0.28604
G1 X154.3 Y154.3 E0.28604
G1 X154.3 Y150 E0.14302
G1 X154.3 Y145.7 E0.14302
G1 X145.7 Y145.7 E0.28604
G0 F9900 X145.618 Y145.618
G1 F4800 E-6.5
G1 F600 Z0.6
;MESH:NONMESH
G0 F9900 X145.618 Y145.618 Z0.6
G0 X113.2 Y144.7
;TIME_ELAPSED:46.401289
;LAYER:2
M106 S170
;TYPE:WALL-OUTER
;MESH:inverted_pyramid.stl(1)
G1 F600 Z0.6
G1 F1920 E6.5
G1 F600 X113.2 Y155.3 E0.35256
