;Sliced by ideaMaker 4.2.3.5680, 2022-07-09 14:32:18 UTC-0700
;Dimension: 365.000 240.000 240.000 0.400 0.400
;Plate Shape: 0
;Origin Center: 0
;Extruder Offset #1: 0.000 0.000
;Filament Diameter #1: 1.750
;Filament Diameter #2: 1.750
;Filament Compensation #1: 96.00
;Filament Compensation #2: 96.00
;Filament Density #1: 1240.00
;Filament Density #2: 1240.00
;Filament Type #1: PLA
;Filament Type #2: PLA
;Filament Name #1: [Raise3D] PLA 1.75mm
;Filament Name #2: [Raise3D] PLA 1.75mm
;Firmware: RepRapFirmware
;Bounding Box: 167.500 231.500 105.000 135.000 0.000 10.050
;Model Gap: 0.000
M221 T0 S96.00
M140 S45.00
M104 T0 S225.00
M109 T0 S225.00
T0
M190 S45.00
M572 D0 S0.05
M572 D1 S0.05
G21
G90
M82
M107
G28
G1 Z0 F500
G92 E0
G1 Z0.2 F400
G1 X60 Y-2 F800
G1 X140 Y-2 E12 F200
G1 Z5 E15 F200
G92 E0
G1 F9000.0
M117 Printing...
M1001
;TOTAL_NUM: 2
;PRINTING_TIME: 0
;REMAINING_TIME: 527
;LAYER:0
;Z:0.300
;HEIGHT:0.300
M106 S0
;PRINTING: NON-OBJECT
;PRINTING_ID: -1
G1 F2400 E-0.5000
G0 F9000 X207.682 Y112.544
G0 F900 Z0.300
;TYPE:SKIRT
;WIDTH:0.520
G1 F1500 E0.0000
G1 F900 X208.040 Y112.055 E0.0393
G1 X208.459 Y111.623 E0.0783
G1 X208.994 Y111.214 E0.1220
G1 X209.452 Y110.957 E0.1561
G1 X209.942 Y110.756 E0.1904
G1 X210.688 Y110.576 E0.2402
G1 X211.325 Y110.525 E0.2816
G1 X221.711 Y110.526 E0.9553
G1 X222.346 Y110.579 E0.9966
G1 X222.859 Y110.693 E1.0307
G1 X223.359 Y110.871 E1.0651
G1 X223.959 Y111.185 E1.1090
G1 X224.506 Y111.591 E1.1532
G1 X224.926 Y112.013 E1.1918
G1 X225.206 Y112.374 E1.2214
G1 X225.511 Y112.886 E1.2601
G1 X225.767 Y113.511 E1.3039
G1 X225.897 Y114.024 E1.3382
G1 X225.975 Y114.825 E1.3904
G1 X225.974 Y125.211 E2.0640
G1 X225.921 Y125.846 E2.1053
G1 X225.807 Y126.359 E2.1394
G1 X225.600 Y126.925 E2.1785
G1 X225.318 Y127.456 E2.2175
G1 X224.964 Y127.941 E2.2565
G1 X224.544 Y128.375 E2.2956
G1 X224.065 Y128.746 E2.3349
G1 X223.543 Y129.045 E2.3739
G1 X222.979 Y129.270 E2.4133
G1 X222.471 Y129.398 E2.4473
G1 X221.723 Y129.473 E2.4961
G1 X211.248 Y129.472 E3.1754
G1 X210.654 Y129.421 E3.2141
G1 X210.141 Y129.307 E3.2482
G1 X209.575 Y129.100 E3.2873
G1 X209.044 Y128.818 E3.3263
G1 X208.559 Y128.464 E3.3652
G1 X208.125 Y128.044 E3.4044
G1 X207.754 Y127.565 E3.4437
G1 X207.455 Y127.043 E3.4827
G1 X207.230 Y126.479 E3.5221
G1 X207.102 Y125.971 E3.5561
G1 X207.027 Y125.223 E3.6048
G1 X207.028 Y114.748 E4.2842
G1 X207.079 Y114.154 E4.3229
G1 X207.193 Y113.641 E4.3569
G1 X207.400 Y113.075 E4.3960
G1 X207.682 Y112.544 E4.4350
G0 F9000 X208.105 Y112.847
G1 F900 X208.413 Y112.417 E4.4693
G1 X208.832 Y111.985 E4.5084
G1 X209.253 Y111.665 E4.5427
G1 X209.649 Y111.438 E4.5723
G1 X210.139 Y111.237 E4.6066
G1 X210.731 Y111.094 E4.6461
G1 X211.325 Y111.045 E4.6848
G1 X221.711 Y111.046 E5.3584
G1 X222.238 Y111.088 E5.3927
G1 X222.685 Y111.183 E5.4223
G1 X223.185 Y111.361 E5.4567
G1 X223.653 Y111.605 E5.4910
G1 X224.140 Y111.960 E5.5300
G1 X224.515 Y112.332 E5.5643
G1 X224.795 Y112.693 E5.5939
G1 X225.062 Y113.149 E5.6282
G1 X225.263 Y113.639 E5.6625
G1 X225.393 Y114.152 E5.6969
G1 X225.455 Y114.825 E5.7407
G1 X225.454 Y125.211 E6.4143
G1 X225.412 Y125.738 E6.4486
G1 X225.317 Y126.185 E6.4782
G1 X225.139 Y126.685 E6.5127
G1 X224.895 Y127.153 E6.5469
G1 X224.587 Y127.583 E6.5812
G1 X224.222 Y127.967 E6.6156
G1 X223.807 Y128.295 E6.6499
G1 X223.285 Y128.594 E6.6889
G1 X222.791 Y128.785 E6.7232
G1 X222.348 Y128.893 E6.7528
G1 X221.675 Y128.955 E6.7966
G1 X211.289 Y128.954 E7.4702
G1 X210.762 Y128.912 E7.5045
G1 X210.315 Y128.817 E7.5342
G1 X209.815 Y128.639 E7.5686
G1 X209.347 Y128.395 E7.6028
G1 X208.917 Y128.087 E7.6371
G1 X208.533 Y127.722 E7.6715
G1 X208.205 Y127.307 E7.7058
G1 X207.906 Y126.785 E7.7448
G1 X207.715 Y126.291 E7.7792
G1 X207.607 Y125.848 E7.8087
G1 X207.545 Y125.175 E7.8526
G1 X207.546 Y114.789 E8.5262
G1 X207.588 Y114.262 E8.5605
G1 X207.683 Y113.815 E8.5901
G1 X207.861 Y113.315 E8.6245
G1 X208.105 Y112.847 E8.6588
G0 F9000 X208.564 Y113.092
G1 F900 X208.833 Y112.723 E8.6884
G1 X209.151 Y112.396 E8.7180
G1 X209.512 Y112.116 E8.7476
G1 X209.908 Y111.889 E8.7772
G1 X210.332 Y111.720 E8.8068
G1 X210.775 Y111.612 E8.8364
G1 X211.325 Y111.565 E8.8722
G1 X221.675 Y111.565 E9.5434
G1 X222.130 Y111.597 E9.5730
G1 X222.577 Y111.692 E9.6027
G1 X223.006 Y111.849 E9.6323
G1 X223.408 Y112.064 E9.6619
G1 X223.777 Y112.333 E9.6915
G1 X224.104 Y112.651 E9.7211
G1 X224.384 Y113.012 E9.7507
G1 X224.611 Y113.408 E9.7803
G1 X224.780 Y113.832 E9.8099
G1 X224.888 Y114.275 E9.8395
G1 X224.935 Y114.825 E9.8753
G1 X224.935 Y125.175 E10.5466
G1 X224.903 Y125.630 E10.5761
G1 X224.808 Y126.077 E10.6058
G1 X224.651 Y126.506 E10.6354
G1 X224.436 Y126.908 E10.6650
G1 X224.167 Y127.277 E10.6946
G1 X223.849 Y127.604 E10.7242
G1 X223.488 Y127.884 E10.7538
G1 X223.092 Y128.111 E10.7834
G1 X222.668 Y128.280 E10.8130
G1 X222.225 Y128.388 E10.8426
G1 X221.675 Y128.435 E10.8784
G1 X211.325 Y128.435 E11.5497
G1 X210.870 Y128.403 E11.5792
G1 X210.423 Y128.308 E11.6089
G1 X209.994 Y128.151 E11.6385
G1 X209.592 Y127.936 E11.6681
G1 X209.223 Y127.667 E11.6977
G1 X208.896 Y127.349 E11.7273
G1 X208.616 Y126.988 E11.7569
G1 X208.389 Y126.592 E11.7865
G1 X208.220 Y126.168 E11.8161
G1 X208.112 Y125.725 E11.8457
G1 X208.065 Y125.175 E11.8815
G1 X208.065 Y114.825 E12.5528
G1 X208.097 Y114.370 E12.5823
G1 X208.192 Y113.923 E12.6120
G1 X208.349 Y113.494 E12.6416
G1 X208.564 Y113.092 E12.6712
G1 F2400 E12.1712
G0 F9000 X191.975 Y114.825
G1 F1500 E12.6712
G1 F900 X191.974 Y125.211 E13.3448
G1 X191.921 Y125.846 E13.3861
G1 X191.807 Y126.359 E13.4202
G1 X191.600 Y126.925 E13.4593
G1 X191.318 Y127.456 E13.4983
G1 X190.964 Y127.941 E13.5372
G1 X190.544 Y128.375 E13.5764
G1 X190.065 Y128.746 E13.6157
G1 X189.543 Y129.045 E13.6547
G1 X188.979 Y129.270 E13.6941
G1 X188.471 Y129.398 E13.7281
G1 X187.723 Y129.473 E13.7768
G1 X177.248 Y129.472 E14.4562
G1 X176.654 Y129.421 E14.4949
G1 X176.141 Y129.307 E14.5289
G1 X175.575 Y129.100 E14.5680
G1 X175.044 Y128.818 E14.6070
G1 X174.559 Y128.464 E14.6460
G1 X174.125 Y128.044 E14.6851
G1 X173.754 Y127.565 E14.7244
G1 X173.455 Y127.043 E14.7635
G1 X173.230 Y126.479 E14.8028
G1 X173.102 Y125.971 E14.8368
G1 X173.027 Y125.223 E14.8856
G1 X173.028 Y114.748 E15.5650
G1 X173.079 Y114.154 E15.6036
G1 X173.193 Y113.641 E15.6377
G1 X173.400 Y113.075 E15.6768
G1 X173.682 Y112.544 E15.7158
G1 X174.040 Y112.055 E15.7551
G1 X174.459 Y111.623 E15.7941
G1 X174.994 Y111.214 E15.8378
G1 X175.452 Y110.957 E15.8719
G1 X175.942 Y110.756 E15.9062
G1 X176.688 Y110.576 E15.9560
G1 X177.325 Y110.525 E15.9974
G1 X187.711 Y110.526 E16.6710
G1 X188.346 Y110.579 E16.7124
G1 X188.859 Y110.693 E16.7464
G1 X189.359 Y110.871 E16.7809
G1 X189.959 Y111.185 E16.8248
G1 X190.506 Y111.591 E16.8690
G1 X190.926 Y112.013 E16.9076
G1 X191.206 Y112.374 E16.9372
G1 X191.511 Y112.886 E16.9759
G1 X191.767 Y113.511 E17.0197
G1 X191.897 Y114.024 E17.0540
G1 X191.975 Y114.825 E17.1062
G0 F9000 X191.455 Y114.825
G1 F900 X191.454 Y125.211 E17.7798
G1 X191.412 Y125.738 E17.8141
G1 X191.317 Y126.185 E17.8437
G1 X191.139 Y126.685 E17.8781
G1 X190.895 Y127.153 E17.9124
G1 X190.587 Y127.583 E17.9467
G1 X190.222 Y127.967 E17.9810
G1 X189.807 Y128.295 E18.0154
G1 X189.285 Y128.594 E18.0544
G1 X188.791 Y128.785 E18.0887
G1 X188.348 Y128.893 E18.1183
G1 X187.675 Y128.955 E18.1621
G1 X177.289 Y128.954 E18.8357
G1 X176.762 Y128.912 E18.8700
G1 X176.315 Y128.817 E18.8997
G1 X175.815 Y128.639 E18.9341
G1 X175.347 Y128.395 E18.9683
G1 X174.917 Y128.087 E19.0026
G1 X174.533 Y127.722 E19.0370
G1 X174.205 Y127.307 E19.0713
G1 X173.906 Y126.785 E19.1103
G1 X173.715 Y126.291 E19.1447
G1 X173.607 Y125.848 E19.1742
G1 X173.545 Y125.175 E19.2181
G1 X173.546 Y114.789 E19.8917
G1 X173.588 Y114.262 E19.9260
G1 X173.683 Y113.815 E19.9556
G1 X173.861 Y113.315 E19.9900
G1 X174.105 Y112.847 E20.0243
G1 X174.413 Y112.417 E20.0586
G1 X174.832 Y111.985 E20.0976
G1 X175.253 Y111.665 E20.1319
G1 X175.649 Y111.438 E20.1615
G1 X176.139 Y111.237 E20.1958
G1 X176.731 Y111.094 E20.2353
G1 X177.325 Y111.045 E20.2740
G1 X187.711 Y111.046 E20.9476
G1 X188.238 Y111.088 E20.9819
G1 X188.685 Y111.183 E21.0115
G1 X189.185 Y111.361 E21.0460
G1 X189.653 Y111.605 E21.0802
G1 X190.140 Y111.960 E21.1193
G1 X190.515 Y112.332 E21.1535
G1 X190.795 Y112.693 E21.1832
G1 X191.062 Y113.149 E21.2174
G1 X191.263 Y113.639 E21.2518
G1 X191.393 Y114.152 E21.2861
G1 X191.455 Y114.825 E21.3299
G0 F9000 X190.935 Y114.825
G1 F900 X190.935 Y125.175 E22.0012
G1 X190.903 Y125.630 E22.0308
G1 X190.808 Y126.077 E22.0604
G1 X190.651 Y126.506 E22.0901
G1 X190.436 Y126.908 E22.1196
G1 X190.167 Y127.277 E22.1492
G1 X189.849 Y127.604 E22.1788
G1 X189.488 Y127.884 E22.2085
G1 X189.092 Y128.111 E22.2381
G1 X188.668 Y128.280 E22.2677
G1 X188.225 Y128.388 E22.2972
G1 X187.675 Y128.435 E22.3330
G1 X177.325 Y128.435 E23.0043
G1 X176.870 Y128.403 E23.0339
G1 X176.423 Y128.308 E23.0635
G1 X175.994 Y128.151 E23.0932
G1 X175.592 Y127.936 E23.1227
G1 X175.223 Y127.667 E23.1523
G1 X174.896 Y127.349 E23.1819
G1 X174.616 Y126.988 E23.2116
G1 X174.389 Y126.592 E23.2412
G1 X174.220 Y126.168 E23.2708
G1 X174.112 Y125.725 E23.3003
G1 X174.065 Y125.175 E23.3361
G1 X174.065 Y114.825 E24.0074
G1 X174.097 Y114.370 E24.0370
G1 X174.192 Y113.923 E24.0666
G1 X174.349 Y113.494 E24.0963
G1 X174.564 Y113.092 E24.1258
G1 X174.833 Y112.723 E24.1554
G1 X175.151 Y112.396 E24.1850
G1 X175.512 Y112.116 E24.2147
G1 X175.908 Y111.889 E24.2443
G1 X176.332 Y111.720 E24.2739
G1 X176.775 Y111.612 E24.3034
G1 X177.325 Y111.565 E24.3392
G1 X187.675 Y111.565 E25.0105
G1 X188.130 Y111.597 E25.0401
G1 X188.577 Y111.692 E25.0697
G1 X189.006 Y111.849 E25.0994
G1 X189.408 Y112.064 E25.1289
G1 X189.777 Y112.333 E25.1586
G1 X190.104 Y112.651 E25.1881
G1 X190.384 Y113.012 E25.2178
G1 X190.611 Y113.408 E25.2474
G1 X190.780 Y113.832 E25.2770
G1 X190.888 Y114.275 E25.3065
G1 X190.935 Y114.825 E25.3423
;PRINTING: inverted_pyramid.stl
;PRINTING_ID: 0
G1 F2400 E24.8423
G0 F9000 X178.105 Y115.605
;TYPE:WALL-INNER
;WIDTH:0.520
G1 F1500 E25.3423
G1 F900 X186.895 Y115.605 E25.9124
G1 X186.895 Y124.395 E26.4825
G1 X178.105 Y124.395 E27.0526
G1 X178.105 Y115.605 E27.6227
G1 F2400 E27.1227
G0 F9000 X177.685 Y115.095
G0 X177.585 Y115.085
;TYPE:WALL-OUTER
;WIDTH:0.520
G1 F1500 E27.6227
G1 F900 X187.415 Y115.085 E28.2603
G1 X187.415 Y124.915 E28.8978
G1 X177.585 Y124.915 E29.5354
G1 X177.585 Y115.085 E30.1729
G0 F3600 X177.785 Y115.085
G1 F2400 E29.6729
G0 F9000 X177.785 Y115.185
G0 X178.625 Y116.125
;PRINTING: inverted_pyramid.stl
;PRINTING_ID: 1
G0 X212.105 Y115.605
;TYPE:WALL-INNER
;WIDTH:0.520
G1 F1500 E30.1729
G1 F900 X220.895 Y115.605 E30.7430
G1 X220.895 Y124.395 E31.3131
G1 X212.105 Y124.395 E31.8832
G1 X212.105 Y115.605 E32.4533
G1 F2400 E31.9533
G0 F9000 X211.685 Y115.095
G0 X211.585 Y115.085
;TYPE:WALL-OUTER
;WIDTH:0.520
G1 F1500 E32.4533
G1 F900 X221.415 Y115.085 E33.0908
G1 X221.415 Y124.915 E33.7284
G1 X211.585 Y124.915 E34.3659
G1 X211.585 Y115.085 E35.0035
G0 F3600 X211.785 Y115.085
G1 F2400 E34.5035
G0 F9000 X211.785 Y115.185
G0 X212.625 Y116.125
;PRINTING_TIME: 40
;REMAINING_TIME: 487
;LAYER:1
;Z:0.550
;HEIGHT:0.250
M106 S128
;PRINTING: inverted_pyramid.stl
;PRINTING_ID: 1
G0 F900 Z0.550
G0 F9000 X212.075 Y115.575
;TYPE:WALL-INNER
;WIDTH:0.400
G1 F1500 E35.0035
G1 F1425 X220.925 Y115.575 E35.3714
G1 X220.925 Y124.425 E35.7394
G1 X212.075 Y124.425 E36.1073
G1 X212.075 Y115.575 E36.4752
G0 F9000 X211.675 Y115.175
G1 F1425 X221.325 Y115.175 E36.8764
G1 X221.325 Y124.825 E37.2776
G1 X211.675 Y124.825 E37.6788
G1 X211.675 Y115.175 E38.0800
G1 F2400 E37.5800
G0 F9000 X211.275 Y114.775
;TYPE:WALL-OUTER
;WIDTH:0.400
G1 F1500 E38.0800
G1 F1425 X221.725 Y114.775 E38.5145
G1 X221.725 Y125.225 E38.9490
G1 X211.275 Y125.225 E39.3834
G1 X211.275 Y114.775 E39.8179
G0 F3600 X211.475 Y114.775
G1 F2400 E39.3179
G0 F9000 X211.475 Y114.875
G0 X212.075 Y115.575
;PRINTING: inverted_pyramid.stl
;PRINTING_ID: 0
G0 X178.075 Y115.575
;TYPE:WALL-INNER
;WIDTH:0.400
G1 F1500 E39.8179
G1 F1425 X186.925 Y115.575 E40.1858
G1 X186.925 Y124.425 E40.5538
G1 X178.075 Y124.425 E40.9217
G1 X178.075 Y115.575 E41.2897
G0 F9000 X177.675 Y115.175
G1 F1425 X187.325 Y115.175 E41.6909
G1 X187.325 Y124.825 E42.0921
G1 X177.675 Y124.825 E42.4933
G1 X177.675 Y115.175 E42.8945
G1 F2400 E42.3945
G0 F9000 X177.275 Y114.775
;TYPE:WALL-OUTER
;WIDTH:0.400
G1 F1500 E42.8945
G1 F1425 X187.725 Y114.775 E43.3289
G1 X187.725 Y125.225 E43.7634
G1 X177.275 Y125.225 E44.1978
G1 X177.275 Y114.775 E44.6323
G0 F3600 X177.475 Y114.775
G1 F2400 E44.1323
G0 F9000 X177.475 Y114.875
G0 X178.075 Y115.575
;PRINTING_TIME: 52
;REMAINING_TIME: 475
;LAYER:2
;Z:0.800
;HEIGHT:0.250
M106 S255
;PRINTING: inverted_pyramid.stl
;PRINTING_ID: 0
G0 F900 Z0.800
G0 F9000 X177.425 Y114.925
;TYPE:WALL-INNER
;WIDTH:0.400
G1 F1500 E44.6323
G1 F1040 X187.575 Y114.925 E45.0543
G1 X187.575 Y125.075 E45.4763
G1 X177.425 Y125.075 E45.8983
G1 X177.425 Y114.925 E46.3202
G1 F2400 E45.8202
G0 F9000 X177.025 Y114.525
;TYPE:WALL-OUTER
;WIDTH:0.400
G1 F1500 E46.3202
G1 F1040 X187.975 Y114.525 E46.7755
G1 X187.975 Y125.475 E47.2307
G1 X177.025 Y125.475 E47.6860
G1 X177.025 Y114.525 E48.1412
G0 F3600 X177.225 Y114.525
G1 F2400 E47.6412
G0 F9000 X177.225 Y114.625
G0 X177.825 Y115.325
;PRINTING: inverted_pyramid.stl
;PRINTING_ID: 1
G0 X211.425 Y114.925
;TYPE:WALL-INNER
;WIDTH:0.400
G1 F1500 E48.1412
G1 F1040 X221.575 Y114.925 E48.5632
G1 X221.575 Y125.075 E48.9852
G1 X211.425 Y125.075 E49.4072
G1 X211.425 Y114.925 E49.8292
G1 F2400 E49.3292
G0 F9000 X211.025 Y114.525
;TYPE:WALL-OUTER
;WIDTH:0.400
G1 F1500 E49.8292
G1 F1040 X221.975 Y114.525 E50.2844
G1 X221.975 Y125.475 E50.7397
G1 X211.025 Y125.475 E51.1949
G1 X211.025 Y114.525 E51.6502
G0 F3600 X211.225 Y114.525
G1 F2400 E51.1502
G0 F9000 X211.225 Y114.625
G0 X211.825 Y115.325
;PRINTING_TIME: 63
;REMAINING_TIME: 464
;LAYER:3
;Z:1.050
;HEIGHT:0.250
;PRINTING: inverted_pyramid.stl
;PRINTING_ID: 1
G0 F900 Z1.050
G0 F9000 X211.575 Y115.075
;TYPE:WALL-INNER
;WIDTH:0.400
G1 F1500 E51.6502
G1 F1575 X221.425 Y115.075 E52.0597
G1 X221.425 Y124.925 E52.4692
G1 X211.575 Y124.925 E52.8787
G1 X211.575 Y115.075 E53.2882
G0 F9000 X211.175 Y114.675
G1 F1575 X221.825 Y114.675 E53.7310
G1 X221.825 Y125.325 E54.1738
G1 X211.175 Y125.325 E54.6166
G1 X211.175 Y114.675 E55.0593
G1 F2400 E54.5593
G0 F9000 X210.775 Y114.275
;TYPE:WALL-OUTER
;WIDTH:0.400
G1 F1500 E55.0593
G1 F1575 X222.225 Y114.275 E55.5354
G1 X222.225 Y125.725 E56.0114
G1 X210.775 Y125.725 E56.4875
G1 X210.775 Y114.275 E56.9635
G0 F3600 X210.975 Y114.275
G1 F2400 E56.4635
G0 F9000 X210.975 Y114.375
G0 X211.575 Y115.075
;PRINTING: inverted_pyramid.stl
;PRINTING_ID: 0
G0 X177.575 Y115.075
;TYPE:WALL-INNER
;WIDTH:0.400
G1 F1500 E56.9635
G1 F1575 X187.425 Y115.075 E57.3730
G1 X187.425 Y124.925 E57.7825
G1 X177.575 Y124.925 E58.1920
G1 X177.575 Y115.075 E58.6016
G0 F9000 X177.175 Y114.675
G1 F1575 X187.825 Y114.675 E59.0443
G1 X187.825 Y125.325 E59.4871
G1 X177.175 Y125.325 E59.9299
G1 X177.175 Y114.675 E60.3727
G1 F2400 E59.8727
G0 F9000 X176.775 Y114.275
;TYPE:WALL-OUTER
;WIDTH:0.400
G1 F1500 E60.3727
G1 F1575 X188.225 Y114.275 E60.8487
G1 X188.225 Y125.725 E61.3247
G1 X176.775 Y125.725 E61.8008
G1 X176.775 Y114.275 E62.2768
G0 F3600 X176.975 Y114.275
G1 F2400 E61.7768
G0 F9000 X176.975 Y114.375
G0 X177.575 Y115.075
;PRINTING_TIME: 75
;REMAINING_TIME: 452
;LAYER:4
;Z:1.300
;HEIGHT:0.250
;PRINTING: inverted_pyramid.stl
;PRINTING_ID: 0
G0 F900 Z1.300
G0 F9000 X176.925 Y114.425
;TYPE:WALL-INNER
;WIDTH:0.400
