;FLAVOR:RepRap
;TIME:451
;Filament used: 0.27387m
;Layer height: 0.2
;MINX:135.416
;MINY:135.4
;MINZ:0.2
;MAXX:163.1
;MAXY:164.57
;MAXZ:5.2
;Generated with Cura_SteamEngine 4.10.0
T0


; Pre-Processed for Cancel-Object support
; 4 known objects
DEFINE_OBJECT NAME=cylinder_2_stl CENTER=143.4647095354524,143.52087701711517 POLYGON=[[141.2,141.201],[141.2,145.799],[145.8,145.799],[145.8,141.201]]
DEFINE_OBJECT NAME=cube_1_stl CENTER=150.00620833333335,143.49660416666666 POLYGON=[[147.7,141.2],[147.7,145.8],[152.3,145.8],[152.3,141.2]]
DEFINE_OBJECT NAME=union_3_stl CENTER=149.8384257425742,150.08154785478547 POLYGON=[[142.7,147.7],[142.7,152.3],[157.3,152.3],[157.3,147.7]]
DEFINE_OBJECT NAME=cube_1_stl_1 CENTER=150.03810952380962,151.51967142857143 POLYGON=[[147.7,147.305],[147.7,158.77],[152.3,158.77],[152.3,147.305]]
M82 ;absolute extrusion mode
PRINT_START BED=110 EXTRUDER=235 CHAMBER=40
M141 S36
M83 ;relative extrusion mode
G1 F4800 E-6.5
;LAYER_COUNT:25
;LAYER:0
M107
G1 F600 Z0.4
G0 F7200 X137.863 Y137.702 Z0.4
;TYPE:SKIRT
G1 F600 Z0.2
G1 F1920 E6.5
G1 F3600 X138.06 Y137.518 E0.00825
G1 X138.437 Y137.196 E0.01517
G1 X138.651 Y137.029 E0.00831
G1 X139.126 Y136.697 E0.01773
G1 X139.313 Y136.58 E0.00675
G1 X139.814 Y136.301 E0.01755
G1 X140.04 Y136.19 E0.0077
G1 X140.552 Y135.969 E0.01706
G1 X140.788 Y135.881 E0.00771
G1 X141.493 Y135.67 E0.02252
G1 X141.907 Y135.575 E0.013
G1 X142.607 Y135.46 E0.02171
G1 X142.809 Y135.44 E0.00621
G1 X143.166 Y135.416 E0.01095
G1 X143.281 Y135.412 E0.00352
G1 X143.556 Y135.41 E0.00842
G1 X144.043 Y135.417 E0.0149
G1 X146.79 Y135.417 E0.08406
G1 X147.521 Y135.402 E0.02237
G1 X147.767 Y135.4 E0.00753
G1 X151.793 Y135.4 E0.12319
G1 X152.575 Y135.411 E0.02393
G1 X153.242 Y135.46 E0.02046
G1 X153.898 Y135.589 E0.02046
G1 X154.535 Y135.795 E0.02049
G1 X155.142 Y136.075 E0.02045
G1 X155.712 Y136.426 E0.02048
G1 X156.236 Y136.843 E0.02049
G1 X156.706 Y137.318 E0.02045
G1 X157.042 Y137.741 E0.01653
G1 X157.508 Y138.39 E0.02445
G1 X159.137 Y140.587 E0.08369
G1 X160.768 Y142.662 E0.08076
G1 X161.12 Y143.087 E0.01689
G1 X161.845 Y143.984 E0.03529
G1 X162.234 Y144.528 E0.02046
G1 X162.555 Y145.115 E0.02047
G1 X162.804 Y145.736 E0.02047
G1 X162.977 Y146.383 E0.02049
G1 X163.087 Y147.33 E0.02917
G1 X163.097 Y147.651 E0.00983
G1 X163.1 Y147.825 E0.00533
G1 X163.099 Y151.867 E0.12368
G1 X163.089 Y152.576 E0.0217
G1 X163.04 Y153.243 E0.02046
G1 X162.911 Y153.9 E0.02049
G1 X162.705 Y154.536 E0.02046
G1 X162.425 Y155.144 E0.02048
G1 X162.074 Y155.713 E0.02046
G1 X161.796 Y156.077 E0.01402
G1 X161.493 Y156.441 E0.01449
G1 X159.767 Y158.58 E0.0841
G1 X158.139 Y160.719 E0.08225
G1 X157.507 Y161.599 E0.03315
G1 X156.998 Y162.288 E0.02621
G1 X156.569 Y162.802 E0.02049
G1 X156.082 Y163.26 E0.02046
G1 X155.544 Y163.658 E0.02048
G1 X154.962 Y163.988 E0.02047
G1 X154.345 Y164.246 E0.02046
G1 X153.701 Y164.429 E0.02049
G1 X153.041 Y164.534 E0.02045
G1 X152.649 Y164.559 E0.01202
G1 X152.325 Y164.568 E0.00992
G1 X152.17 Y164.57 E0.00474
G1 X148.127 Y164.569 E0.12371
G1 X147.425 Y164.559 E0.02148
G1 X146.758 Y164.51 E0.02046
G1 X146.102 Y164.381 E0.02046
G1 X145.465 Y164.175 E0.02049
G1 X144.858 Y163.895 E0.02045
G1 X144.288 Y163.544 E0.02048
G1 X143.764 Y163.127 E0.02049
G1 X143.294 Y162.652 E0.02045
G1 X142.958 Y162.228 E0.01655
G1 X142.654 Y161.805 E0.01594
G1 X141.016 Y159.593 E0.08422
G1 X139.377 Y157.507 E0.08118
G1 X138.744 Y156.744 E0.03034
G1 X138.157 Y156.019 E0.02854
G1 X137.768 Y155.475 E0.02046
G1 X137.446 Y154.888 E0.02049
G1 X137.197 Y154.267 E0.02047
G1 X137.023 Y153.621 E0.02047
G1 X136.965 Y153.285 E0.01043
G1 X136.784 Y152.01 E0.03941
G1 X136.707 Y151.426 E0.01802
G1 X136.291 Y148.81 E0.08105
G1 X135.827 Y146.332 E0.07714
G1 X135.534 Y144.87 E0.04563
G1 X135.431 Y144.039 E0.02562
G1 X135.416 Y143.727 E0.00956
G1 X135.421 Y143.109 E0.01891
G1 X135.436 Y142.869 E0.00736
G1 X135.485 Y142.398 E0.01449
G1 X135.534 Y142.109 E0.00897
G1 X135.582 Y141.865 E0.00761
G1 X135.679 Y141.457 E0.01283
G1 X135.719 Y141.312 E0.0046
G1 X135.852 Y140.892 E0.01348
G1 X135.951 Y140.619 E0.00889
G1 X136.168 Y140.104 E0.0171
G1 X136.301 Y139.827 E0.0094
G1 X136.589 Y139.302 E0.01832
G1 X136.703 Y139.118 E0.00662
G1 X137.031 Y138.644 E0.01764
G1 X137.177 Y138.455 E0.00731
G1 X137.479 Y138.096 E0.01436
G1 X137.555 Y138.013 E0.00344
G1 X137.863 Y137.702 E0.01339
G0 F7200 X138.136 Y137.995
G1 F3600 X138.333 Y137.811 E0.00825
G1 X138.683 Y137.512 E0.01409
G1 X138.897 Y137.345 E0.00831
G1 X139.338 Y137.036 E0.01648
G1 X139.525 Y136.919 E0.00675
G1 X139.991 Y136.66 E0.01631
G1 X140.217 Y136.549 E0.0077
G1 X140.692 Y136.344 E0.01583
G1 X140.928 Y136.256 E0.00771
G1 X141.582 Y136.06 E0.02089
G1 X141.996 Y135.965 E0.013
G1 X142.647 Y135.858 E0.02019
G1 X142.849 Y135.838 E0.00621
G1 X143.18 Y135.816 E0.01015
G1 X143.295 Y135.812 E0.00352
G1 X143.551 Y135.81 E0.00783
G1 X144.038 Y135.817 E0.0149
G1 X146.798 Y135.817 E0.08445
G1 X147.525 Y135.802 E0.02225
G1 X147.771 Y135.8 E0.00753
G1 X151.793 Y135.8 E0.12307
G1 X152.569 Y135.811 E0.02375
G1 X153.212 Y135.86 E0.01973
G1 X153.844 Y135.988 E0.01973
G1 X154.455 Y136.193 E0.01972
G1 X155.036 Y136.473 E0.01974
G1 X155.578 Y136.822 E0.01973
G1 X156.072 Y137.236 E0.01972
G1 X156.512 Y137.707 E0.01972
G1 X156.717 Y137.975 E0.01032
G1 X157.169 Y138.604 E0.0237
G1 X158.804 Y140.81 E0.08402
G1 X160.479 Y142.941 E0.08294
G1 X160.809 Y143.338 E0.0158
G1 X161.534 Y144.235 E0.03529
G1 X161.908 Y144.761 E0.01975
G1 X162.213 Y145.329 E0.01973
G1 X162.446 Y145.93 E0.01972
G1 X162.603 Y146.555 E0.01972
G1 X162.687 Y147.342 E0.02422
G1 X162.7 Y147.825 E0.01478
G1 X162.699 Y151.861 E0.1235
G1 X162.689 Y152.57 E0.0217
G1 X162.64 Y153.213 E0.01973
G1 X162.512 Y153.845 E0.01973
G1 X162.307 Y154.456 E0.01972
G1 X162.027 Y155.037 E0.01974
G1 X161.489 Y155.821 E0.0291
G1 X161.134 Y156.248 E0.01699
G1 X159.454 Y158.331 E0.08189
G1 X157.824 Y160.472 E0.08234
G1 X157.185 Y161.362 E0.03353
G1 X156.676 Y162.051 E0.02621
G1 X156.262 Y162.545 E0.01972
G1 X155.79 Y162.983 E0.0197
G1 X155.267 Y163.36 E0.01973
G1 X154.701 Y163.669 E0.01973
G1 X154.101 Y163.906 E0.01974
G1 X153.477 Y164.067 E0.01972
G1 X152.638 Y164.159 E0.02583
G1 X152.17 Y164.17 E0.01432
G1 X148.133 Y164.169 E0.12353
G1 X147.431 Y164.159 E0.02148
G1 X146.788 Y164.11 E0.01973
G1 X146.156 Y163.982 E0.01973
G1 X145.545 Y163.777 E0.01972
G1 X144.964 Y163.497 E0.01974
G1 X144.422 Y163.148 E0.01973
G1 X143.928 Y162.734 E0.01972
G1 X143.488 Y162.263 E0.01972
G1 X143.282 Y161.995 E0.01034
G1 X142.932 Y161.508 E0.01835
G1 X141.337 Y159.354 E0.08201
G1 X139.684 Y157.249 E0.0819
G1 X139.055 Y156.492 E0.03012
G1 X138.468 Y155.767 E0.02854
G1 X138.094 Y155.242 E0.01972
G1 X137.788 Y154.674 E0.01974
G1 X137.554 Y154.074 E0.01971
G1 X137.361 Y153.229 E0.02652
G1 X137.18 Y151.958 E0.03928
G1 X137.1 Y151.347 E0.01886
G1 X136.679 Y148.708 E0.08177
G1 X136.233 Y146.324 E0.07421
G1 X135.926 Y144.792 E0.04781
G1 X135.831 Y144.02 E0.0238
G1 X135.816 Y143.708 E0.00956
G1 X135.82 Y143.134 E0.01756
G1 X135.835 Y142.894 E0.00736
G1 X135.881 Y142.455 E0.01351
G1 X135.927 Y142.186 E0.00835
G1 X135.975 Y141.942 E0.00761
G1 X136.064 Y141.563 E0.01191
G1 X136.104 Y141.418 E0.0046
G1 X136.229 Y141.028 E0.01253
G1 X136.328 Y140.755 E0.00889
G1 X136.528 Y140.277 E0.01586
G1 X136.661 Y140 E0.0094
G1 X136.929 Y139.512 E0.01704
G1 X137.043 Y139.328 E0.00662
G1 X137.348 Y138.888 E0.01638
G1 X137.494 Y138.699 E0.00731
G1 X137.774 Y138.366 E0.01331
G1 X137.85 Y138.283 E0.00344
G1 X138.136 Y137.995 E0.01242
G0 F7200 X138.409 Y138.287
G1 F3600 X138.606 Y138.103 E0.00825
G1 X138.929 Y137.827 E0.013
G1 X139.143 Y137.66 E0.00831
G1 X139.55 Y137.375 E0.0152
G1 X139.737 Y137.258 E0.00675
G1 X140.167 Y137.019 E0.01505
G1 X140.393 Y136.908 E0.0077
G1 X140.832 Y136.718 E0.01464
G1 X141.068 Y136.63 E0.00771
G1 X141.671 Y136.45 E0.01926
G1 X142.085 Y136.355 E0.013
G1 X142.686 Y136.256 E0.01864
G1 X142.888 Y136.236 E0.00621
G1 X143.194 Y136.216 E0.00938
G1 X143.309 Y136.212 E0.00352
G1 X143.545 Y136.209 E0.00722
G1 X144.102 Y136.217 E0.01705
G1 X146.807 Y136.217 E0.08277
G1 X147.528 Y136.202 E0.02207
G1 X147.774 Y136.2 E0.00753
G1 X151.861 Y136.2 E0.12506
G1 X152.563 Y136.21 E0.02148
G1 X153.181 Y136.259 E0.01897
G1 X153.787 Y136.387 E0.01895
G1 X154.371 Y136.592 E0.01894
G1 X154.925 Y136.87 E0.01897
G1 X155.437 Y137.218 E0.01894
G1 X155.901 Y137.628 E0.01895
G1 X156.393 Y138.208 E0.02327
G1 X156.889 Y138.898 E0.026
G1 X158.483 Y141.05 E0.08195
G1 X160.155 Y143.177 E0.08279
G1 X160.498 Y143.59 E0.01643
G1 X161.223 Y144.487 E0.03529
G1 X161.581 Y144.993 E0.01897
G1 X161.87 Y145.54 E0.01893
G1 X162.086 Y146.12 E0.01894
G1 X162.226 Y146.724 E0.01897
G1 X162.288 Y147.355 E0.0194
G1 X162.298 Y147.676 E0.00983
G1 X162.3 Y147.825 E0.00456
G1 X162.3 Y151.856 E0.12335
G1 X162.29 Y152.565 E0.0217
G1 X162.241 Y153.182 E0.01894
G1 X162.113 Y153.788 E0.01895
G1 X161.908 Y154.373 E0.01897
G1 X161.63 Y154.926 E0.01894
G1 X161.181 Y155.566 E0.02392
G1 X160.847 Y155.968 E0.01599
G1 X159.14 Y158.083 E0.08317
G1 X157.497 Y160.243 E0.08304
G1 X156.864 Y161.124 E0.03319
G1 X156.355 Y161.813 E0.02621
G1 X155.955 Y162.287 E0.01898
G1 X155.498 Y162.705 E0.01895
G1 X154.991 Y163.06 E0.01894
G1 X154.443 Y163.348 E0.01894
G1 X153.862 Y163.562 E0.01895
G1 X153.258 Y163.7 E0.01896
G1 X152.627 Y163.759 E0.01939
G1 X152.17 Y163.77 E0.01399
G1 X148.139 Y163.77 E0.12335
G1 X147.437 Y163.76 E0.02148
G1 X146.819 Y163.711 E0.01897
G1 X146.213 Y163.583 E0.01895
G1 X145.629 Y163.378 E0.01894
G1 X145.075 Y163.1 E0.01897
G1 X144.563 Y162.752 E0.01894
G1 X144.099 Y162.342 E0.01895
G1 X143.607 Y161.761 E0.0233
G1 X143.297 Y161.329 E0.01627
G1 X141.657 Y159.114 E0.08433
G1 X139.99 Y156.992 E0.08257
G1 X139.365 Y156.24 E0.02992
G1 X138.778 Y155.515 E0.02854
G1 X138.421 Y155.01 E0.01892
G1 X138.131 Y154.463 E0.01894
G1 X137.914 Y153.882 E0.01898
G1 X137.757 Y153.172 E0.02225
G1 X137.577 Y151.906 E0.03913
G1 X137.498 Y151.304 E0.01858
G1 X137.075 Y148.65 E0.08224
G1 X136.614 Y146.185 E0.07674
G1 X136.319 Y144.713 E0.04594
G1 X136.231 Y144.001 E0.02195
G1 X136.216 Y143.689 E0.00956
G1 X136.219 Y143.159 E0.01622
G1 X136.234 Y142.919 E0.00736
G1 X136.277 Y142.511 E0.01255
G1 X136.319 Y142.263 E0.0077
G1 X136.367 Y142.019 E0.00761
G1 X136.45 Y141.67 E0.01098
G1 X136.49 Y141.525 E0.0046
G1 X136.605 Y141.165 E0.01156
G1 X136.704 Y140.892 E0.00889
G1 X136.889 Y140.45 E0.01466
G1 X137.022 Y140.173 E0.0094
G1 X137.269 Y139.723 E0.01571
G1 X137.383 Y139.539 E0.00662
G1 X137.664 Y139.133 E0.01511
G1 X137.81 Y138.944 E0.00731
G1 X138.069 Y138.636 E0.01231
G1 X138.145 Y138.553 E0.00344
G1 X138.409 Y138.287 E0.01147
G0 F7200 X138.682 Y138.579
G1 F3600 X138.879 Y138.395 E0.00825
G1 X139.175 Y138.142 E0.01192
G1 X139.389 Y137.975 E0.00831
G1 X139.762 Y137.714 E0.01393
G1 X139.949 Y137.597 E0.00675
G1 X140.343 Y137.378 E0.01379
G1 X140.569 Y137.267 E0.0077
G1 X140.972 Y137.093 E0.01343
G1 X141.208 Y137.005 E0.00771
G1 X141.761 Y136.839 E0.01767
G1 X142.175 Y136.744 E0.013
G1 X142.725 Y136.654 E0.01705
G1 X142.927 Y136.634 E0.00621
G1 X143.208 Y136.616 E0.00862
G1 X143.323 Y136.612 E0.00352
G1 X143.539 Y136.609 E0.00661
G1 X144.096 Y136.617 E0.01705
G1 X146.815 Y136.617 E0.0832
G1 X147.531 Y136.602 E0.02191
G1 X147.777 Y136.6 E0.00753
G1 X151.856 Y136.6 E0.12481
G1 X152.558 Y136.61 E0.02148
G1 X153.149 Y136.659 E0.01815
G1 X153.728 Y136.786 E0.01814
G1 X154.284 Y136.99 E0.01812
G1 X154.809 Y137.267 E0.01816
G1 X155.291 Y137.613 E0.01816
G1 X155.722 Y138.019 E0.01812
G1 X156.068 Y138.442 E0.01672
G1 X156.547 Y139.108 E0.0251
G1 X158.164 Y141.289 E0.08308
G1 X159.85 Y143.435 E0.08351
G1 X160.187 Y143.841 E0.01615
G1 X160.912 Y144.738 E0.03529
G1 X161.253 Y145.223 E0.01814
G1 X161.525 Y145.75 E0.01815
G1 X161.724 Y146.309 E0.01816
G1 X161.847 Y146.889 E0.01814
G1 X161.888 Y147.367 E0.01468
G1 X161.898 Y147.688 E0.00983
G1 X161.9 Y147.825 E0.00419
G1 X161.9 Y151.85 E0.12316
G1 X161.89 Y152.559 E0.0217
G1 X161.841 Y153.15 E0.01815
G1 X161.714 Y153.729 E0.01814
G1 X161.51 Y154.286 E0.01815
G1 X161.233 Y154.81 E0.01814
G1 X160.873 Y155.31 E0.01885
G1 X160.54 Y155.71 E0.01593
G1 X158.825 Y157.835 E0.08356
G1 X157.185 Y159.99 E0.08287
G1 X156.542 Y160.886 E0.03375
G1 X156.033 Y161.575 E0.02621
G1 X155.649 Y162.028 E0.01817
G1 X155.208 Y162.424 E0.01814
G1 X154.718 Y162.757 E0.01813
G1 X154.187 Y163.022 E0.01816
G1 X153.626 Y163.213 E0.01813
G1 X153.044 Y163.326 E0.01814
G1 X152.616 Y163.359 E0.01314
G1 X152.17 Y163.37 E0.01365
G1 X148.144 Y163.37 E0.12319
G1 X147.442 Y163.36 E0.02148
G1 X146.851 Y163.311 E0.01815
G1 X146.272 Y163.184 E0.01814
G1 X145.716 Y162.98 E0.01812
G1 X145.191 Y162.703 E0.01816
G1 X144.709 Y162.357 E0.01816
G1 X144.278 Y161.951 E0.01812
G1 X143.932 Y161.528 E0.01672
G1 X143.582 Y161.041 E0.01835
G1 X141.978 Y158.875 E0.08247
G1 X140.297 Y156.734 E0.08329
G1 X139.676 Y155.989 E0.02968
G1 X139.089 Y155.264 E0.02854
G1 X138.748 Y154.779 E0.01814
G1 X138.475 Y154.252 E0.01816
G1 X138.276 Y153.694 E0.01813
G1 X138.153 Y153.116 E0.01808
G1 X137.973 Y151.853 E0.03904
G1 X137.891 Y151.23 E0.01923
G1 X137.47 Y148.585 E0.08195
G1 X137.007 Y146.111 E0.07702
G1 X136.711 Y144.635 E0.04606
G1 X136.63 Y143.981 E0.02016
G1 X136.615 Y143.669 E0.00956
G1 X136.619 Y143.184 E0.01484
G1 X136.634 Y142.944 E0.00736
G1 X136.673 Y142.568 E0.01157
G1 X136.712 Y142.341 E0.00705
G1 X136.76 Y142.097 E0.00761
G1 X136.835 Y141.776 E0.01009
G1 X136.875 Y141.631 E0.0046
G1 X136.981 Y141.301 E0.01061
G1 X137.08 Y141.028 E0.00889
G1 X137.25 Y140.624 E0.01341
G1 X137.383 Y140.347 E0.0094
G1 X137.609 Y139.934 E0.01441
G1 X137.723 Y139.75 E0.00662
G1 X137.981 Y139.377 E0.01388
G1 X138.127 Y139.188 E0.00731
G1 X138.364 Y138.907 E0.01125
G1 X138.44 Y138.824 E0.00344
G1 X138.682 Y138.579 E0.01054
G0 F7200 X138.955 Y138.872
G1 F3600 X139.152 Y138.688 E0.00825
G1 X139.421 Y138.458 E0.01083
G1 X139.635 Y138.291 E0.00831
G1 X139.974 Y138.053 E0.01267
G1 X140.161 Y137.936 E0.00675
G1 X140.52 Y137.737 E0.01256
G1 X140.746 Y137.626 E0.0077
G1 X141.111 Y137.468 E0.01217
G1 X141.347 Y137.38 E0.00771
G1 X141.85 Y137.229 E0.01607
G1 X142.264 Y137.134 E0.013
G1 X142.765 Y137.052 E0.01553
G1 X142.967 Y137.032 E0.00621
G1 X143.222 Y137.015 E0.00782
G1 X143.337 Y137.011 E0.00352
G1 X143.533 Y137.009 E0.006
G1 X144.09 Y137.017 E0.01705
G1 X146.824 Y137.017 E0.08366
G1 X147.534 Y137.002 E0.02173
G1 X147.78 Y137 E0.00753
G1 X151.85 Y137 E0.12454
G1 X152.552 Y137.01 E0.02148
G1 X153.115 Y137.058 E0.01729
G1 X153.666 Y137.185 E0.0173
G1 X154.194 Y137.389 E0.01732
G1 X154.687 Y137.664 E0.01727
G1 X155.137 Y138.007 E0.01731
G1 X155.534 Y138.409 E0.01729
G1 X155.743 Y138.675 E0.01035
G1 X156.205 Y139.318 E0.02423
G1 X157.86 Y141.551 E0.08505
G1 X159.543 Y143.692 E0.08333
G1 X159.876 Y144.093 E0.01595
G1 X160.601 Y144.99 E0.03529
G1 X160.924 Y145.453 E0.01727
G1 X161.179 Y145.958 E0.01731
G1 X161.36 Y146.493 E0.01728
G1 X161.464 Y147.049 E0.01731
G1 X161.488 Y147.379 E0.01012
G1 X161.5 Y147.825 E0.01365
G1 X161.5 Y151.844 E0.12298
G1 X161.49 Y152.553 E0.0217
G1 X161.442 Y153.117 E0.01732
G1 X161.315 Y153.668 E0.0173
G1 X161.112 Y154.195 E0.01728
G1 X160.836 Y154.689 E0.01732
G1 X160.566 Y155.054 E0.01389
G1 X160.248 Y155.436 E0.01521
G1 X158.512 Y157.588 E0.0846
G1 X156.846 Y159.777 E0.08417
G1 X156.22 Y160.649 E0.03285
G1 X155.711 Y161.338 E0.02621
G1 X155.344 Y161.768 E0.0173
G1 X154.92 Y162.141 E0.01728
G1 X154.447 Y162.452 E0.01732
G1 X153.936 Y162.692 E0.01727
G1 X153.395 Y162.858 E0.01732
G1 X152.605 Y162.959 E0.02437
G1 X152.17 Y162.97 E0.01331
G1 X148.15 Y162.97 E0.12301
