;Sliced by ideaMaker 4.2.0.5250, 2021-09-03 09:54:14 UTC-0700
;Dimension: 205.000 205.000 205.000 0.400
;Plate Shape: 0
;Origin Center: 0
;Extruder Offset #1: 25.000 0.000
;Filament Diameter #1: 1.750
;Filament Diameter #2: 1.750
;Filament Compensation #1: 94.00
;Filament Compensation #2: 100.00
;Filament Density #1: 1240.00
;Filament Density #2: 1240.00
;Bounding Box: 76.501 123.499 94.994 110.006 0.000 9.320
;Model Gap: 0.200
M221 T0 S94.00
M140 S60.00
M104 T0 S215.00
M109 T0 S215.00
T0
M190 S60.00
G21
G90
M82
M107
G28 X0 Y0
G28 Z0
G1 Z15.0 F300
G92 E0
G1 F140 E29
G1 X20 Y0 F140 E30
G92 E0
G1 F9000.0
M117 Printing...
M1001
;TOTAL_NUM: 4
;PRINTING_TIME: 0
;REMAINING_TIME: 744
M106 S0
;LAYER:-2
;Z:0.500
;HEIGHT:0.500
;PRINTING: NON-OBJECT
;PRINTING_ID: -1
G0 F9000 X78.721 Y96.335
G0 F300 Z0.500
;TYPE:RAFT
;WIDTH:0.800
G1 F480 X79.157 Y96.041 E0.0875
G1 X79.480 Y95.867 E0.1485
G1 X79.964 Y95.664 E0.2357
G1 X80.610 Y95.486 E0.3472
G1 X81.119 Y95.414 E0.4327
G1 X81.562 Y95.394 E0.5064
G1 X86.542 Y95.397 E1.3346
G1 X87.110 Y95.440 E1.4293
G1 X87.604 Y95.532 E1.5129
G1 X88.068 Y95.667 E1.5933
G1 X88.539 Y95.767 E1.6733
G1 X89.005 Y95.799 E1.7510
G1 X89.506 Y95.762 E1.8345
G1 X90.607 Y95.486 E2.0233
G1 X90.971 Y95.429 E2.0846
G1 X91.465 Y95.396 E2.1669
G1 X96.447 Y95.394 E2.9954
G1 X96.925 Y95.418 E3.0750
G1 X97.455 Y95.499 E3.1642
G1 X98.116 Y95.692 E3.2787
G1 X98.577 Y95.894 E3.3624
G1 X99.020 Y96.151 E3.4476
G1 X99.443 Y96.464 E3.5351
G1 X99.821 Y96.816 E3.6210
G1 X100.074 Y97.103 E3.6846
G1 X100.373 Y97.518 E3.7697
G1 X100.833 Y98.282 E3.9180
G1 X101.162 Y98.661 E4.0014
G1 X101.537 Y98.985 E4.0838
G1 X101.956 Y99.251 E4.1664
G1 X102.410 Y99.453 E4.2490
G1 X102.888 Y99.587 E4.3316
G1 X103.380 Y99.651 E4.4141
G1 X103.877 Y99.640 E4.4968
G1 X104.367 Y99.559 E4.5793
G1 X104.839 Y99.407 E4.6618
G1 X105.284 Y99.188 E4.7443
G1 X105.693 Y98.906 E4.8269
G1 X106.057 Y98.568 E4.9095
G1 X106.568 Y97.931 E5.0453
G1 X106.959 Y97.501 E5.1420
G1 X107.489 Y97.015 E5.2616
G1 X108.134 Y96.543 E5.3945
G1 X108.747 Y96.188 E5.5123
G1 X109.300 Y95.931 E5.6137
G1 X109.758 Y95.761 E5.6949
G1 X110.444 Y95.570 E5.8134
G1 X110.735 Y95.512 E5.8627
G1 X111.360 Y95.433 E5.9675
G1 X111.894 Y95.403 E6.0564
G1 X112.329 Y95.405 E6.1288
G1 X112.808 Y95.447 E6.2087
G1 X113.322 Y95.528 E6.2952
G1 X114.185 Y95.741 E6.4431
G1 X114.806 Y95.975 E6.5534
G1 X115.321 Y96.223 E6.6485
G1 X115.874 Y96.549 E6.7552
G1 X116.140 Y96.732 E6.8089
G1 X116.799 Y97.271 E6.9505
G1 X117.211 Y97.680 E7.0471
G1 X117.677 Y98.237 E7.1678
G1 X117.870 Y98.509 E7.2233
G1 X118.186 Y99.017 E7.3228
G1 X118.492 Y99.630 E7.4367
G1 X118.749 Y100.304 E7.5567
G1 X118.905 Y100.858 E7.6524
G1 X119.032 Y101.538 E7.7674
G1 X119.087 Y102.132 E7.8666
G1 X119.097 Y102.477 E7.9240
G1 X119.071 Y103.105 E8.0286
G1 X118.978 Y103.795 E8.1444
G1 X118.810 Y104.473 E8.2605
G1 X118.618 Y105.042 E8.3604
G1 X118.346 Y105.679 E8.4756
G1 X117.939 Y106.388 E8.6115
G1 X117.579 Y106.884 E8.7134
G1 X117.283 Y107.238 E8.7902
G1 X116.939 Y107.600 E8.8732
G1 X116.428 Y108.050 E8.9865
G1 X116.156 Y108.257 E9.0433
G1 X115.664 Y108.583 E9.1415
G1 X115.156 Y108.863 E9.2379
G1 X114.531 Y109.137 E9.3514
G1 X113.931 Y109.334 E9.4564
G1 X113.594 Y109.420 E9.5143
G1 X112.958 Y109.539 E9.6219
G1 X112.431 Y109.590 E9.7099
G1 X111.790 Y109.600 E9.8165
G1 X111.037 Y109.537 E9.9422
G1 X110.788 Y109.496 E9.9842
G1 X110.084 Y109.332 E10.1044
G1 X109.639 Y109.192 E10.1820
G1 X109.131 Y108.996 E10.2725
G1 X108.350 Y108.583 E10.4194
G1 X107.846 Y108.257 E10.5192
G1 X107.587 Y108.062 E10.5732
G1 X107.057 Y107.597 E10.6904
G1 X106.612 Y107.124 E10.7984
G1 X105.967 Y106.344 E10.9667
G1 X105.587 Y106.017 E11.0501
G1 X105.167 Y105.751 E11.1328
G1 X104.713 Y105.549 E11.2154
G1 X104.235 Y105.417 E11.2979
G1 X103.742 Y105.354 E11.3805
G1 X103.246 Y105.365 E11.4630
G1 X102.757 Y105.447 E11.5455
G1 X102.284 Y105.599 E11.6281
G1 X101.840 Y105.819 E11.7105
G1 X101.431 Y106.102 E11.7932
G1 X101.068 Y106.441 E11.8758
G1 X100.759 Y106.827 E11.9581
G1 X100.341 Y107.532 E12.0944
G1 X100.131 Y107.824 E12.1542
G1 X99.777 Y108.229 E12.2436
G1 X99.397 Y108.573 E12.3289
G1 X98.851 Y108.955 E12.4397
G1 X98.386 Y109.197 E12.5269
G1 X97.908 Y109.381 E12.6120
G1 X97.400 Y109.513 E12.6993
G1 X96.883 Y109.586 E12.7862
G1 X96.441 Y109.606 E12.8597
G1 X91.460 Y109.603 E13.6881
G1 X90.892 Y109.560 E13.7828
G1 X90.398 Y109.468 E13.8664
G1 X89.934 Y109.333 E13.9467
G1 X89.463 Y109.233 E14.0268
G1 X88.997 Y109.201 E14.1045
G1 X88.496 Y109.238 E14.1880
G1 X87.399 Y109.513 E14.3761
G1 X86.883 Y109.586 E14.4628
G1 X86.441 Y109.606 E14.5364
G1 X81.567 Y109.606 E15.3469
G1 X80.893 Y109.560 E15.4593
G1 X80.398 Y109.468 E15.5430
G1 X80.051 Y109.367 E15.6031
G1 X79.418 Y109.102 E15.7172
G1 X78.971 Y108.842 E15.8032
G1 X78.558 Y108.535 E15.8888
G1 X78.177 Y108.180 E15.9754
G1 X77.845 Y107.791 E16.0604
G1 X77.550 Y107.353 E16.1483
G1 X77.310 Y106.890 E16.2350
G1 X77.124 Y106.407 E16.3211
G1 X76.993 Y105.901 E16.4080
G1 X76.936 Y105.536 E16.4694
G1 X76.903 Y105.042 E16.5517
G1 X76.901 Y100.050 E17.3819
G1 X76.947 Y99.386 E17.4926
G1 X77.039 Y98.891 E17.5763
G1 X77.140 Y98.544 E17.6364
G1 X77.405 Y97.910 E17.7507
G1 X77.664 Y97.465 E17.8363
G1 X77.888 Y97.153 E17.9002
G1 X78.317 Y96.679 E18.0065
G1 X78.721 Y96.335 E18.0948
G0 F9000 X78.780 Y96.652
G1 F480 X78.780 Y108.350 E20.0402
G0 F9000 X81.204 Y109.300
G1 F480 X81.204 Y95.690 E22.3035
G0 F9000 X83.628 Y95.676
G1 F480 X83.628 Y109.326 E24.5735
G0 F9000 X86.052 Y109.326
G1 F480 X86.052 Y95.677 E26.8434
G0 F9000 X88.476 Y96.040
G1 F480 X88.476 Y108.960 E28.9920
G0 F9000 X90.900 Y109.276
G1 F480 X90.900 Y95.723 E31.2458
G0 F9000 X93.324 Y95.675
G1 F480 X93.324 Y109.324 E33.5157
G0 F9000 X95.748 Y109.325
G1 F480 X95.748 Y95.674 E35.7858
G0 F9000 X98.172 Y96.023
G1 F480 X98.172 Y108.980 E37.9406
G0 F9000 X100.596 Y106.584
G1 F480 X100.596 Y98.432 E39.2963
G0 F9000 X103.020 Y99.887
G1 F480 X103.020 Y105.119 E40.1664
G0 F9000 X105.444 Y105.594
G1 F480 X105.444 Y99.417 E41.1936
G0 F9000 X107.868 Y97.084
G1 F480 X107.868 Y107.922 E42.9960
G0 F9000 X110.292 Y109.092
G1 F480 X110.292 Y95.902 E45.1895
G0 F9000 X112.716 Y95.720
G1 F480 X112.716 Y109.282 E47.4448
G0 F9000 X115.140 Y108.553
G1 F480 X115.140 Y96.447 E49.4581
G0 F9000 X117.564 Y98.561
G1 F480 X117.564 Y106.428 E50.7664
;PRINTING_TIME: 41
;REMAINING_TIME: 704
M106 S255
;LAYER:-2
;Z:1.000
;HEIGHT:0.500
;PRINTING: NON-OBJECT
;PRINTING_ID: -1
G0 F300 Z1.000
G0 F9000 X117.579 Y106.884
;TYPE:RAFT
;WIDTH:0.800
G1 F960 X117.283 Y107.238 E50.8431
G1 X116.939 Y107.600 E50.9262
G1 X116.428 Y108.050 E51.0394
G1 X116.156 Y108.257 E51.0962
G1 X115.664 Y108.583 E51.1944
G1 X115.156 Y108.863 E51.2908
G1 X114.531 Y109.137 E51.4043
G1 X113.931 Y109.334 E51.5094
G1 X113.594 Y109.420 E51.5672
G1 X112.958 Y109.539 E51.6748
G1 X112.431 Y109.590 E51.7628
G1 X111.790 Y109.600 E51.8695
G1 X111.037 Y109.537 E51.9951
G1 X110.788 Y109.496 E52.0371
G1 X110.084 Y109.332 E52.1573
G1 X109.639 Y109.192 E52.2349
G1 X109.131 Y108.996 E52.3254
G1 X108.350 Y108.583 E52.4724
G1 X107.846 Y108.257 E52.5722
G1 X107.587 Y108.062 E52.6261
G1 X107.057 Y107.597 E52.7433
G1 X106.612 Y107.124 E52.8513
G1 X105.967 Y106.344 E53.0197
G1 X105.587 Y106.017 E53.1030
G1 X105.167 Y105.751 E53.1857
G1 X104.713 Y105.549 E53.2683
G1 X104.235 Y105.417 E53.3508
G1 X103.742 Y105.354 E53.4335
G1 X103.246 Y105.365 E53.5160
G1 X102.757 Y105.447 E53.5984
G1 X102.284 Y105.599 E53.6810
G1 X101.840 Y105.819 E53.7635
G1 X101.431 Y106.102 E53.8462
G1 X101.068 Y106.441 E53.9288
G1 X100.759 Y106.827 E54.0110
G1 X100.341 Y107.532 E54.1473
G1 X100.131 Y107.824 E54.2071
G1 X99.777 Y108.229 E54.2966
G1 X99.397 Y108.573 E54.3818
G1 X98.851 Y108.955 E54.4926
G1 X98.386 Y109.197 E54.5798
G1 X97.908 Y109.381 E54.6650
G1 X97.400 Y109.513 E54.7523
G1 X96.883 Y109.586 E54.8391
G1 X96.441 Y109.606 E54.9127
G1 X91.460 Y109.603 E55.7410
G1 X90.892 Y109.560 E55.8357
G1 X90.398 Y109.468 E55.9193
G1 X89.934 Y109.333 E55.9997
G1 X89.463 Y109.233 E56.0797
G1 X88.997 Y109.201 E56.1574
G1 X88.496 Y109.238 E56.2410
G1 X87.399 Y109.513 E56.4290
G1 X86.883 Y109.586 E56.5157
G1 X86.441 Y109.606 E56.5893
G1 X81.567 Y109.606 E57.3998
G1 X80.893 Y109.560 E57.5122
G1 X80.398 Y109.468 E57.5959
G1 X80.051 Y109.367 E57.6560
G1 X79.418 Y109.102 E57.7701
G1 X78.971 Y108.842 E57.8561
G1 X78.558 Y108.535 E57.9417
G1 X78.177 Y108.180 E58.0283
G1 X77.845 Y107.791 E58.1134
G1 X77.550 Y107.353 E58.2012
G1 X77.310 Y106.890 E58.2879
G1 X77.124 Y106.407 E58.3740
G1 X76.993 Y105.901 E58.4609
G1 X76.936 Y105.536 E58.5223
G1 X76.903 Y105.042 E58.6047
G1 X76.901 Y100.050 E59.4348
G1 X76.947 Y99.386 E59.5455
G1 X77.039 Y98.891 E59.6293
G1 X77.140 Y98.544 E59.6894
G1 X77.405 Y97.910 E59.8036
G1 X77.664 Y97.465 E59.8893
G1 X77.888 Y97.153 E59.9531
G1 X78.317 Y96.679 E60.0595
G1 X78.721 Y96.335 E60.1477
G1 X79.157 Y96.041 E60.2351
G1 X79.480 Y95.867 E60.2962
G1 X79.964 Y95.664 E60.3834
G1 X80.610 Y95.486 E60.4949
G1 X81.119 Y95.414 E60.5804
G1 X81.562 Y95.394 E60.6541
G1 X86.542 Y95.397 E61.4823
G1 X87.110 Y95.440 E61.5770
G1 X87.604 Y95.532 E61.6606
G1 X88.068 Y95.667 E61.7409
G1 X88.539 Y95.767 E61.8210
G1 X89.005 Y95.799 E61.8987
G1 X89.506 Y95.762 E61.9822
G1 X90.607 Y95.486 E62.1710
G1 X90.971 Y95.429 E62.2323
G1 X91.465 Y95.396 E62.3146
G1 X96.447 Y95.394 E63.1431
G1 X96.925 Y95.418 E63.2227
G1 X97.455 Y95.499 E63.3119
G1 X98.116 Y95.692 E63.4264
G1 X98.577 Y95.894 E63.5101
G1 X99.020 Y96.151 E63.5953
G1 X99.443 Y96.464 E63.6828
G1 X99.821 Y96.816 E63.7687
G1 X100.074 Y97.103 E63.8323
G1 X100.373 Y97.518 E63.9174
G1 X100.833 Y98.282 E64.0657
G1 X101.162 Y98.661 E64.1491
G1 X101.537 Y98.985 E64.2315
G1 X101.956 Y99.251 E64.3141
G1 X102.410 Y99.453 E64.3967
G1 X102.888 Y99.587 E64.4793
G1 X103.380 Y99.651 E64.5618
G1 X103.877 Y99.640 E64.6445
G1 X104.367 Y99.559 E64.7270
G1 X104.839 Y99.407 E64.8095
G1 X105.284 Y99.188 E64.8920
G1 X105.693 Y98.906 E64.9746
G1 X106.057 Y98.568 E65.0572
G1 X106.568 Y97.931 E65.1930
G1 X106.959 Y97.501 E65.2897
G1 X107.489 Y97.015 E65.4093
G1 X108.134 Y96.543 E65.5422
G1 X108.747 Y96.188 E65.6600
G1 X109.300 Y95.931 E65.7614
G1 X109.758 Y95.761 E65.8426
G1 X110.444 Y95.570 E65.9611
G1 X110.735 Y95.512 E66.0104
G1 X111.360 Y95.433 E66.1152
G1 X111.894 Y95.403 E66.2041
G1 X112.329 Y95.405 E66.2764
G1 X112.808 Y95.447 E66.3564
G1 X113.322 Y95.528 E66.4429
G1 X114.185 Y95.741 E66.5908
G1 X114.806 Y95.975 E66.7011
G1 X115.321 Y96.223 E66.7962
G1 X115.874 Y96.549 E66.9029
G1 X116.140 Y96.732 E66.9566
G1 X116.799 Y97.271 E67.0982
G1 X117.211 Y97.680 E67.1948
G1 X117.677 Y98.237 E67.3155
G1 X117.870 Y98.509 E67.3710
G1 X118.186 Y99.017 E67.4705
G1 X118.492 Y99.630 E67.5844
G1 X118.749 Y100.304 E67.7044
G1 X118.905 Y100.858 E67.8001
G1 X119.032 Y101.538 E67.9151
G1 X119.087 Y102.132 E68.0143
G1 X119.097 Y102.477 E68.0717
G1 X119.071 Y103.105 E68.1763
G1 X118.978 Y103.795 E68.2921
G1 X118.810 Y104.473 E68.4082
G1 X118.618 Y105.042 E68.5081
G1 X118.346 Y105.679 E68.6233
G1 X117.939 Y106.388 E68.7592
G1 X117.579 Y106.884 E68.8611
G0 F9000 X117.564 Y106.428
G1 F960 X117.564 Y98.561 E70.1694
G0 F9000 X115.140 Y96.447
G1 F960 X115.140 Y108.553 E72.1827
G0 F9000 X112.716 Y109.282
G1 F960 X112.716 Y95.720 E74.4380
G0 F9000 X110.292 Y95.902
G1 F960 X110.292 Y109.092 E76.6315
G0 F9000 X107.868 Y107.922
G1 F960 X107.868 Y97.084 E78.4339
G0 F9000 X105.444 Y99.417
G1 F960 X105.444 Y105.594 E79.4611
G0 F9000 X103.020 Y105.119
G1 F960 X103.020 Y99.887 E80.3312
G0 F9000 X100.596 Y98.432
G1 F960 X100.596 Y106.584 E81.6869
G0 F9000 X98.172 Y108.980
G1 F960 X98.172 Y96.023 E83.8417
G0 F9000 X95.748 Y95.674
G1 F960 X95.748 Y109.325 E86.1118
G0 F9000 X93.324 Y109.324
G1 F960 X93.324 Y95.675 E88.3817
G0 F9000 X90.900 Y95.723
G1 F960 X90.900 Y109.276 E90.6356
G0 F9000 X88.476 Y108.960
G1 F960 X88.476 Y96.040 E92.7842
G0 F9000 X86.052 Y95.677
G1 F960 X86.052 Y109.326 E95.0540
G0 F9000 X83.628 Y109.326
G1 F960 X83.628 Y95.676 E97.3240
G0 F9000 X81.204 Y95.690
G1 F960 X81.204 Y109.300 E99.5874
G0 F9000 X78.780 Y108.350
G1 F960 X78.780 Y96.652 E101.5327
;PRINTING_TIME: 62
;REMAINING_TIME: 683
;LAYER:-1
;Z:1.380
;HEIGHT:0.380
;PRINTING: NON-OBJECT
;PRINTING_ID: -1
G0 F300 Z1.380
G0 F9000 X78.997 Y108.600
;TYPE:RAFT
;WIDTH:0.600
G1 F1800 X98.991 Y108.600 E103.4280
G0 F9000 X100.175 Y107.400
G1 F1800 X77.834 Y107.400 E105.5457
G0 F9000 X77.286 Y106.200
G1 F1800 X101.018 Y106.200 E107.7953
G0 F9000 X106.121 Y106.200
G1 F1800 X117.805 Y106.200 E108.9029
G0 F9000 X118.406 Y105.000
G1 F1800 X77.112 Y105.000 E112.8172
G0 F9000 X77.112 Y103.800
G1 F1800 X118.760 Y103.800 E116.7651
G0 F9000 X118.881 Y102.600
G1 F1800 X77.112 Y102.600 E120.7244
G0 F9000 X77.111 Y101.400
G1 F1800 X118.793 Y101.400 E124.6755
G0 F9000 X118.486 Y100.200
G1 F1800 X77.111 Y100.200 E128.5975
G0 F9000 X77.232 Y99.000
G1 F1800 X101.235 Y99.000 E130.8728
G0 F9000 X100.298 Y97.800
G1 F1800 X77.712 Y97.800 E133.0137
G0 F9000 X78.733 Y96.600
G1 F1800 X99.274 Y96.600 E134.9608
G0 F9000 X105.902 Y99.000
G1 F1800 X117.929 Y99.000 E136.1009
G0 F9000 X117.034 Y97.800
G1 F1800 X106.971 Y97.800 E137.0548
G0 F9000 X108.456 Y96.600
G1 F1800 X115.547 Y96.600 E137.7269
G0 F9000 X116.838 Y107.400
G1 F1800 X107.160 Y107.400 E138.6443
G0 F9000 X108.830 Y108.600
G1 F1800 X115.198 Y108.600 E139.2480
;PRINTING_TIME: 77
;REMAINING_TIME: 668
;LAYER:-1
;Z:1.600
;HEIGHT:0.220
;PRINTING: NON-OBJECT
;PRINTING_ID: -1
G0 F300 Z1.600
G0 F9000 X118.652 Y100.479
;TYPE:RAFT
;WIDTH:0.400
G1 F3600 X117.067 Y97.735 E139.4485
G0 F9000 X115.978 Y96.791
G1 F3600 X118.924 Y101.892 E139.8214
G0 F9000 X118.940 Y102.862
G1 F3600 X115.149 Y96.296 E140.3013
G0 F9000 X114.423 Y95.981
G1 F3600 X118.854 Y103.656 E140.8622
G0 F9000 X118.701 Y104.332
G1 F3600 X113.764 Y95.782 E141.4871
G0 F9000 X113.139 Y95.641
G1 F3600 X118.505 Y104.935 E142.1663
G0 F9000 X118.277 Y105.482
G1 F3600 X112.551 Y95.565 E142.8911
G0 F9000 X111.995 Y95.543
G1 F3600 X118.016 Y105.972 E143.6534
G0 F9000 X117.736 Y106.428
G1 F3600 X111.465 Y95.567 E144.4471
G0 F9000 X110.954 Y95.625
G1 F3600 X117.431 Y106.842 E145.2670
G0 F9000 X117.105 Y107.221
G1 F3600 X110.460 Y95.711 E146.1082
G0 F9000 X109.991 Y95.841
G1 F3600 X116.762 Y107.568 E146.9653
G0 F9000 X116.401 Y107.886
G1 F3600 X109.535 Y95.993 E147.8345
G0 F9000 X109.099 Y96.179
G1 F3600 X116.025 Y108.176 E148.7113
G0 F9000 X115.632 Y108.436
G1 F3600 X108.676 Y96.389 E149.5917
G0 F9000 X108.269 Y96.625
G1 F3600 X115.220 Y108.666 E150.4717
G0 F9000 X114.793 Y108.867
G1 F3600 X107.883 Y96.899 E151.3464
G0 F9000 X107.505 Y97.187
G1 F3600 X114.352 Y109.047 E152.2132
G0 F9000 X113.896 Y109.197
G1 F3600 X107.150 Y97.513 E153.0672
G0 F9000 X106.811 Y97.869
G1 F3600 X113.416 Y109.309 E153.9033
G0 F9000 X112.925 Y109.400
G1 F3600 X106.488 Y98.251 E154.7181
G0 F9000 X106.172 Y98.645
G1 F3600 X112.409 Y109.449 E155.5077
G0 F9000 X111.870 Y109.458
G1 F3600 X105.819 Y98.977 E156.2737
G0 F9000 X105.435 Y99.252
G1 F3600 X111.304 Y109.418 E157.0167
G0 F9000 X110.712 Y109.335
G1 F3600 X105.019 Y99.474 E157.7374
G0 F9000 X104.571 Y99.640
G1 F3600 X110.081 Y109.184 E158.4349
G0 F9000 X109.401 Y108.949
G1 F3600 X104.089 Y99.748 E159.1073
G0 F9000 X103.568 Y99.787
G1 F3600 X108.645 Y108.581 E159.7501
G0 F9000 X107.788 Y108.038
G1 F3600 X102.998 Y99.742 E160.3564
G0 F9000 X102.364 Y99.586
G1 F3600 X106.538 Y106.816 E160.8848
G0 F9000 X105.351 Y105.701
G1 F3600 X101.588 Y99.184 E161.3611
G0 F9000 X99.758 Y96.957
G1 F3600 X104.619 Y105.376 E161.9764
G0 F9000 X103.999 Y105.245
G1 F3600 X98.753 Y96.158 E162.6405
