; Postprocessed by [ArcWelder](https://github.com/FormerLurker/ArcWelderLib)
; Copyright(C) 2020 - Brad Hochgesang
; resolution=0.05mm
; path_tolerance=5%
; max_radius=1000000.00mm
; default_xyz_precision=3
; default_e_precision=5

; generated by PrusaSlicer 2.4.0-alpha1+win64 on 2021-09-03 at 16:52:36 UTC







; TODO: check the size of the extruder and the y-bar clearance. Optimize & test supports.

; external perimeters extrusion width = 0.21mm
; perimeters extrusion width = 0.22mm
; infill extrusion width = 0.22mm
; solid infill extrusion width = 0.22mm
; top infill extrusion width = 0.22mm
; first layer extrusion width = 0.28mm

; external perimeters extrusion width = 0.21mm
; perimeters extrusion width = 0.22mm
; infill extrusion width = 0.22mm
; solid infill extrusion width = 0.22mm
; top infill extrusion width = 0.22mm
; first layer extrusion width = 0.28mm

; external perimeters extrusion width = 0.21mm
; perimeters extrusion width = 0.22mm
; infill extrusion width = 0.22mm
; solid infill extrusion width = 0.22mm
; top infill extrusion width = 0.22mm
; first layer extrusion width = 0.28mm

M107
M190 S110 ; set bed temperature and wait for it to be reached
M104 S240 ; set temperature
;TYPE:Custom
print_start EXTRUDER=240 BED=110
M109 S240 ; set temperature and wait for it to be reached
G21 ; set units to millimeters
G90 ; use absolute coordinates
M83 ; use relative distances for extrusion
;LAYER_CHANGE
;Z:0.2
;HEIGHT:0.2
;BEFORE_LAYER_CHANGE
;0.2

G1 Z0.200 F18000.000
;AFTER_LAYER_CHANGE
;0.2

TIMELAPSE_TAKE_FRAME
G1 E-0.75000 F3000.000
G1 Z0.600 F18000.000
G1 X134.637 Y136.917
G1 Z0.200
G1 E0.75000 F1800.000
M204 S1000
;TYPE:Skirt/Brim
;WIDTH:0.28
G1 F1500.000
G1 X137.005 Y136.392 E0.04495
G1 X152.005 Y136.392 E0.27796
G1 X154.315 Y136.890 E0.04379
G1 X164.317 Y141.431 E0.20355
G1 X165.754 Y142.411 E0.03221
G3 X167.041 Y143.798 I-5.256 J6.168 E0.03512
G1 X167.737 Y144.938 E0.02476
G1 X168.280 Y146.318 E0.02748
G1 X168.531 Y147.511 E0.02260
G1 X168.598 Y148.840 E0.02466
G1 X168.468 Y150.050 E0.02256
G1 X168.064 Y151.485 E0.02761
G1 X167.485 Y152.688 E0.02475
G1 X166.614 Y153.899 E0.02762
G1 X165.754 Y154.751 E0.02245
G1 X156.574 Y162.326 E0.22054
G1 X154.724 Y163.338 E0.03907
G1 X153.005 Y163.608 E0.03224
G1 X137.005 Y163.608 E0.29649
G1 X134.934 Y163.211 E0.03907
G1 X133.156 Y162.078 E0.03907
G1 X131.922 Y160.368 E0.03907
G1 X131.397 Y158.000 E0.04495
G1 X131.397 Y142.000 E0.29649
G1 X131.794 Y139.929 E0.03907
G1 X132.927 Y138.151 E0.03907
G1 X134.588 Y136.952 E0.03796
M204 S3000
G1 X134.859 Y137.077 F18000.000
M204 S1000
G1 F1500.000
G1 X137.005 Y136.629 E0.04063
G1 X152.005 Y136.629 E0.27796
G1 X154.218 Y137.106 E0.04194
G1 X164.204 Y141.640 E0.20323
G1 X165.601 Y142.592 E0.03134
G3 X166.848 Y143.936 I-5.082 J5.966 E0.03403
G1 X167.526 Y145.046 E0.02410
G1 X168.051 Y146.382 E0.02660
G1 X168.296 Y147.541 E0.02194
G1 X168.361 Y148.834 E0.02401
G1 X168.234 Y150.009 E0.02189
G1 X167.843 Y151.398 E0.02674
G1 X167.279 Y152.570 E0.02409
G1 X166.437 Y153.742 E0.02675
G1 X165.506 Y154.650 E0.02410
G1 X156.423 Y162.143 E0.21819
G1 X154.609 Y163.126 E0.03823
G1 X153.005 Y163.371 E0.03006
G1 X137.005 Y163.371 E0.29649
G1 X134.981 Y162.975 E0.03823
G1 X133.255 Y161.844 E0.03823
G1 X132.082 Y160.147 E0.03823
G1 X131.635 Y158.000 E0.04063
G1 X131.635 Y142.000 E0.29649
G1 X132.031 Y139.975 E0.03823
G1 X133.161 Y138.249 E0.03823
G1 X134.809 Y137.111 E0.03712
M204 S3000
G1 X133.395 Y138.350 F18000.000
M204 S1000
G1 F1500.000
G1 X135.079 Y137.241 E0.03737
G1 X137.005 Y136.866 E0.03636
G1 X152.005 Y136.866 E0.27796
G1 X154.120 Y137.322 E0.04008
G1 X164.091 Y141.848 E0.20290
G1 X165.449 Y142.774 E0.03046
G3 X166.656 Y144.075 I-4.987 J5.837 E0.03293
G1 X167.315 Y145.154 E0.02344
G1 X167.823 Y146.447 E0.02573
G1 X168.061 Y147.570 E0.02128
G1 X168.124 Y148.829 E0.02335
G1 X168.001 Y149.968 E0.02123
G1 X167.623 Y151.312 E0.02586
G1 X167.074 Y152.451 E0.02344
G1 X166.259 Y153.585 E0.02587
G1 X165.353 Y154.468 E0.02344
G1 X156.272 Y161.960 E0.21815
G1 X154.495 Y162.913 E0.03737
G1 X153.005 Y163.134 E0.02790
G1 X137.005 Y163.134 E0.29649
G1 X135.028 Y162.738 E0.03737
G1 X133.356 Y161.610 E0.03737
G1 X132.247 Y159.926 E0.03737
G1 X131.872 Y158.000 E0.03636
G1 X131.872 Y142.000 E0.29649
G1 X132.268 Y140.023 E0.03737
G1 X133.361 Y138.400 E0.03626
M204 S3000
G1 X133.628 Y138.454 F18000.000
M204 S1000
G1 F1500.000
G1 X135.298 Y137.411 E0.03649
G1 X137.005 Y137.103 E0.03214
G1 X152.005 Y137.103 E0.27796
G1 X154.022 Y137.538 E0.03823
G1 X163.977 Y142.056 E0.20258
G1 X165.201 Y142.875 E0.02729
G1 X166.316 Y144.018 E0.02959
G1 X167.048 Y145.151 E0.02499
G1 X167.524 Y146.282 E0.02274
G1 X167.825 Y147.600 E0.02504
G1 X167.887 Y148.823 E0.02270
G1 X167.767 Y149.927 E0.02057
G1 X167.402 Y151.225 E0.02499
G1 X166.869 Y152.333 E0.02278
G1 X166.081 Y153.428 E0.02500
G1 X165.201 Y154.286 E0.02278
G1 X156.121 Y161.777 E0.21812
G1 X154.382 Y162.699 E0.03649
G1 X153.005 Y162.897 E0.02576
G1 X137.005 Y162.897 E0.29649
G1 X135.076 Y162.501 E0.03649
G1 X133.460 Y161.377 E0.03649
G1 X132.416 Y159.707 E0.03649
G1 X132.109 Y158.000 E0.03214
G1 X132.109 Y142.000 E0.29649
G1 X132.505 Y140.071 E0.03649
G1 X133.594 Y138.503 E0.03538
M204 S3000
G1 X133.861 Y138.561 F18000.000
M204 S1000
G1 F1500.000
G1 X135.515 Y137.585 E0.03558
G1 X137.005 Y137.340 E0.02798
G1 X152.005 Y137.340 E0.27796
G1 X153.925 Y137.754 E0.03638
G1 X163.864 Y142.264 E0.20225
G1 X165.049 Y143.057 E0.02642
G1 X166.130 Y144.166 E0.02871
G1 X166.837 Y145.259 E0.02411
G1 X167.300 Y146.358 E0.02209
G1 X167.590 Y147.629 E0.02416
G3 X167.534 Y149.886 I-7.086 J0.953 E0.04196
G1 X167.181 Y151.138 E0.02411
G1 X166.663 Y152.214 E0.02213
G1 X165.903 Y153.271 E0.02412
G1 X165.049 Y154.105 E0.02213
G1 X155.971 Y161.594 E0.21808
G1 X154.269 Y162.485 E0.03558
G1 X153.005 Y162.660 E0.02364
G1 X137.005 Y162.660 E0.29649
G1 X135.126 Y162.264 E0.03558
G1 X133.566 Y161.144 E0.03558
G1 X132.590 Y159.490 E0.03558
G1 X132.346 Y158.000 E0.02798
G1 X132.346 Y142.000 E0.29649
G1 X132.742 Y140.121 E0.03558
G1 X133.826 Y138.610 E0.03447
M204 S3000
G1 X134.094 Y138.671 F18000.000
M204 S1000
G1 F1500.000
G1 X135.730 Y137.765 E0.03466
G1 X137.005 Y137.578 E0.02388
G1 X152.005 Y137.578 E0.27796
G1 X153.827 Y137.970 E0.03453
G1 X163.750 Y142.472 E0.20193
G1 X164.896 Y143.239 E0.02554
G1 X165.945 Y144.314 E0.02784
G1 X166.626 Y145.368 E0.02324
G1 X167.075 Y146.433 E0.02143
G1 X167.355 Y147.658 E0.02329
G3 X167.300 Y149.844 I-6.832 J0.922 E0.04065
G1 X166.961 Y151.052 E0.02324
G1 X166.458 Y152.096 E0.02147
G1 X165.726 Y153.114 E0.02325
G1 X164.896 Y153.923 E0.02147
G1 X155.820 Y161.411 E0.21804
G1 X154.158 Y162.270 E0.03466
G1 X153.005 Y162.422 E0.02155
G1 X137.005 Y162.422 E0.29649
G1 X135.177 Y162.027 E0.03466
G1 X133.676 Y160.911 E0.03466
G1 X132.771 Y159.275 E0.03466
G1 X132.583 Y158.000 E0.02388
G1 X132.583 Y142.000 E0.29649
G1 X132.978 Y140.172 E0.03466
G1 X134.058 Y138.719 E0.03355
M204 S3000
G1 X134.326 Y138.784 F18000.000
M204 S1000
G1 F1500.000
G1 X135.943 Y137.952 E0.03370
G1 X137.005 Y137.815 E0.01985
G1 X152.005 Y137.815 E0.27796
G1 X153.729 Y138.186 E0.03268
G1 X163.637 Y142.681 E0.20160
G1 X164.744 Y143.420 E0.02467
G1 X165.760 Y144.462 E0.02696
G1 X166.415 Y145.476 E0.02237
G1 X166.850 Y146.509 E0.02077
G1 X167.120 Y147.688 E0.02241
G1 X167.176 Y148.806 E0.02074
G1 X167.026 Y150.008 E0.02244
G1 X166.694 Y151.081 E0.02081
G1 X166.144 Y152.155 E0.02237
G3 X164.744 Y153.742 I-5.675 J-3.595 E0.03933
G1 X155.669 Y161.229 E0.21801
G1 X154.048 Y162.053 E0.03370
G1 X153.005 Y162.185 E0.01947
G1 X137.005 Y162.185 E0.29649
G1 X135.230 Y161.790 E0.03370
G1 X133.790 Y160.679 E0.03370
G1 X132.957 Y159.062 E0.03370
G1 X132.820 Y158.000 E0.01985
G1 X132.820 Y142.000 E0.29649
G1 X133.215 Y140.225 E0.03370
G1 X134.290 Y138.832 E0.03259
M204 S3000
G1 X134.558 Y138.902 F18000.000
M204 S1000
G1 F1500.000
G1 X137.005 Y138.052 E0.04801
G1 X152.005 Y138.052 E0.27796
G1 X153.632 Y138.402 E0.03083
G1 X163.524 Y142.889 E0.20127
G1 X164.591 Y143.602 E0.02379
G1 X165.497 Y144.512 E0.02379
G1 X166.110 Y145.411 E0.02017
G1 X166.587 Y146.468 E0.02149
G1 X166.855 Y147.523 E0.02016
G1 X166.939 Y148.800 E0.02373
G1 X166.794 Y149.955 E0.02156
G1 X166.474 Y150.994 E0.02016
G1 X165.945 Y152.027 E0.02150
G3 X164.591 Y153.560 I-5.437 J-3.437 E0.03802
G1 X155.518 Y161.046 E0.21797
G1 X153.939 Y161.836 E0.03272
G1 X153.005 Y161.948 E0.01742
G1 X137.005 Y161.948 E0.29649
G1 X135.284 Y161.553 E0.03272
G1 X133.907 Y160.448 E0.03272
G1 X133.057 Y158.000 E0.04801
G1 X133.057 Y142.000 E0.29649
G1 X133.452 Y140.279 E0.03272
G1 X134.520 Y138.949 E0.03161
M204 S3000
G1 X134.789 Y139.024 F18000.000
M204 S1000
G1 F1500.000
G1 X137.005 Y138.289 E0.04327
G1 X152.005 Y138.289 E0.27796
G1 X153.534 Y138.618 E0.02898
G1 X163.410 Y143.097 E0.20095
G1 X164.439 Y143.783 E0.02292
G1 X165.311 Y144.660 E0.02292
G3 X166.622 Y147.564 I-4.826 J3.927 E0.05962
G1 X166.702 Y148.795 E0.02286
G3 X166.253 Y150.908 I-6.235 J-0.221 E0.04018
G3 X164.439 Y153.378 I-5.765 J-2.333 E0.05732
G1 X155.367 Y160.863 E0.21793
G1 X153.005 Y161.711 E0.04650
G1 X137.005 Y161.711 E0.29649
G1 X135.340 Y161.317 E0.03171
G1 X134.029 Y160.217 E0.03171
G1 X133.294 Y158.000 E0.04327
G1 X133.294 Y142.000 E0.29649
G1 X133.689 Y140.335 E0.03171
G1 X134.750 Y139.069 E0.03060
M204 S3000
G1 X135.019 Y139.150 F18000.000
M204 S1000
G1 F1500.000
G1 X137.005 Y138.526 E0.03859
G1 X152.005 Y138.526 E0.27796
G1 X153.436 Y138.834 E0.02713
G1 X163.142 Y143.226 E0.19741
G1 X164.151 Y143.857 E0.02204
G1 X165.015 Y144.675 E0.02204
G3 X164.382 Y153.117 I-4.522 J3.906 E0.17409
G1 X155.216 Y160.680 E0.22020
G1 X153.005 Y161.474 E0.04353
G1 X137.005 Y161.474 E0.29649
G1 X135.398 Y161.080 E0.03067
G1 X134.155 Y159.987 E0.03067
G1 X133.531 Y158.000 E0.03859
G1 X133.531 Y142.000 E0.29649
G1 X133.925 Y140.393 E0.03067
G1 X134.979 Y139.195 E0.02956
M204 S3000
G1 X135.248 Y139.282 F18000.000
M204 S1000
G1 F1500.000
G1 X137.005 Y138.763 E0.03396
G1 X152.005 Y138.763 E0.27796
G1 X153.339 Y139.050 E0.02528
G1 X163.040 Y143.440 E0.19731
G1 X164.008 Y144.046 E0.02117
G1 X164.837 Y144.832 E0.02117
G3 X164.230 Y152.935 I-4.341 J3.749 E0.16711
G1 X155.065 Y160.497 E0.22017
G1 X153.005 Y161.237 E0.04056
G1 X137.005 Y161.237 E0.29649
G1 X135.458 Y160.843 E0.02959
G1 X134.287 Y159.758 E0.02959
G1 X133.768 Y158.000 E0.03396
G1 X133.768 Y142.000 E0.29649
G1 X134.162 Y140.453 E0.02959
G1 X135.207 Y139.326 E0.02848
M204 S3000
; printing object cylinder_2 id:1 copy 0
G1 E-0.75000 F3000.000
G1 Z0.600 F18000.000
G1 X158.791 Y148.055
G1 Z0.200
G1 E0.75000 F1800.000
M204 S1000
;TYPE:Perimeter
G1 F1500.000
G3 X158.721 Y148.403 I1.704 J0.524 E0.20068
G1 X158.779 Y148.114 E0.00547
M204 S3000
G1 X158.563 Y147.985 F18000.000
M204 S1000
G1 F1500.000
G3 X158.484 Y148.380 I1.933 J0.592 E0.22754
G1 X158.552 Y148.044 E0.00635
M204 S3000
G1 X158.336 Y147.915 F18000.000
M204 S1000
;TYPE:External perimeter
G1 F1500.000
G3 X158.247 Y148.356 I2.159 J0.665 E0.25436
G1 X158.324 Y147.974 E0.00723
M204 S3000
G1 X158.726 Y147.826 F18000.000
G1 X159.800 Y150.125
M204 S1000
;TYPE:Solid infill
;WIDTH:0.286457
G1 F1500.000
G1 X159.266 Y149.591 E0.01437
G3 X158.949 Y148.929 I0.909 J-0.842 E0.01410
G1 X160.148 Y150.128 E0.03228
G2 X160.529 Y150.165 I0.280 J-0.902 E0.00731
G1 X158.910 Y148.547 E0.04356
G3 X158.947 Y148.239 I0.780 J-0.063 E0.00592
G1 X160.836 Y150.128 E0.05084
G1 X161.102 Y150.050 E0.00528
G1 X159.030 Y147.977 E0.05579
G1 X159.145 Y147.748 E0.00488
G1 X161.327 Y149.930 E0.05873
G1 X161.528 Y149.786 E0.00470
G1 X159.287 Y147.546 E0.06032
G1 X159.461 Y147.376 E0.00464
G1 X161.702 Y149.616 E0.06032
G1 X161.844 Y149.414 E0.00471
G1 X159.663 Y147.232 E0.05873
G1 X159.887 Y147.112 E0.00484
G1 X161.959 Y149.185 E0.05579
G2 X162.042 Y148.923 I-0.613 J-0.338 E0.00526
G1 X160.153 Y147.034 E0.05085
G3 X160.461 Y146.997 I0.245 J0.738 E0.00592
G1 X162.079 Y148.615 E0.04356
G2 X162.041 Y148.233 I-0.969 J-0.096 E0.00736
G1 X160.841 Y147.033 E0.03228
G3 X161.487 Y147.336 I-0.291 J1.460 E0.01369
G1 X162.036 Y147.883 E0.01474
M204 S3000
; stop printing object cylinder_2 id:1 copy 0
; printing object cube_1 id:0 copy 0
G1 E-0.75000 F3000.000
G1 Z0.600 F18000.000
G1 X152.291 Y153.714
G1 Z0.200
G1 E0.75000 F1800.000
M204 S1000
;TYPE:Perimeter
;WIDTH:0.28
G1 F1500.000
G1 X152.291 Y157.286 E0.06619
G1 X148.720 Y157.286 E0.06619
G1 X148.720 Y153.714 E0.06619
G1 X152.231 Y153.714 E0.06507
M204 S3000
G1 X152.528 Y153.477 F18000.000
M204 S1000
G1 F1500.000
G1 X152.528 Y157.523 E0.07497
G1 X148.482 Y157.523 E0.07497
G1 X148.482 Y153.477 E0.07497
G1 X152.468 Y153.477 E0.07386
M204 S3000
G1 X152.765 Y153.240 F18000.000
M204 S1000
;TYPE:External perimeter
G1 F1500.000
G1 X152.765 Y157.760 E0.08376
G1 X148.245 Y157.760 E0.08376
G1 X148.245 Y153.240 E0.08376
G1 X152.705 Y153.240 E0.08265
M204 S3000
G1 X152.662 Y153.626 F18000.000
G1 X152.208 Y154.288
M204 S1000
;TYPE:Solid infill
;WIDTH:0.285419
G1 F1500.000
G1 X151.824 Y153.904 E0.01030
G1 X151.481 Y153.904 E0.00650
G1 X152.102 Y154.524 E0.01663
G1 X152.102 Y154.867 E0.00650
G1 X151.138 Y153.904 E0.02582
G1 X150.795 Y153.904 E0.00650
G1 X152.102 Y155.210 E0.03501
G1 X152.102 Y155.553 E0.00650
G1 X150.452 Y153.904 E0.04421
G1 X150.109 Y153.904 E0.00650
G1 X152.102 Y155.896 E0.05340
G1 X152.102 Y156.239 E0.00650
G1 X149.766 Y153.904 E0.06259
G1 X149.424 Y153.904 E0.00650
G1 X152.102 Y156.582 E0.07178
G1 X152.102 Y156.925 E0.00650
G1 X149.081 Y153.904 E0.08098
G1 X148.909 Y153.904 E0.00325
G1 X148.909 Y154.075 E0.00325
G1 X151.930 Y157.096 E0.08097
G1 X151.587 Y157.096 E0.00650
G1 X148.909 Y154.418 E0.07178
G1 X148.909 Y154.761 E0.00650
G1 X151.244 Y157.096 E0.06259
G1 X150.901 Y157.096 E0.00650
G1 X148.909 Y155.104 E0.05340
G1 X148.909 Y155.447 E0.00650
G1 X150.558 Y157.096 E0.04420
G1 X150.215 Y157.096 E0.00650
G1 X148.909 Y155.790 E0.03501
G1 X148.909 Y156.133 E0.00650
G1 X149.872 Y157.096 E0.02582
G1 X149.529 Y157.096 E0.00650
G1 X148.909 Y156.476 E0.01663
G1 X148.909 Y156.819 E0.00650
G1 X149.293 Y157.203 E0.01029
M204 S3000
; stop printing object cube_1 id:0 copy 0
; printing object cube_1 id:0 copy 1
G1 E-0.75000 F3000.000
G1 Z0.600 F18000.000
G1 X141.291 Y157.203
G1 Z0.200
G1 E0.75000 F1800.000
M204 S1000
;TYPE:Perimeter
;WIDTH:0.28
G1 F1500.000
G1 X141.291 Y157.286 E0.00154
G1 X137.720 Y157.286 E0.06619
G1 X137.720 Y153.714 E0.06619
G1 X141.291 Y153.714 E0.06619
G1 X141.291 Y157.143 E0.06354
M204 S3000
G1 X141.528 Y157.523 F18000.000
M204 S1000
G1 F1500.000
G1 X137.482 Y157.523 E0.07497
G1 X137.482 Y153.477 E0.07497
G1 X141.528 Y153.477 E0.07497
G1 X141.528 Y157.463 E0.07386
M204 S3000
G1 X141.765 Y157.760 F18000.000
M204 S1000
;TYPE:External perimeter
G1 F1500.000
G1 X137.245 Y157.760 E0.08376
G1 X137.245 Y153.240 E0.08376
G1 X141.765 Y153.240 E0.08376
G1 X141.765 Y157.700 E0.08265
M204 S3000
G1 X141.379 Y157.656 F18000.000
G1 E-0.75000 F3000.000
G1 Z0.600 F18000.000
G1 X141.208 Y154.288
G1 Z0.200
G1 E0.75000 F1800.000
M204 S1000
;TYPE:Solid infill
;WIDTH:0.285419
G1 F1500.000
G1 X140.824 Y153.904 E0.01030
G1 X140.481 Y153.904 E0.00650
G1 X141.102 Y154.524 E0.01663
G1 X141.102 Y154.867 E0.00650
G1 X140.138 Y153.904 E0.02582
G1 X139.795 Y153.904 E0.00650
G1 X141.102 Y155.210 E0.03501
G1 X141.102 Y155.553 E0.00650
G1 X139.452 Y153.904 E0.04421
G1 X139.109 Y153.904 E0.00650
G1 X141.102 Y155.896 E0.05340
G1 X141.102 Y156.239 E0.00650
G1 X138.766 Y153.904 E0.06259
G1 X138.424 Y153.904 E0.00650
G1 X141.102 Y156.582 E0.07178
G1 X141.102 Y156.925 E0.00650
