; generated by PrusaSlicer 2.3.3+x64 on 2021-09-23 at 18:51:14 UTC

;
;

;
;
; 

; external perimeters extrusion width = 0.45mm
; perimeters extrusion width = 0.45mm
; infill extrusion width = 0.50mm
; solid infill extrusion width = 0.40mm
; top infill extrusion width = 0.40mm
; first layer extrusion width = 0.45mm

M107
;TYPE:Custom
M190 S0
M104 S0
PRINT_START EXTRUDER=200 BED=50 ZOFFSET=0.1
G21 ; set units to millimeters
G90 ; use absolute coordinates
M83 ; use relative distances for extrusion
; Filament gcode
;LAYER_CHANGE
;Z:0.25
;HEIGHT:0.25
;BEFORE_LAYER_CHANGE
;0.25
TIMELAPSE_TAKE_FRAME
G1 Z0.250 F10800.000
;AFTER_LAYER_CHANGE
;0.25
G1 E-0.75000 F2100.000
G1 Z0.850 F10800.000
G1 X92.279 Y92.625
G1 Z0.250
G1 E0.75000 F1500.000
M204 S2000
;TYPE:Skirt
;WIDTH:0.45
G1 F1200.000
G1 X92.997 Y92.157 E0.03357
G1 X93.642 Y91.932 E0.02671
G1 X94.319 Y91.849 E0.02671
G1 X155.013 Y91.274 E2.37542
G1 X156.515 Y91.339 E0.05885
G1 X157.989 Y91.532 E0.05817
G1 X159.458 Y91.856 E0.05885
G1 X160.665 Y92.225 E0.04940
G1 X162.045 Y92.770 E0.05806
G1 X163.391 Y93.441 E0.05886
G1 X164.677 Y94.229 E0.05903
G1 X165.872 Y95.112 E0.05816
G1 X167.000 Y96.107 E0.05885
G1 X167.875 Y97.013 E0.04930
G1 X168.820 Y98.160 E0.05817
G1 X169.671 Y99.400 E0.05885
G1 X170.414 Y100.712 E0.05903
G1 X171.030 Y102.060 E0.05799
G1 X171.461 Y103.247 E0.04940
G1 X171.862 Y104.701 E0.05903
G1 X172.131 Y106.160 E0.05806
G1 X172.275 Y107.657 E0.05886
G1 X172.289 Y109.165 E0.05903
G1 X172.173 Y110.647 E0.05817
G1 X171.927 Y112.130 E0.05885
G1 X171.622 Y113.355 E0.04940
G1 X171.150 Y114.761 E0.05806
G1 X170.548 Y116.145 E0.05903
G1 X169.830 Y117.466 E0.05886
G1 X169.011 Y118.706 E0.05816
G1 X168.076 Y119.884 E0.05886
G1 X167.215 Y120.808 E0.04940
G1 X166.121 Y121.809 E0.05806
G1 X164.928 Y122.724 E0.05886
G1 X163.656 Y123.535 E0.05903
G1 X162.334 Y124.224 E0.05834
G1 X160.379 Y124.997 E0.08227
G1 X158.577 Y125.480 E0.07300
G1 X156.514 Y125.786 E0.08164
G1 X154.390 Y125.841 E0.08313
G1 X94.143 Y123.219 E2.36008
G1 X93.320 Y123.050 E0.03288
G1 X92.569 Y122.673 E0.03288
G1 X91.943 Y122.112 E0.03288
G1 X91.484 Y121.404 E0.03305
G1 X91.258 Y120.755 E0.02688
G1 X91.176 Y120.073 E0.02688
G1 X91.180 Y94.870 E0.98634
G1 X91.339 Y94.031 E0.03340
G1 X91.714 Y93.265 E0.03340
G1 X92.239 Y92.670 E0.03105
M204 S3000
G1 X92.534 Y92.931 F10800.000
M204 S2000
G1 F1200.000
G1 X93.180 Y92.509 E0.03020
G1 X93.741 Y92.315 E0.02322
G1 X94.330 Y92.245 E0.02322
G1 X155.015 Y91.670 E2.37506
G1 X156.483 Y91.734 E0.05751
G1 X157.940 Y91.926 E0.05751
G1 X159.379 Y92.245 E0.05767
G1 X160.765 Y92.681 E0.05687
G1 X162.127 Y93.243 E0.05767
G1 X163.221 Y93.800 E0.04805
G1 X164.457 Y94.558 E0.05674
G1 X165.641 Y95.435 E0.05767
G1 X166.745 Y96.411 E0.05767
G1 X167.743 Y97.462 E0.05671
G1 X168.516 Y98.416 E0.04805
G1 X169.347 Y99.629 E0.05754
G1 X170.062 Y100.894 E0.05687
G1 X170.673 Y102.235 E0.05767
G1 X171.163 Y103.620 E0.05751
G1 X171.528 Y105.027 E0.05687
G1 X171.742 Y106.236 E0.04805
G1 X171.881 Y107.700 E0.05754
G1 X171.892 Y109.153 E0.05687
G1 X171.777 Y110.622 E0.05767
G1 X171.534 Y112.071 E0.05751
G1 X171.172 Y113.478 E0.05687
G1 X170.772 Y114.639 E0.04805
G1 X170.184 Y115.987 E0.05754
G1 X169.490 Y117.263 E0.05687
G1 X168.676 Y118.492 E0.05767
G1 X167.762 Y119.643 E0.05751
G1 X166.762 Y120.697 E0.05687
G1 X165.850 Y121.519 E0.04805
G1 X164.682 Y122.412 E0.05754
G1 X163.456 Y123.192 E0.05687
G1 X162.153 Y123.871 E0.05751
G1 X160.234 Y124.628 E0.08072
G1 X158.257 Y125.140 E0.07991
G1 X156.458 Y125.393 E0.07110
G1 X154.412 Y125.445 E0.08011
G1 X94.178 Y122.824 E2.35955
G1 X93.448 Y122.675 E0.02916
G1 X92.786 Y122.341 E0.02900
G1 X92.236 Y121.845 E0.02900
G1 X91.836 Y121.221 E0.02900
G1 X91.643 Y120.660 E0.02322
G1 X91.573 Y120.067 E0.02338
G1 X91.576 Y94.905 E0.98472
G1 X91.714 Y94.161 E0.02964
G1 X92.044 Y93.484 E0.02948
G1 X92.494 Y92.976 E0.02654
M204 S3000
G1 X92.788 Y93.239 F10800.000
M204 S2000
G1 F1200.000
G1 X93.363 Y92.861 E0.02693
G1 X93.837 Y92.700 E0.01957
G1 X94.334 Y92.641 E0.01957
G1 X155.012 Y92.066 E2.37482
G1 X156.446 Y92.129 E0.05617
G1 X157.873 Y92.317 E0.05632
G1 X159.278 Y92.628 E0.05632
G1 X160.632 Y93.054 E0.05557
G1 X161.963 Y93.603 E0.05632
G1 X163.026 Y94.145 E0.04670
G1 X164.236 Y94.888 E0.05558
G1 X165.390 Y95.742 E0.05617
G1 X166.468 Y96.695 E0.05632
G1 X167.446 Y97.724 E0.05557
G1 X168.343 Y98.850 E0.05632
G1 X169.011 Y99.839 E0.04670
G1 X169.709 Y101.075 E0.05558
G1 X170.304 Y102.381 E0.05617
G1 X170.785 Y103.738 E0.05632
G1 X171.141 Y105.113 E0.05557
G1 X171.381 Y106.532 E0.05632
G1 X171.485 Y107.720 E0.04670
G1 X171.496 Y109.141 E0.05558
G1 X171.383 Y110.575 E0.05632
G1 X171.146 Y111.991 E0.05617
G1 X170.792 Y113.366 E0.05557
G1 X170.313 Y114.723 E0.05632
G1 X169.828 Y115.813 E0.04670
G1 X169.149 Y117.061 E0.05558
G1 X168.355 Y118.261 E0.05632
G1 X167.461 Y119.384 E0.05617
G1 X166.482 Y120.417 E0.05572
G1 X165.408 Y121.370 E0.05617
G1 X164.455 Y122.088 E0.04670
G1 X163.256 Y122.850 E0.05558
G1 X161.973 Y123.518 E0.05662
G1 X160.109 Y124.251 E0.07838
G1 X158.178 Y124.752 E0.07808
G1 X156.427 Y124.998 E0.06921
G1 X154.432 Y125.049 E0.07809
G1 X94.211 Y122.429 E2.35903
G1 X93.583 Y122.303 E0.02507
G1 X93.011 Y122.015 E0.02507
G1 X92.533 Y121.582 E0.02522
G1 X92.189 Y121.042 E0.02507
G1 X92.027 Y120.561 E0.01987
G1 X91.969 Y120.057 E0.01987
G1 X91.971 Y94.938 E0.98304
G1 X92.087 Y94.293 E0.02566
G1 X92.375 Y93.703 E0.02566
G1 X92.749 Y93.283 E0.02200
M204 S3000
; printing object Shape-Cylinder id:1 copy 0
G1 E-0.75000 F2100.000
G1 Z0.850 F10800.000
G1 X142.178 Y105.152
G1 Z0.250
G1 E0.75000 F1500.000
M204 S2000
;TYPE:Perimeter
G1 F1200.000
G1 X142.381 Y104.459 E0.02824
G1 X142.614 Y103.804 E0.02721
G1 X142.880 Y103.162 E0.02721
G1 X143.179 Y102.534 E0.02721
G1 X143.748 Y101.529 E0.04523
G1 X144.133 Y100.947 E0.02731
G1 X144.548 Y100.386 E0.02731
G1 X145.299 Y99.507 E0.04523
G1 X146.123 Y98.697 E0.04523
G1 X146.654 Y98.243 E0.02731
G1 X147.205 Y97.820 E0.02721
G1 X147.778 Y97.427 E0.02721
G1 X148.373 Y97.062 E0.02731
G1 X149.398 Y96.528 E0.04523
G1 X150.036 Y96.251 E0.02721
G1 X150.690 Y96.007 E0.02731
G1 X151.798 Y95.679 E0.04523
G1 X152.476 Y95.528 E0.02721
G1 X153.162 Y95.414 E0.02721
G1 X153.853 Y95.335 E0.02721
G1 X154.547 Y95.292 E0.02721
G1 X155.242 Y95.286 E0.02721
G1 X155.939 Y95.317 E0.02731
G1 X157.087 Y95.448 E0.04523
G1 X157.771 Y95.574 E0.02721
G1 X158.449 Y95.737 E0.02731
G1 X159.553 Y96.086 E0.04528
G1 X160.198 Y96.340 E0.02716
G1 X160.831 Y96.628 E0.02721
G1 X161.448 Y96.949 E0.02721
G1 X162.049 Y97.303 E0.02731
G1 X163.001 Y97.958 E0.04523
G1 X163.546 Y98.392 E0.02725
G1 X164.066 Y98.852 E0.02716
G1 X164.876 Y99.676 E0.04523
G1 X165.329 Y100.206 E0.02731
G1 X165.752 Y100.758 E0.02721
G1 X166.146 Y101.331 E0.02721
G1 X166.511 Y101.926 E0.02731
G1 X167.044 Y102.951 E0.04523
G1 X167.322 Y103.589 E0.02721
G1 X167.566 Y104.242 E0.02731
G1 X167.894 Y105.350 E0.04523
G1 X168.044 Y106.029 E0.02721
G1 X168.159 Y106.715 E0.02721
G1 X168.238 Y107.405 E0.02721
G1 X168.280 Y108.099 E0.02721
G1 X168.286 Y108.794 E0.02721
G1 X168.256 Y109.489 E0.02721
G1 X168.189 Y110.181 E0.02721
G1 X168.086 Y110.871 E0.02731
G1 X167.836 Y111.999 E0.04523
G1 X167.639 Y112.666 E0.02721
G1 X167.407 Y113.321 E0.02721
G1 X167.140 Y113.964 E0.02721
G1 X166.841 Y114.591 E0.02721
G1 X166.272 Y115.597 E0.04523
G1 X165.887 Y116.179 E0.02731
G1 X165.472 Y116.740 E0.02731
G1 X164.721 Y117.619 E0.04523
G1 X163.897 Y118.429 E0.04523
G1 X163.366 Y118.882 E0.02731
G1 X162.815 Y119.305 E0.02721
G1 X162.242 Y119.699 E0.02721
G1 X161.647 Y120.064 E0.02731
G1 X160.622 Y120.597 E0.04523
G1 X159.984 Y120.874 E0.02721
G1 X159.331 Y121.119 E0.02731
G1 X158.222 Y121.447 E0.04523
G1 X157.544 Y121.597 E0.02721
G1 X156.858 Y121.712 E0.02721
G1 X156.167 Y121.791 E0.02721
G1 X155.473 Y121.833 E0.02721
G1 X154.778 Y121.839 E0.02721
G1 X154.084 Y121.809 E0.02721
G1 X153.392 Y121.742 E0.02721
G1 X152.702 Y121.639 E0.02731
G1 X151.573 Y121.389 E0.04523
G1 X150.907 Y121.191 E0.02721
G1 X150.251 Y120.959 E0.02721
G1 X149.609 Y120.693 E0.02721
G1 X148.982 Y120.394 E0.02721
G1 X147.976 Y119.825 E0.04523
G1 X147.394 Y119.440 E0.02731
G1 X146.833 Y119.025 E0.02731
G1 X145.954 Y118.274 E0.04523
G1 X145.144 Y117.450 E0.04523
G1 X144.691 Y116.919 E0.02731
G1 X144.268 Y116.368 E0.02721
G1 X143.874 Y115.795 E0.02721
G1 X143.509 Y115.200 E0.02731
G1 X142.976 Y114.174 E0.04523
G1 X142.698 Y113.537 E0.02721
G1 X142.454 Y112.883 E0.02731
G1 X142.126 Y111.775 E0.04523
G1 X141.976 Y111.096 E0.02721
G1 X141.861 Y110.411 E0.02721
G1 X141.782 Y109.720 E0.02721
G1 X141.740 Y109.026 E0.02721
G1 X141.734 Y108.331 E0.02721
G1 X141.764 Y107.636 E0.02721
G1 X141.831 Y106.945 E0.02721
G1 X141.934 Y106.254 E0.02731
G1 X142.164 Y105.210 E0.04185
M204 S3000
G1 X141.778 Y105.118 F10800.000
M204 S2000
;TYPE:External perimeter
G1 F1200.000
G1 X142.004 Y104.337 E0.03180
G1 X142.243 Y103.662 E0.02802
G1 X142.517 Y103.001 E0.02802
G1 X142.826 Y102.354 E0.02802
G1 X143.412 Y101.317 E0.04665
G1 X143.808 Y100.719 E0.02806
G1 X144.235 Y100.143 E0.02806
G1 X145.009 Y99.236 E0.04665
G1 X145.859 Y98.401 E0.04665
G1 X146.404 Y97.935 E0.02806
G1 X146.972 Y97.500 E0.02802
G1 X147.562 Y97.094 E0.02802
G1 X148.173 Y96.719 E0.02806
G1 X149.231 Y96.169 E0.04665
G1 X149.887 Y95.884 E0.02802
G1 X150.559 Y95.633 E0.02806
G1 X151.702 Y95.294 E0.04665
G1 X152.401 Y95.139 E0.02802
G1 X153.107 Y95.021 E0.02802
G1 X153.818 Y94.940 E0.02802
G1 X154.533 Y94.896 E0.02802
G1 X155.249 Y94.890 E0.02802
G1 X155.965 Y94.921 E0.02806
G1 X157.149 Y95.056 E0.04665
G1 X157.853 Y95.187 E0.02802
G1 X158.550 Y95.354 E0.02806
G1 X159.688 Y95.713 E0.04670
G1 X160.353 Y95.975 E0.02797
G1 X161.005 Y96.272 E0.02802
G1 X161.640 Y96.602 E0.02802
G1 X162.257 Y96.966 E0.02806
G1 X163.240 Y97.641 E0.04665
G1 X163.801 Y98.088 E0.02807
G1 X164.336 Y98.562 E0.02797
G1 X165.172 Y99.412 E0.04665
G1 X165.637 Y99.957 E0.02806
G1 X166.073 Y100.525 E0.02802
G1 X166.479 Y101.115 E0.02802
G1 X166.853 Y101.726 E0.02806
G1 X167.404 Y102.783 E0.04665
G1 X167.689 Y103.440 E0.02802
G1 X167.940 Y104.112 E0.02806
G1 X168.279 Y105.254 E0.04665
G1 X168.434 Y105.953 E0.02802
G1 X168.552 Y106.660 E0.02802
G1 X168.633 Y107.371 E0.02802
G1 X168.677 Y108.086 E0.02802
G1 X168.683 Y108.801 E0.02802
G1 X168.652 Y109.517 E0.02802
G1 X168.583 Y110.229 E0.02802
G1 X168.477 Y110.938 E0.02806
G1 X168.219 Y112.102 E0.04665
G1 X168.016 Y112.789 E0.02802
G1 X167.777 Y113.463 E0.02802
G1 X167.503 Y114.125 E0.02802
G1 X167.194 Y114.771 E0.02802
G1 X166.608 Y115.809 E0.04665
G1 X166.212 Y116.406 E0.02806
G1 X165.785 Y116.983 E0.02806
G1 X165.011 Y117.889 E0.04665
G1 X164.161 Y118.725 E0.04665
G1 X163.616 Y119.190 E0.02806
G1 X163.048 Y119.626 E0.02802
G1 X162.458 Y120.031 E0.02802
G1 X161.847 Y120.406 E0.02806
G1 X160.789 Y120.956 E0.04665
G1 X160.133 Y121.242 E0.02802
G1 X159.461 Y121.493 E0.02806
G1 X158.318 Y121.831 E0.04665
G1 X157.619 Y121.986 E0.02802
G1 X156.913 Y122.105 E0.02802
G1 X156.202 Y122.186 E0.02802
G1 X155.487 Y122.229 E0.02802
G1 X154.771 Y122.236 E0.02802
G1 X154.056 Y122.204 E0.02802
G1 X153.343 Y122.136 E0.02802
G1 X152.634 Y122.030 E0.02806
G1 X151.471 Y121.772 E0.04665
G1 X150.784 Y121.568 E0.02802
G1 X150.109 Y121.329 E0.02802
G1 X149.448 Y121.055 E0.02802
G1 X148.802 Y120.747 E0.02802
G1 X147.764 Y120.160 E0.04665
G1 X147.166 Y119.765 E0.02806
G1 X146.590 Y119.338 E0.02806
G1 X145.684 Y118.564 E0.04665
G1 X144.848 Y117.714 E0.04665
G1 X144.383 Y117.169 E0.02806
G1 X143.947 Y116.601 E0.02802
G1 X143.541 Y116.011 E0.02802
G1 X143.167 Y115.399 E0.02806
G1 X142.616 Y114.342 E0.04665
G1 X142.331 Y113.685 E0.02802
G1 X142.080 Y113.014 E0.02806
G1 X141.741 Y111.871 E0.04665
G1 X141.586 Y111.172 E0.02802
G1 X141.468 Y110.466 E0.02802
G1 X141.387 Y109.755 E0.02802
G1 X141.343 Y109.040 E0.02802
G1 X141.337 Y108.324 E0.02802
G1 X141.368 Y107.609 E0.02802
G1 X141.437 Y106.896 E0.02802
G1 X141.543 Y106.187 E0.02806
G1 X141.764 Y105.176 E0.04051
M204 S3000
G1 X142.164 Y105.010 F10800.000
G1 E-0.75000 F2100.000
G1 Z0.850 F10800.000
G1 X162.659 Y97.867
G1 Z0.250
G1 E0.75000 F1500.000
M204 S2000
;TYPE:Solid infill
;WIDTH:0.452778
G1 F1200.000
G1 X164.657 Y99.877 E0.11166
G1 X165.098 Y100.393 E0.02679
G1 X165.512 Y100.933 E0.02678
G1 X165.897 Y101.493 E0.02678
G1 X166.176 Y101.949 E0.02109
G1 X161.628 Y97.400 E0.25352
G1 X161.303 Y97.209 E0.01484
G1 X160.439 Y96.776 E0.03808
G1 X166.802 Y103.139 E0.35461
G1 X167.046 Y103.700 E0.02411
G1 X167.194 Y104.095 E0.01662
G1 X159.472 Y96.373 E0.43038
G1 X158.645 Y96.111 E0.03418
G1 X167.458 Y104.924 E0.49117
G1 X167.606 Y105.425 E0.02060
G1 X167.666 Y105.697 E0.01097
G1 X157.875 Y95.905 E0.54573
G1 X157.171 Y95.766 E0.02829
G1 X167.805 Y106.400 E0.59270
G1 X167.899 Y107.058 E0.02622
G1 X156.523 Y95.683 E0.63403
G1 X155.888 Y95.612 E0.02518
G1 X167.957 Y107.681 E0.67264
G1 X167.985 Y108.273 E0.02336
G1 X155.298 Y95.586 E0.70707
G1 X154.735 Y95.588 E0.02218
G1 X167.987 Y108.840 E0.73857
G1 X167.963 Y109.380 E0.02133
G1 X154.195 Y95.612 E0.76739
G1 X153.673 Y95.655 E0.02063
G1 X167.918 Y109.899 E0.79394
G1 X167.856 Y110.402 E0.01995
G1 X153.168 Y95.714 E0.81863
G1 X152.684 Y95.795 E0.01932
G1 X167.778 Y110.888 E0.84123
G1 X167.676 Y111.350 E0.01865
G1 X152.216 Y95.891 E0.86165
G1 X151.760 Y96.000 E0.01845
G1 X167.573 Y111.812 E0.88131
G1 X167.451 Y112.254 E0.01807
G1 X151.325 Y96.129 E0.89875
G1 X150.889 Y96.258 E0.01790
G1 X167.317 Y112.685 E0.91556
G1 X167.169 Y113.102 E0.01743
G1 X150.473 Y96.405 E0.93057
G1 X150.065 Y96.562 E0.01720
G1 X167.008 Y113.506 E0.94432
G1 X166.840 Y113.902 E0.01697
G1 X149.672 Y96.734 E0.95688
G1 X149.293 Y96.919 E0.01664
G1 X166.658 Y114.284 E0.96787
G1 X166.464 Y114.654 E0.01648
G1 X148.921 Y97.112 E0.97773
G1 X148.550 Y97.305 E0.01649
G1 X166.260 Y115.015 E0.98706
G1 X166.056 Y115.375 E0.01632
G1 X148.198 Y97.518 E0.99530
G1 X147.852 Y97.736 E0.01613
G1 X165.835 Y115.719 E1.00226
G1 X165.608 Y116.056 E0.01603
G1 X147.518 Y97.966 E1.00825
G1 X147.192 Y98.205 E0.01591
G1 X165.368 Y116.381 E1.01302
G1 X165.119 Y116.696 E0.01584
G1 X146.873 Y98.450 E1.01693
G1 X146.567 Y98.709 E0.01579
G1 X164.859 Y117.000 E1.01948
G1 X164.599 Y117.305 E0.01578
G1 X146.266 Y98.973 E1.02173
G1 X145.982 Y99.252 E0.01573
G1 X164.323 Y117.593 E1.02223
G1 X164.038 Y117.873 E0.01573
G1 X145.697 Y99.532 E1.02223
G1 X145.421 Y99.821 E0.01573
G1 X163.754 Y118.153 E1.02173
G1 X163.453 Y118.417 E0.01576
G1 X145.161 Y100.125 E1.01948
G1 X144.901 Y100.430 E0.01578
G1 X163.147 Y118.676 E1.01693
G1 X162.828 Y118.921 E0.01587
G1 X144.652 Y100.745 E1.01302
G1 X144.412 Y101.069 E0.01590
G1 X162.502 Y119.159 E1.00825
G1 X162.168 Y119.389 E0.01600
G1 X144.185 Y101.407 E1.00226
G1 X143.964 Y101.750 E0.01610
G1 X161.822 Y119.608 E0.99530
G1 X161.470 Y119.821 E0.01620
G1 X143.760 Y102.111 E0.98706
G1 X143.556 Y102.471 E0.01632
G1 X161.099 Y120.014 E0.97773
G1 X160.727 Y120.207 E0.01649
G1 X143.362 Y102.841 E0.96787
G1 X143.180 Y103.224 E0.01669
G1 X160.348 Y120.392 E0.95688
G1 X159.955 Y120.563 E0.01691
G1 X143.012 Y103.620 E0.94431
G1 X142.851 Y104.024 E0.01713
G1 X159.547 Y120.720 E0.93056
G1 X159.131 Y120.868 E0.01743
G1 X142.703 Y104.441 E0.91556
G1 X142.570 Y104.871 E0.01777
G1 X158.695 Y120.997 E0.89875
G1 X158.260 Y121.126 E0.01790
G1 X142.447 Y105.313 E0.88130
G1 X142.344 Y105.775 E0.01865
G1 X157.804 Y121.235 E0.86164
G1 X157.336 Y121.331 E0.01885
G1 X142.242 Y106.237 E0.84123
G1 X142.164 Y106.724 E0.01942
G1 X156.852 Y121.412 E0.81862
G1 X156.347 Y121.471 E0.02004
G1 X142.102 Y107.226 E0.79393
G1 X142.057 Y107.745 E0.02054
G1 X155.825 Y121.514 E0.76738
G1 X155.285 Y121.537 E0.02133
G1 X142.033 Y108.286 E0.73856
G1 X142.035 Y108.853 E0.02234
G1 X154.722 Y121.539 E0.70707
G1 X154.132 Y121.513 E0.02328
G1 X142.063 Y109.445 E0.67263
G1 X142.121 Y110.067 E0.02463
G1 X153.509 Y121.455 E0.63469
G1 X152.850 Y121.361 E0.02622
G1 X142.215 Y110.726 E0.59274
G1 X142.354 Y111.429 E0.02825
G1 X152.133 Y121.208 E0.54506
G1 X151.383 Y121.022 E0.03048
G1 X142.562 Y112.202 E0.49159
G1 X142.736 Y112.789 E0.02412
G1 X142.827 Y113.031 E0.01017
G1 X150.543 Y120.747 E0.43008
