; generated by Slic3r 1.3.1-dev (Build b1a5500f427700ac3dffc0e7d9535ea65f993537) on 2021-09-03 at 12:55:43


; Pre-Processed for Cancel-Object support
; 4 known objects
DEFINE_OBJECT NAME=cube_1_stl_id_0_copy_0 CENTER=99.9626785714286,83.53089285714285 POLYGON=[[97.72,81.22],[97.72,85.78],[102.28,85.78],[102.28,81.22]]
DEFINE_OBJECT NAME=cube_1_stl_id_0_copy_1 CENTER=99.96267857142858,116.53089285714285 POLYGON=[[97.72,114.22],[97.72,118.78],[102.28,118.78],[102.28,114.22]]
DEFINE_OBJECT NAME=cylinder_2_stl_id_1_copy_0 CENTER=99.96210256410258,94.51479914529911 POLYGON=[[97.732,92.227],[97.732,96.773],[102.268,96.773],[102.268,92.227]]
DEFINE_OBJECT NAME=union_3_stl_id_2_copy_0 CENTER=99.89390416666672,105.502 POLYGON=[[92.72,103.22],[92.72,107.78],[107.28,107.78],[107.28,103.22]]

; external perimeters extrusion width = 0.44mm (3.38mm^3/s)
; perimeters extrusion width = 0.48mm (7.54mm^3/s)
; infill extrusion width = 0.48mm (10.05mm^3/s)
; solid infill extrusion width = 0.48mm (2.51mm^3/s)
; top infill extrusion width = 0.48mm (1.88mm^3/s)

M107
G92 E0
M104 S205 ; set temperature
G28 ; home all axes
G1 Z5 F5000 ; lift nozzle

; Filament gcode

M109 S205 ; set temperature and wait for it to be reached
G21 ; set units to millimeters
G90 ; use absolute coordinates
M82 ; use absolute distances for extrusion
G92 E0
G1 Z0.400 F7800.000
G1 E-2.00000 F2400.00000
G92 E0
G1 X91.844 Y77.382 F7800.000
G1 E2.00000 F2400.00000
G1 F1800.000
G1 X93.404 Y75.680 E2.27422
G1 X95.449 Y74.607 E2.54845
G1 X97.500 Y74.286 E2.79504
G1 X102.500 Y74.286 E3.38886
G1 X104.775 Y74.683 E3.66309
G1 X106.780 Y75.827 E3.93731
G1 X108.280 Y77.583 E4.21154
G1 X109.047 Y79.512 E4.45812
G1 X114.047 Y101.512 E7.13759
G1 X114.214 Y103.000 E7.31542
G1 X114.214 Y108.000 E7.90925
G1 X113.612 Y110.778 E8.24687
G1 X108.612 Y121.778 E9.68191
G1 X107.310 Y123.685 E9.95614
G1 X105.438 Y125.037 E10.23036
G1 X102.500 Y125.714 E10.58846
G1 X97.500 Y125.714 E11.18229
G1 X95.225 Y125.317 E11.45652
G1 X93.220 Y124.173 E11.73074
G1 X91.388 Y121.778 E12.08884
G1 X86.388 Y110.778 E13.52389
G1 X85.786 Y108.000 E13.86151
G1 X85.786 Y103.000 E14.45533
G1 X85.953 Y101.512 E14.63317
G1 X90.953 Y79.512 E17.31263
G1 X91.821 Y77.437 E17.57973
; printing object cube_1.stl id:0 copy 0
START_CURRENT_OBJECT NAME=cube_1_stl_id_0_copy_0
G1 E15.57973 F2400.00000
G92 E0
G1 X100.672 Y84.172 F7800.000
G1 E2.00000 F2400.00000
G1 F1800.000
G1 X99.328 Y84.172 E2.15954
G1 X99.328 Y82.828 E2.31909
G1 X100.672 Y82.828 E2.47863
G1 X100.672 Y84.112 E2.63105
G1 X101.386 Y84.886 F7800.000
G1 F1800.000
G1 X98.614 Y84.886 E2.96023
G1 X98.614 Y82.114 E3.28941
G1 X101.386 Y82.114 E3.61859
G1 X101.386 Y84.826 E3.94064
G1 X102.100 Y85.600 F7800.000
G1 F1800.000
G1 X97.900 Y85.600 E4.43946
G1 X97.900 Y81.400 E4.93827
G1 X102.100 Y81.400 E5.43709
G1 X102.100 Y85.540 E5.92877
G1 X101.714 Y85.496 F7800.000
; stop printing object cube_1.stl id:0 copy 0
END_CURRENT_OBJECT NAME=cube_1_stl_id_0_copy_0
; printing object cube_1.stl id:0 copy 1
START_CURRENT_OBJECT NAME=cube_1_stl_id_0_copy_1
G1 E3.92877 F2400.00000
G92 E0
G1 X100.672 Y117.172 F7800.000
G1 E2.00000 F2400.00000
G1 F1800.000
G1 X99.328 Y117.172 E2.15954
G1 X99.328 Y115.828 E2.31909
G1 X100.672 Y115.828 E2.47863
G1 X100.672 Y117.112 E2.63105
G1 X101.386 Y117.886 F7800.000
G1 F1800.000
G1 X98.614 Y117.886 E2.96023
G1 X98.614 Y115.114 E3.28941
G1 X101.386 Y115.114 E3.61859
G1 X101.386 Y117.826 E3.94064
G1 X102.100 Y118.600 F7800.000
G1 F1800.000
G1 X97.900 Y118.600 E4.43946
G1 X97.900 Y114.400 E4.93827
G1 X102.100 Y114.400 E5.43709
G1 X102.100 Y118.540 E5.92877
G1 X101.714 Y118.496 F7800.000
; stop printing object cube_1.stl id:0 copy 1
END_CURRENT_OBJECT NAME=cube_1_stl_id_0_copy_1
G1 Z0.400 F7800.000
; printing object cylinder_2.stl id:1 copy 0
START_CURRENT_OBJECT NAME=cylinder_2_stl_id_1_copy_0
G1 E3.92877 F2400.00000
G92 E0
G1 X99.821 Y95.138 F7800.000
G1 E2.00000 F2400.00000
G1 F1800.000
G1 X99.698 Y95.090 E2.01567
G1 X99.587 Y95.018 E2.03134
G1 X99.492 Y94.926 E2.04701
G1 X99.418 Y94.817 E2.06268
G1 X99.367 Y94.695 E2.07835
G1 X99.341 Y94.566 E2.09402
G1 X99.341 Y94.434 E2.10969
G1 X99.367 Y94.305 E2.12536
G1 X99.418 Y94.183 E2.14103
G1 X99.492 Y94.074 E2.15670
G1 X99.587 Y93.982 E2.17237
G1 X99.717 Y93.898 E2.19077
G1 X99.918 Y93.843 E2.21548
G1 X100.049 Y93.839 E2.23115
G1 X100.179 Y93.862 E2.24682
G1 X100.302 Y93.910 E2.26249
G1 X100.413 Y93.982 E2.27816
G1 X100.508 Y94.074 E2.29383
G1 X100.582 Y94.183 E2.30950
G1 X100.633 Y94.305 E2.32517
G1 X100.659 Y94.434 E2.34084
G1 X100.659 Y94.566 E2.35651
G1 X100.633 Y94.695 E2.37218
G1 X100.582 Y94.817 E2.38784
G1 X100.495 Y94.945 E2.40624
G1 X100.331 Y95.074 E2.43096
G1 X100.211 Y95.128 E2.44662
G1 X100.082 Y95.157 E2.46230
G1 X99.880 Y95.148 E2.48640
G1 X99.697 Y95.841 F7800.000
G1 F1800.000
G1 X99.370 Y95.728 E2.52739
G1 X99.139 Y95.579 E2.56004
G1 X98.943 Y95.387 E2.59268
G1 X98.788 Y95.160 E2.62533
G1 X98.681 Y94.907 E2.65797
G1 X98.627 Y94.637 E2.69061
G1 X98.627 Y94.363 E2.72326
G1 X98.681 Y94.093 E2.75590
G1 X98.788 Y93.840 E2.78855
G1 X98.943 Y93.613 E2.82119
G1 X99.139 Y93.421 E2.85384
G1 X99.382 Y93.264 E2.88814
G1 X99.547 Y93.195 E2.90937
G1 X99.828 Y93.130 E2.94367
G1 X100.103 Y93.124 E2.97632
G1 X100.374 Y93.171 E3.00896
G1 X100.630 Y93.272 E3.04161
G1 X100.861 Y93.421 E3.07425
G1 X101.057 Y93.613 E3.10690
G1 X101.212 Y93.840 E3.13954
G1 X101.319 Y94.093 E3.17218
G1 X101.373 Y94.363 E3.20483
G1 X101.373 Y94.637 E3.23747
G1 X101.319 Y94.907 E3.27012
G1 X101.212 Y95.160 E3.30276
G1 X101.049 Y95.399 E3.33707
G1 X100.925 Y95.527 E3.35829
G1 X100.690 Y95.695 E3.39260
G1 X100.440 Y95.808 E3.42524
G1 X100.172 Y95.870 E3.45789
G1 X99.897 Y95.876 E3.49053
G1 X99.756 Y95.852 E3.50756
G1 X99.573 Y96.544 F7800.000
G1 F1800.000
G1 X99.432 Y96.520 E3.52453
G1 X99.043 Y96.367 E3.57416
G1 X98.692 Y96.140 E3.62377
G1 X98.393 Y95.849 E3.67339
G1 X98.157 Y95.503 E3.72301
G1 X97.995 Y95.118 E3.77263
G1 X97.912 Y94.709 E3.82225
G1 X97.912 Y94.291 E3.87186
G1 X97.995 Y93.882 E3.92148
G1 X98.157 Y93.497 E3.97110
G1 X98.393 Y93.151 E4.02072
G1 X98.692 Y92.860 E4.07034
G1 X99.047 Y92.630 E4.12056
G1 X99.327 Y92.512 E4.15662
G1 X99.739 Y92.418 E4.20684
G1 X100.157 Y92.408 E4.25646
G1 X100.568 Y92.480 E4.30607
G1 X100.957 Y92.633 E4.35569
G1 X101.308 Y92.860 E4.40531
G1 X101.607 Y93.151 E4.45493
G1 X101.843 Y93.497 E4.50455
G1 X102.005 Y93.882 E4.55417
G1 X102.088 Y94.291 E4.60379
G1 X102.088 Y94.709 E4.65340
G1 X102.005 Y95.118 E4.70302
G1 X101.843 Y95.503 E4.75264
G1 X101.604 Y95.853 E4.80286
G1 X101.392 Y96.070 E4.83892
G1 X101.049 Y96.317 E4.88914
G1 X100.668 Y96.489 E4.93876
G1 X100.261 Y96.582 E4.98838
G1 X99.843 Y96.592 E5.03799
G1 X99.632 Y96.555 E5.06351
G1 X99.518 Y96.412 F7800.000
; stop printing object cylinder_2.stl id:1 copy 0
END_CURRENT_OBJECT NAME=cylinder_2_stl_id_1_copy_0
G1 Z0.400 F7800.000
; printing object union_3.stl id:2 copy 0
START_CURRENT_OBJECT NAME=union_3_stl_id_2_copy_0
G1 E3.06351 F2400.00000
G92 E0
G1 X104.328 Y104.828 F7800.000
G1 E2.00000 F2400.00000
G1 F1800.000
G1 X105.672 Y104.828 E2.15954
G1 X105.672 Y106.172 E2.31909
G1 X104.328 Y106.172 E2.47863
G1 X104.328 Y104.888 E2.63105
G1 X103.614 Y104.114 F7800.000
G1 F1800.000
G1 X106.386 Y104.114 E2.96023
G1 X106.386 Y106.886 E3.28941
G1 X103.614 Y106.886 E3.61859
G1 X103.614 Y104.174 E3.94064
G1 X102.900 Y103.400 F7800.000
G1 F1800.000
G1 X107.100 Y103.400 E4.43946
G1 X107.100 Y107.600 E4.93827
G1 X102.900 Y107.600 E5.43709
G1 X102.900 Y103.460 E5.92877
G1 X103.286 Y103.504 F7800.000
G1 E3.92877 F2400.00000
G92 E0
G1 X95.672 Y104.828 F7800.000
G1 E2.00000 F2400.00000
G1 F1800.000
G1 X95.672 Y106.172 E2.15954
G1 X94.328 Y106.172 E2.31909
G1 X94.328 Y104.828 E2.47863
G1 X95.612 Y104.828 E2.63105
G1 X96.386 Y104.114 F7800.000
G1 F1800.000
G1 X96.386 Y106.886 E2.96023
G1 X93.614 Y106.886 E3.28941
G1 X93.614 Y104.114 E3.61859
G1 X96.326 Y104.114 E3.94064
G1 X97.100 Y103.400 F7800.000
G1 F1800.000
G1 X97.100 Y107.600 E4.43946
G1 X92.900 Y107.600 E4.93827
G1 X92.900 Y103.400 E5.43709
G1 X97.040 Y103.400 E5.92877
G1 X96.996 Y103.786 F7800.000
; stop printing object union_3.stl id:2 copy 0
END_CURRENT_OBJECT NAME=union_3_stl_id_2_copy_0
M104 S200 ; set temperature
G1 Z0.700 F7800.000
; printing object cube_1.stl id:0 copy 0
START_CURRENT_OBJECT NAME=cube_1_stl_id_0_copy_0
G1 E3.92877 F2400.00000
G92 E0
G1 X101.464 Y84.964 F7800.000
G1 E2.00000 F2400.00000
G1 F900.000
G1 X98.536 Y84.964 E2.15296
G1 X98.536 Y82.036 E2.30592
G1 X101.464 Y82.036 E2.45888
G1 X101.464 Y84.904 E2.60870
G1 X101.883 Y85.383 F7800.000
G1 F900.000
G1 X98.117 Y85.383 E2.80543
G1 X98.117 Y81.617 E3.00216
G1 X101.883 Y81.617 E3.19889
G1 X101.883 Y85.323 E3.39248
G1 X102.280 Y85.780 F7800.000
G1 F900.000
G1 X97.720 Y85.780 E3.60612
G1 X97.720 Y81.220 E3.81975
G1 X102.280 Y81.220 E4.03338
G1 X102.280 Y85.720 E4.24420
G1 X101.894 Y85.676 F7800.000
G1 X101.208 Y82.618 F7800.000
G1 F1200.000
G1 X100.882 Y82.292 E4.26848
G1 X100.285 Y82.292 E4.29992
G1 X101.208 Y83.215 E4.36867
G1 X101.208 Y83.812 E4.40011
G1 X99.688 Y82.292 E4.51333
G1 X99.091 Y82.292 E4.54477
G1 X101.208 Y84.409 E4.70246
G1 X101.208 Y84.708 E4.71818
G1 X100.909 Y84.708 E4.73390
G1 X98.792 Y82.591 E4.89159
G1 X98.792 Y83.188 E4.92303
G1 X100.312 Y84.708 E5.03625
G1 X99.715 Y84.708 E5.06769
G1 X98.792 Y83.785 E5.13644
G1 X98.792 Y84.382 E5.16788
G1 X99.118 Y84.708 E5.19215
; stop printing object cube_1.stl id:0 copy 0
END_CURRENT_OBJECT NAME=cube_1_stl_id_0_copy_0
; printing object cube_1.stl id:0 copy 1
START_CURRENT_OBJECT NAME=cube_1_stl_id_0_copy_1
G1 E3.19215 F2400.00000
G92 E0
G1 X101.464 Y117.964 F7800.000
G1 E2.00000 F2400.00000
G1 F900.000
G1 X98.536 Y117.964 E2.15296
G1 X98.536 Y115.036 E2.30592
G1 X101.464 Y115.036 E2.45888
G1 X101.464 Y117.904 E2.60870
G1 X101.883 Y118.383 F7800.000
G1 F900.000
G1 X98.117 Y118.383 E2.80543
G1 X98.117 Y114.617 E3.00216
G1 X101.883 Y114.617 E3.19889
G1 X101.883 Y118.323 E3.39248
G1 X102.280 Y118.780 F7800.000
G1 F900.000
G1 X97.720 Y118.780 E3.60612
G1 X97.720 Y114.220 E3.81975
G1 X102.280 Y114.220 E4.03338
G1 X102.280 Y118.720 E4.24420
G1 X101.894 Y118.676 F7800.000
G1 X101.208 Y115.618 F7800.000
G1 F1200.000
G1 X100.882 Y115.292 E4.26848
G1 X100.285 Y115.292 E4.29992
G1 X101.208 Y116.215 E4.36867
G1 X101.208 Y116.812 E4.40011
G1 X99.688 Y115.292 E4.51333
G1 X99.091 Y115.292 E4.54477
G1 X101.208 Y117.409 E4.70246
G1 X101.208 Y117.708 E4.71818
G1 X100.909 Y117.708 E4.73390
G1 X98.792 Y115.591 E4.89159
G1 X98.792 Y116.188 E4.92303
G1 X100.312 Y117.708 E5.03625
G1 X99.715 Y117.708 E5.06769
G1 X98.792 Y116.785 E5.13644
G1 X98.792 Y117.382 E5.16788
G1 X99.118 Y117.708 E5.19215
; stop printing object cube_1.stl id:0 copy 1
END_CURRENT_OBJECT NAME=cube_1_stl_id_0_copy_1
G1 Z0.700 F7800.000
; printing object cylinder_2.stl id:1 copy 0
START_CURRENT_OBJECT NAME=cylinder_2_stl_id_1_copy_0
G1 E3.19215 F2400.00000
G92 E0
G1 X99.683 Y95.918 F7800.000
G1 E2.00000 F2400.00000
G1 F900.000
G1 X99.335 Y95.798 E2.01925
G1 X99.091 Y95.640 E2.03443
G1 X98.883 Y95.438 E2.04961
G1 X98.719 Y95.198 E2.06478
G1 X98.606 Y94.930 E2.07996
G1 X98.549 Y94.645 E2.09513
G1 X98.549 Y94.355 E2.11031
G1 X98.606 Y94.070 E2.12549
G1 X98.719 Y93.802 E2.14066
G1 X98.883 Y93.562 E2.15584
G1 X99.091 Y93.360 E2.17101
G1 X99.345 Y93.195 E2.18687
G1 X99.523 Y93.120 E2.19692
G1 X99.819 Y93.053 E2.21278
G1 X100.109 Y93.045 E2.22795
G1 X100.395 Y93.096 E2.24313
G1 X100.665 Y93.202 E2.25831
G1 X100.909 Y93.360 E2.27348
G1 X101.117 Y93.562 E2.28866
G1 X101.281 Y93.802 E2.30383
G1 X101.394 Y94.070 E2.31901
G1 X101.451 Y94.355 E2.33419
G1 X101.451 Y94.645 E2.34936
G1 X101.394 Y94.930 E2.36454
G1 X101.281 Y95.198 E2.37971
G1 X101.110 Y95.448 E2.39557
G1 X100.976 Y95.586 E2.40562
G1 X100.729 Y95.763 E2.42148
G1 X100.465 Y95.883 E2.43665
G1 X100.181 Y95.947 E2.45183
G1 X99.891 Y95.955 E2.46700
G1 X99.742 Y95.928 E2.47490
G1 X99.610 Y96.330 F7800.000
G1 F900.000
G1 X99.491 Y96.309 E2.48123
G1 X99.142 Y96.173 E2.50079
G1 X98.828 Y95.970 E2.52035
G1 X98.560 Y95.708 E2.53990
G1 X98.349 Y95.399 E2.55946
G1 X98.204 Y95.054 E2.57901
G1 X98.130 Y94.687 E2.59857
G1 X98.130 Y94.313 E2.61813
G1 X98.204 Y93.946 E2.63768
G1 X98.349 Y93.601 E2.65724
G1 X98.560 Y93.292 E2.67679
G1 X98.828 Y93.030 E2.69635
G1 X99.149 Y92.823 E2.71631
G1 X99.394 Y92.720 E2.73019
G1 X99.766 Y92.635 E2.75015
G1 X100.140 Y92.626 E2.76971
G1 X100.509 Y92.691 E2.78926
G1 X100.858 Y92.827 E2.80882
G1 X101.172 Y93.030 E2.82837
G1 X101.440 Y93.292 E2.84793
G1 X101.651 Y93.601 E2.86749
G1 X101.796 Y93.946 E2.88704
G1 X101.870 Y94.313 E2.90660
G1 X101.870 Y94.687 E2.92615
G1 X101.796 Y95.054 E2.94571
G1 X101.651 Y95.399 E2.96526
G1 X101.436 Y95.715 E2.98522
G1 X101.250 Y95.905 E2.99910
G1 X100.940 Y96.128 E3.01906
G1 X100.599 Y96.282 E3.03862
G1 X100.234 Y96.365 E3.05818
G1 X99.860 Y96.374 E3.07773
G1 X99.669 Y96.341 E3.08782
G1 X99.541 Y96.722 F7800.000
G1 F900.000
G1 X99.383 Y96.694 E3.09536
G1 X98.960 Y96.528 E3.11662
G1 X98.579 Y96.282 E3.13788
G1 X98.254 Y95.965 E3.15914
G1 X97.999 Y95.590 E3.18040
G1 X97.822 Y95.172 E3.20166
G1 X97.732 Y94.727 E3.22293
G1 X97.732 Y94.273 E3.24419
G1 X97.822 Y93.828 E3.26545
G1 X97.999 Y93.410 E3.28671
G1 X98.254 Y93.035 E3.30797
G1 X98.579 Y92.718 E3.32923
G1 X98.963 Y92.471 E3.35062
G1 X99.271 Y92.340 E3.36632
G1 X99.717 Y92.239 E3.38771
G1 X100.170 Y92.227 E3.40897
G1 X100.617 Y92.306 E3.43023
G1 X101.040 Y92.472 E3.45149
G1 X101.421 Y92.718 E3.47275
G1 X101.746 Y93.035 E3.49402
G1 X102.001 Y93.410 E3.51528
G1 X102.178 Y93.828 E3.53654
G1 X102.268 Y94.273 E3.55780
G1 X102.268 Y94.727 E3.57906
G1 X102.178 Y95.172 E3.60032
G1 X102.001 Y95.590 E3.62158
G1 X101.744 Y95.967 E3.64297
G1 X101.510 Y96.207 E3.65867
G1 X101.139 Y96.474 E3.68006
G1 X100.726 Y96.660 E3.70132
G1 X100.283 Y96.761 E3.72258
G1 X99.830 Y96.773 E3.74385
G1 X99.600 Y96.732 E3.75476
G1 X99.480 Y96.573 F7800.000
G1 X99.232 Y95.114 F7800.000
G1 F1200.000
G1 X99.368 Y95.330 E3.77073
G1 X99.516 Y95.474 E3.78369
G1 X99.715 Y95.596 E3.79832
G1 X98.907 Y94.788 E3.86996
G1 X98.845 Y94.643 E3.87984
G1 X98.804 Y94.440 E3.89280
G1 X98.804 Y94.234 E3.90575
G1 X98.850 Y94.021 E3.91941
G1 X100.479 Y95.650 E4.06387
G1 X100.682 Y95.562 E4.07772
G1 X100.917 Y95.377 E4.09647
G1 X99.127 Y93.587 E4.25514
G1 X99.190 Y93.526 E4.26065
G1 X99.379 Y93.404 E4.27475
G1 X99.586 Y93.335 E4.28843
G1 X101.166 Y94.914 E4.42846
G1 X100.958 Y93.996 F7800.000
G1 F1200.000
G1 X100.632 Y93.670 E4.45734
; stop printing object cylinder_2.stl id:1 copy 0
END_CURRENT_OBJECT NAME=cylinder_2_stl_id_1_copy_0
G1 Z0.700 F7800.000
; printing object union_3.stl id:2 copy 0
START_CURRENT_OBJECT NAME=union_3_stl_id_2_copy_0
G1 E2.45734 F2400.00000
G92 E0
G1 X103.536 Y104.036 F7800.000
G1 E2.00000 F2400.00000
G1 F900.000
G1 X106.464 Y104.036 E2.15296
G1 X106.464 Y106.964 E2.30592
G1 X103.536 Y106.964 E2.45888
G1 X103.536 Y104.096 E2.60870
G1 X103.117 Y103.617 F7800.000
G1 F900.000
G1 X106.883 Y103.617 E2.80543
G1 X106.883 Y107.383 E3.00216
G1 X103.117 Y107.383 E3.19889
G1 X103.117 Y103.677 E3.39248
G1 X102.720 Y103.220 F7800.000
G1 F900.000
G1 X107.280 Y103.220 E3.60612
G1 X107.280 Y107.780 E3.81975
G1 X102.720 Y107.780 E4.03338
G1 X102.720 Y103.280 E4.24420
G1 X103.106 Y103.324 F7800.000
G1 X104.118 Y106.708 F7800.000
G1 F1200.000
G1 X103.792 Y106.382 E4.26847
G1 X103.792 Y105.785 E4.29991
G1 X104.715 Y106.708 E4.36866
G1 X105.312 Y106.708 E4.40010
G1 X103.792 Y105.188 E4.51332
G1 X103.792 Y104.591 E4.54476
G1 X105.909 Y106.708 E4.70245
