; Postprocessed by [ArcWelder](https://github.com/FormerLurker/ArcWelderLib)
; Copyright(C) 2020 - Brad Hochgesang
; resolution=0.05mm
; path_tolerance=5%
; max_radius=1000000.00mm
; default_xyz_precision=3
; default_e_precision=5

; generated by SuperSlicer 2.3.56 on 2021-09-03 at 16:50:39 UTC







; TODO: check the size of the extruder and the y-bar clearance. Optimize & test supports.

; external perimeters extrusion width = 0.42mm
; perimeters extrusion width = 0.44mm
; infill extrusion width = 0.44mm
; solid infill extrusion width = 0.44mm
; top infill extrusion width = 0.44mm
; first layer extrusion width = 0.56mm

; object:{"name":"cube_1","id":"cube_1 id:0 copy 0","object_center":[150.505357,155.500000,0.000000],"boundingbox_center":[150.505357,155.500000,2.500000],"boundingbox_size":[5.000000,5.000000,5.000000]}
; object:{"name":"cube_1","id":"cube_1 id:0 copy 1","object_center":[139.505357,155.500000,0.000000],"boundingbox_center":[139.505357,155.500000,2.500000],"boundingbox_size":[5.000000,5.000000,5.000000]}
; object:{"name":"cylinder_2","id":"cylinder_2 id:1 copy 0","object_center":[160.494644,148.580964,0.000000],"boundingbox_center":[160.494644,148.580964,2.500000],"boundingbox_size":[5.000000,4.998440,5.000000]}
; object:{"name":"union_3","id":"union_3 id:2 copy 0","object_center":[144.505358,144.500000,0.000000],"boundingbox_center":[144.505358,144.500000,2.500000],"boundingbox_size":[15.000000,5.000000,5.000000]}
; plater:{"center":[150.000000,150.000000,0.000000],"boundingbox_center":[150.000000,150.000000,2.500000],"boundingbox_size":[25.989287,16.000000,5.000000]}

;TYPE:Custom
print_start EXTRUDER=240 BED=110 CHAMBER=40 MATERIAL=ABS
M107
G21 ; set units to millimeters
G90 ; use absolute coordinates
M83 ; use relative distances for extrusion
M104 S240 ; set temperature
M109 S240 ; set temperature and wait for it to be reached
M190 S110 ; set bed temperature and wait for it to be reached
M107
;LAYER_CHANGE
;Z:0.2
;HEIGHT:0.2
;BEFORE_LAYER_CHANGE
;0.2

G1 Z0.200000 F18000
;AFTER_LAYER_CHANGE
;0.2

TIMELAPSE_TAKE_FRAME
G1 E-0.75000 F3000
G1 Z1.000000 F18000
G1 X133.479 Y138.198
G1 Z0.200000
G1 E0.75000 F1800
;TYPE:Skirt
;WIDTH:0.56
G1 F1500
M204 S1000
G1 X134.372 Y137.528 E0.04509
G1 X135.384 Y137.059 E0.04509
G1 X136.477 Y136.810 E0.04531
G1 X151.911 Y136.773 E0.62378
G3 X153.908 Y137.164 I-0.010 J5.348 E0.08261
G1 X163.708 Y141.554 E0.43400
G1 X165.022 Y142.320 E0.06149
G1 X166.173 Y143.341 E0.06219
G1 X166.950 Y144.336 E0.05103
G1 X167.603 Y145.552 E0.05577
G1 X168.004 Y146.761 E0.05150
G1 X168.206 Y148.092 E0.05439
G1 X168.183 Y149.354 E0.05102
G1 X167.952 Y150.602 E0.05128
G1 X167.486 Y151.870 E0.05461
G1 X166.841 Y152.989 E0.05219
G3 X165.544 Y154.430 I-6.394 J-4.451 E0.07851
G1 X156.241 Y162.053 E0.48610
G1 X155.344 Y162.636 E0.04325
G1 X154.353 Y163.026 E0.04302
G1 X152.963 Y163.227 E0.05676
G1 X136.906 Y163.223 E0.64897
G1 X135.408 Y162.949 E0.06155
G1 X134.048 Y162.262 E0.06155
G1 X133.149 Y161.467 E0.04852
G1 X132.451 Y160.491 E0.04852
G1 X131.989 Y159.382 E0.04852
G1 X131.787 Y158.199 E0.04852
G1 X131.785 Y141.832 E0.66148
G1 X132.067 Y140.370 E0.06018
G1 X132.743 Y139.043 E0.06018
G1 X133.440 Y138.243 E0.04289
M204 S1500
G1 X133.828 Y138.589 F18000
G1 F1500
M204 S1000
G1 X133.872 Y138.539 E0.00270
G1 X134.688 Y137.942 E0.04087
G1 X135.606 Y137.530 E0.04066
G1 X136.595 Y137.317 E0.04087
G1 X151.911 Y137.290 E0.61901
G3 X153.728 Y137.649 I-0.004 J4.798 E0.07522
G1 X163.489 Y142.022 E0.43228
G1 X164.707 Y142.730 E0.05694
G1 X165.765 Y143.661 E0.05694
G1 X166.508 Y144.605 E0.04856
G1 X167.123 Y145.745 E0.05236
G1 X167.501 Y146.880 E0.04836
G1 X167.690 Y148.135 E0.05127
G1 X167.663 Y149.352 E0.04921
G1 X167.415 Y150.601 E0.05149
G3 X166.383 Y152.741 I-6.930 J-2.023 E0.09634
G1 X165.200 Y154.043 E0.07110
G1 X155.920 Y161.648 E0.48492
G3 X154.212 Y162.529 I-3.022 J-3.762 E0.07804
G1 X152.955 Y162.710 E0.05131
G1 X136.932 Y162.707 E0.64760
G1 X135.552 Y162.452 E0.05673
G1 X134.299 Y161.806 E0.05695
G1 X133.501 Y161.085 E0.04349
G1 X132.881 Y160.199 E0.04370
G1 X132.474 Y159.197 E0.04370
G1 X132.301 Y158.135 E0.04349
G1 X132.301 Y141.873 E0.65726
G1 X132.564 Y140.516 E0.05586
G1 X133.199 Y139.294 E0.05565
G1 X133.788 Y138.634 E0.03575
M204 S1500
G1 X134.170 Y138.983 F18000
G1 F1500
M204 S1000
G1 X134.258 Y138.888 E0.00522
G3 X136.695 Y137.827 I2.845 J3.206 E0.10902
G1 X151.910 Y137.807 E0.61495
G3 X153.542 Y138.131 I-0.008 J4.313 E0.06754
G1 X163.275 Y142.493 E0.43107
G1 X164.398 Y143.144 E0.05245
G1 X165.373 Y143.999 E0.05242
G1 X166.073 Y144.884 E0.04557
G1 X166.652 Y145.958 E0.04934
G1 X167.001 Y147.015 E0.04497
G1 X167.177 Y148.217 E0.04913
G1 X167.144 Y149.334 E0.04515
G1 X166.897 Y150.530 E0.04934
G1 X166.488 Y151.559 E0.04476
G1 X165.863 Y152.577 E0.04831
G1 X164.853 Y153.660 E0.05983
G1 X155.590 Y161.250 E0.48400
G3 X154.066 Y162.033 I-2.684 J-3.350 E0.06960
G1 X152.944 Y162.193 E0.04579
G1 X136.957 Y162.190 E0.64613
G1 X135.694 Y161.954 E0.05194
G1 X134.557 Y161.355 E0.05194
G1 X133.853 Y160.702 E0.03881
G1 X133.314 Y159.913 E0.03861
G1 X132.963 Y159.025 E0.03861
G1 X132.816 Y158.076 E0.03881
G1 X132.817 Y141.906 E0.65353
G1 X133.058 Y140.669 E0.05091
G1 X133.651 Y139.552 E0.05112
G1 X134.130 Y139.028 E0.02870
M204 S1500
G1 X134.507 Y139.381 F18000
G1 F1500
M204 S1000
G1 X134.633 Y139.246 E0.00744
G3 X136.787 Y138.338 I2.474 J2.859 E0.09585
G1 X151.910 Y138.324 E0.61122
G3 X153.355 Y138.614 I-0.002 J3.753 E0.05985
G1 X163.057 Y142.962 E0.42968
G1 X164.086 Y143.557 E0.04802
G1 X164.970 Y144.326 E0.04738
G1 X165.630 Y145.151 E0.04271
G1 X166.173 Y146.153 E0.04604
G1 X166.498 Y147.134 E0.04175
G1 X166.661 Y148.251 E0.04565
G1 X166.630 Y149.279 E0.04154
G1 X166.398 Y150.394 E0.04604
G1 X166.019 Y151.340 E0.04117
G1 X165.419 Y152.308 E0.04603
G1 X164.514 Y153.269 E0.05337
G1 X155.268 Y160.845 E0.48310
G3 X153.928 Y161.534 I-2.359 J-2.941 E0.06120
G1 X152.938 Y161.675 E0.04043
G1 X136.981 Y161.674 E0.64493
G1 X135.844 Y161.459 E0.04677
G1 X134.829 Y160.912 E0.04657
G3 X133.332 Y158.032 I2.274 J-3.011 E0.13533
G1 X133.333 Y141.942 E0.65029
G1 X133.552 Y140.825 E0.04600
G1 X134.093 Y139.824 E0.04600
G1 X134.466 Y139.425 E0.02208
M204 S1500
G1 X134.839 Y139.781 F18000
G1 F1500
M204 S1000
G1 X135.002 Y139.611 E0.00952
G3 X136.870 Y138.850 I2.104 J2.492 E0.08277
G1 X151.910 Y138.841 E0.60783
G3 X153.169 Y139.096 I-0.007 J3.268 E0.05218
G1 X162.831 Y143.427 E0.42793
G3 X164.981 Y152.029 I-2.339 J5.154 E0.41115
G1 X164.086 Y152.953 E0.05203
G1 X154.950 Y160.438 E0.47732
G3 X153.793 Y161.035 I-2.046 J-2.546 E0.05290
G1 X152.930 Y161.158 E0.03522
G1 X137.007 Y161.157 E0.64352
G1 X136.004 Y160.967 E0.04128
G1 X135.108 Y160.475 E0.04128
G3 X133.848 Y157.992 I2.001 J-2.577 E0.11602
G1 X133.849 Y141.975 E0.64735
G1 X134.043 Y140.986 E0.04075
G1 X134.530 Y140.103 E0.04075
G1 X134.797 Y139.825 E0.01558
; INIT printing object cube_1 id:0 copy 0
G1 E-0.75000 F3000
M204 S1500
G1 Z0.600000 F18000
; printing object cube_1 id:0 copy 0
G1 X149.420 Y154.414
G1 Z0.200000
G1 E0.75000 F1800
;TYPE:Internal perimeter
G1 F1500
M204 S1000
G1 X151.591 Y154.414 E0.08777
G1 X151.591 Y156.586 E0.08777
G1 X149.420 Y156.586 E0.08777
G1 X149.420 Y154.474 E0.08535
M204 S1500
G1 X148.902 Y153.897 F18000
G1 F1500
M204 S1000
G1 X152.108 Y153.897 E0.12957
G1 X152.108 Y157.103 E0.12957
G1 X148.902 Y157.103 E0.12957
G1 X148.902 Y153.957 E0.12714
M204 S1500
G1 X148.385 Y153.380 F18000
;TYPE:External perimeter
G1 F1500
M204 S1000
G1 X152.625 Y153.380 E0.17136
G1 X152.625 Y157.620 E0.17136
G1 X148.385 Y157.620 E0.17136
G1 X148.385 Y153.440 E0.16894
M204 S1500
G1 X148.732 Y153.580 F18000
G1 X150.365 Y154.595
;TYPE:Solid infill
;WIDTH:0.654063
G1 F1800
M204 S1000
G1 X151.178 Y155.408 E0.05424
G1 X151.178 Y156.139 E0.03452
G1 X149.866 Y154.828 E0.08753
G1 X149.833 Y154.828 E0.00157
G1 X149.833 Y155.526 E0.03295
G1 X150.712 Y156.405 E0.05868
; INIT stop printing object cube_1 id:0 copy 0
; INIT printing object cube_1 id:0 copy 1
G1 E-0.75000 F3000
M204 S1500
G1 Z0.600000 F18000
; stop printing object cube_1 id:0 copy 0
; printing object cube_1 id:0 copy 1
G1 X140.591 Y156.405
G1 Z0.200000
G1 E0.75000 F1800
;TYPE:Internal perimeter
;WIDTH:0.56
G1 F1500
M204 S1000
G1 X140.591 Y156.586 E0.00731
G1 X138.420 Y156.586 E0.08777
G1 X138.420 Y154.414 E0.08777
G1 X140.591 Y154.414 E0.08777
G1 X140.591 Y156.345 E0.07803
M204 S1500
G1 X141.108 Y157.103 F18000
G1 F1500
M204 S1000
G1 X137.902 Y157.103 E0.12957
G1 X137.902 Y153.897 E0.12957
G1 X141.108 Y153.897 E0.12957
G1 X141.108 Y157.043 E0.12714
M204 S1500
G1 X141.625 Y157.620 F18000
;TYPE:External perimeter
G1 F1500
M204 S1000
G1 X137.385 Y157.620 E0.17136
G1 X137.385 Y153.380 E0.17136
G1 X141.625 Y153.380 E0.17136
G1 X141.625 Y157.560 E0.16894
M204 S1500
G1 X141.279 Y157.420 F18000
G1 E-0.75000 F3000
G1 X139.365 Y154.595 F18000
G1 E0.75000 F1800
;TYPE:Solid infill
;WIDTH:0.654063
M204 S1000
G1 X140.178 Y155.408 E0.05424
G1 X140.178 Y156.139 E0.03452
G1 X138.866 Y154.828 E0.08753
G1 X138.833 Y154.828 E0.00157
G1 X138.833 Y155.526 E0.03295
G1 X139.712 Y156.405 E0.05868
; INIT stop printing object cube_1 id:0 copy 1
; INIT printing object union_3 id:2 copy 0
G1 E-0.75000 F3000
M204 S1500
G1 Z0.600000 F18000
; stop printing object cube_1 id:0 copy 1
; printing object union_3 id:2 copy 0
G1 X140.591 Y145.586
G1 Z0.200000
G1 E0.75000 F1800
;TYPE:Internal perimeter
;WIDTH:0.56
G1 F1500
M204 S1000
G1 X138.420 Y145.586 E0.08777
G1 X138.420 Y143.414 E0.08777
G1 X140.591 Y143.414 E0.08777
G1 X140.591 Y145.526 E0.08535
M204 S1500
G1 X141.108 Y146.103 F18000
G1 F1500
M204 S1000
G1 X137.902 Y146.103 E0.12957
G1 X137.902 Y142.897 E0.12957
G1 X141.108 Y142.897 E0.12957
G1 X141.108 Y146.043 E0.12714
M204 S1500
G1 X141.625 Y146.620 F18000
;TYPE:External perimeter
G1 F1500
M204 S1000
G1 X137.385 Y146.620 E0.17136
G1 X137.385 Y142.380 E0.17136
G1 X141.625 Y142.380 E0.17136
G1 X141.625 Y146.560 E0.16894
M204 S1500
G1 X141.279 Y146.420 F18000
G1 E-0.75000 F3000
G1 X139.365 Y143.595 F18000
G1 E0.75000 F1800
;TYPE:Solid infill
;WIDTH:0.654057
M204 S1000
G1 X140.178 Y144.408 E0.05424
G1 X140.178 Y145.139 E0.03452
G1 X138.866 Y143.828 E0.08753
G1 X138.833 Y143.828 E0.00157
G1 X138.833 Y144.526 E0.03295
G1 X139.712 Y145.405 E0.05868
G1 E-0.75000 F3000
M204 S1500
G1 X148.420 Y145.405 F18000
G1 E0.75000 F1800
;TYPE:Internal perimeter
;WIDTH:0.56
G1 F1500
M204 S1000
G1 X148.420 Y143.414 E0.08046
G1 X150.591 Y143.414 E0.08777
G1 X150.591 Y145.586 E0.08777
G1 X148.420 Y145.586 E0.08777
G1 X148.420 Y145.465 E0.00489
M204 S1500
G1 X147.902 Y146.103 F18000
G1 F1500
M204 S1000
G1 X147.902 Y142.897 E0.12957
G1 X151.108 Y142.897 E0.12957
G1 X151.108 Y146.103 E0.12957
G1 X147.962 Y146.103 E0.12714
M204 S1500
G1 X147.385 Y146.620 F18000
;TYPE:External perimeter
G1 F1500
M204 S1000
G1 X147.385 Y142.380 E0.17136
G1 X151.625 Y142.380 E0.17136
G1 X151.625 Y146.620 E0.17136
G1 X147.445 Y146.620 E0.16894
M204 S1500
G1 X147.585 Y146.274 F18000
G1 E-0.75000 F3000
G1 X149.365 Y143.595 F18000
G1 E0.75000 F1800
;TYPE:Solid infill
;WIDTH:0.654057
M204 S1000
G1 X150.178 Y144.408 E0.05424
G1 X150.178 Y145.139 E0.03452
G1 X148.866 Y143.828 E0.08753
G1 X148.833 Y143.828 E0.00157
G1 X148.833 Y144.526 E0.03295
G1 X149.712 Y145.405 E0.05868
; INIT stop printing object union_3 id:2 copy 0
; INIT printing object cylinder_2 id:1 copy 0
G1 E-0.75000 F3000
M204 S1500
G1 Z0.600000 F18000
; stop printing object union_3 id:2 copy 0
; printing object cylinder_2 id:1 copy 0
G1 X159.457 Y148.261
G1 Z0.200000
G1 E0.75000 F1800
;TYPE:Internal perimeter
;WIDTH:0.56
G1 F1500
M204 S1000
G3 X159.442 Y148.319 I1.043 J0.301 E0.27346
M204 S1500
G1 X158.937 Y148.204 F18000
G1 F1500
M204 S1000
G3 X158.924 Y148.262 I1.557 J0.380 E0.40456
M204 S1500
G1 X158.417 Y148.161 F18000
;TYPE:External perimeter
G1 F1500
M204 S1000
G3 X158.406 Y148.220 I2.078 J0.418 E0.53560
M204 S1500
G1 X158.517 Y148.128 F18000
G1 X159.974 Y147.847
;TYPE:Solid infill
;WIDTH:0.728
G1 F1800
M204 S1000
G1 X161.060 Y148.934 E0.08076
G3 X160.631 Y149.236 I-0.557 J-0.335 E0.02839
G1 X159.654 Y148.260 E0.07253
; INIT stop printing object cylinder_2 id:1 copy 0
;LAYER_CHANGE
;Z:0.4
;HEIGHT:0.2
;BEFORE_LAYER_CHANGE
;0.4

; stop printing object cylinder_2 id:1 copy 0
M204 S1500
G1 Z0.400000 F18000
;AFTER_LAYER_CHANGE
;0.4

TIMELAPSE_TAKE_FRAME
M104 S235 ; set temperature
M140 S105 ; set bed temperature
; INIT printing object cube_1 id:0 copy 0
G1 E-0.75000 F3000
G1 Z0.800000 F18000
; printing object cube_1 id:0 copy 0
G1 X152.011 Y153.994
G1 Z0.400000
G1 E0.75000 F1800
;TYPE:Internal perimeter
;WIDTH:0.44
G1 F4473.1667
G1 X152.011 Y157.006 E0.09347
G1 X149.000 Y157.006 E0.09347
G1 X149.000 Y153.994 E0.09347
G1 X151.951 Y153.994 E0.09161
G1 X152.408 Y153.597 F18000
G1 F5562.2975
G1 X152.408 Y157.403 E0.11812
G1 X148.602 Y157.403 E0.11812
G1 X148.602 Y153.597 E0.11812
G1 X152.348 Y153.597 E0.11626
G1 X152.795 Y153.210 F18000
;TYPE:External perimeter
;WIDTH:0.42
G1 F4512
G1 X152.795 Y157.790 E0.13499
G1 X148.215 Y157.790 E0.13499
G1 X148.215 Y153.210 E0.13499
G1 X152.735 Y153.210 E0.13322
G1 X152.595 Y153.556 F18000
G1 X151.070 Y156.867
;TYPE:Solid infill
;WIDTH:0.473731
G1 F7200
G1 X151.694 Y156.243 E0.02949
G1 X151.694 Y155.681 E0.01876
G1 X150.687 Y156.688 E0.04758
G1 X150.125 Y156.688 E0.01876
G1 X151.694 Y155.120 E0.07412
G1 X151.694 Y154.558 E0.01876
G1 X149.564 Y156.688 E0.10066
G1 X149.317 Y156.688 E0.00823
G1 X149.317 Y156.373 E0.01053
G1 X151.378 Y154.312 E0.09740
G1 X150.817 Y154.312 E0.01876
G1 X149.317 Y155.811 E0.07087
G1 X149.317 Y155.250 E0.01876
G1 X150.255 Y154.312 E0.04433
G1 X149.694 Y154.312 E0.01876
G1 X149.138 Y154.867 E0.02624
; INIT stop printing object cube_1 id:0 copy 0
; INIT printing object cube_1 id:0 copy 1
G1 E-0.75000 F3000
G1 Z0.800000 F18000
; stop printing object cube_1 id:0 copy 0
; printing object cube_1 id:0 copy 1
G1 X141.011 Y153.994
G1 Z0.400000
G1 E0.75000 F1800
;TYPE:Internal perimeter
;WIDTH:0.44
G1 F4473.1667
G1 X141.011 Y157.006 E0.09347
G1 X138.000 Y157.006 E0.09347
G1 X138.000 Y153.994 E0.09347
G1 X140.951 Y153.994 E0.09161
G1 X141.408 Y153.597 F18000
G1 F5562.2975
G1 X141.408 Y157.403 E0.11812
G1 X137.602 Y157.403 E0.11812
G1 X137.602 Y153.597 E0.11812
G1 X141.348 Y153.597 E0.11626
G1 X141.795 Y153.210 F18000
;TYPE:External perimeter
;WIDTH:0.42
G1 F4512
G1 X141.795 Y157.790 E0.13499
G1 X137.215 Y157.790 E0.13499
G1 X137.215 Y153.210 E0.13499
G1 X141.735 Y153.210 E0.13322
G1 X141.595 Y153.556 F18000
G1 X140.070 Y156.867
;TYPE:Solid infill
;WIDTH:0.473731
G1 F7200
G1 X140.694 Y156.243 E0.02949
G1 X140.694 Y155.681 E0.01876
G1 X139.687 Y156.688 E0.04758
G1 X139.125 Y156.688 E0.01876
G1 X140.694 Y155.120 E0.07412
G1 X140.694 Y154.558 E0.01876
G1 X138.564 Y156.688 E0.10066
G1 X138.317 Y156.688 E0.00823
G1 X138.317 Y156.373 E0.01053
G1 X140.378 Y154.312 E0.09740
G1 X139.817 Y154.312 E0.01876
G1 X138.317 Y155.811 E0.07087
G1 X138.317 Y155.250 E0.01876
G1 X139.255 Y154.312 E0.04433
G1 X138.694 Y154.312 E0.01876
G1 X138.138 Y154.867 E0.02624
; INIT stop printing object cube_1 id:0 copy 1
; INIT printing object union_3 id:2 copy 0
G1 E-0.75000 F3000
G1 Z0.800000 F18000
; stop printing object cube_1 id:0 copy 1
; printing object union_3 id:2 copy 0
G1 X138.000 Y146.006
G1 Z0.400000
G1 E0.75000 F1800
;TYPE:Internal perimeter
;WIDTH:0.44
G1 F4473.1667
G1 X138.000 Y142.994 E0.09347
G1 X141.011 Y142.994 E0.09347
G1 X141.011 Y146.006 E0.09347
G1 X138.060 Y146.006 E0.09161
