; Postprocessed by [ArcWelder](https://github.com/FormerLurker/ArcWelderLib)
; Copyright(C) 2020 - Brad Hochgesang
; resolution=0.05mm
; path_tolerance=5%
; max_radius=1000000.00mm
; default_xyz_precision=3
; default_e_precision=5

; generated by SuperSlicer 2.3.56 on 2021-09-03 at 19:34:02 UTC







; TODO: check the size of the extruder and the y-bar clearance. Optimize & test supports.

; external perimeters extrusion width = 0.42mm
; perimeters extrusion width = 0.44mm
; infill extrusion width = 0.44mm
; solid infill extrusion width = 0.44mm
; top infill extrusion width = 0.44mm
; support material extrusion width = 0.44mm
; first layer extrusion width = 0.56mm

; object:{"name":"union_3","id":"union_3.stl id:0 copy 0","object_center":[149.619946,131.558548,0.000000],"boundingbox_center":[149.619946,131.558548,2.500000],"boundingbox_size":[15.000000,5.000000,5.000000]}
; object:{"name":"union_3","id":"union_3.stl id:1 copy 0","object_center":[150.000000,150.000000,0.000000],"boundingbox_center":[150.000000,150.000000,2.500000],"boundingbox_size":[15.000000,5.000000,5.000000]}
; object:{"name":"union_3","id":"union_3.stl id:2 copy 0","object_center":[150.375913,166.626119,0.000000],"boundingbox_center":[150.375913,166.626119,2.500000],"boundingbox_size":[15.000000,5.000000,5.000000]}
; plater:{"center":[149.997930,149.092333,0.000000],"boundingbox_center":[149.997930,149.092333,2.500000],"boundingbox_size":[15.755967,40.067570,5.000000]}

;TYPE:Custom
print_start EXTRUDER=240 BED=110 CHAMBER=40 MATERIAL=ABS
M107
G21 ; set units to millimeters
G90 ; use absolute coordinates
M83 ; use relative distances for extrusion
M104 S240 ; set temperature
M109 S240 ; set temperature and wait for it to be reached
M190 S110 ; set bed temperature and wait for it to be reached
;LAYER_CHANGE
;Z:0.2
;HEIGHT:0.2
;BEFORE_LAYER_CHANGE
;0.2

G1 Z0.200000 F18000
;AFTER_LAYER_CHANGE
;0.2

TIMELAPSE_TAKE_FRAME
G1 E-0.75000 F3000
G1 Z1.000000 F18000
G1 X139.066 Y125.527
G1 Z0.200000
G1 E0.75000 F1800
;TYPE:Skirt
;WIDTH:0.56
G1 F1500
M204 S1000
G1 X140.161 Y124.812 E0.05283
G1 X141.402 Y124.419 E0.05261
G1 X142.200 Y124.349 E0.03237
G1 X157.025 Y124.349 E0.59920
G3 X161.786 Y128.513 I-0.003 J4.807 E0.27860
G1 X163.568 Y144.060 E0.63245
G1 X163.948 Y160.870 E0.67954
G1 X163.947 Y172.447 E0.46789
G1 X163.717 Y173.832 E0.05673
G1 X163.125 Y175.051 E0.05478
G1 X162.220 Y176.053 E0.05456
G1 X161.073 Y176.764 E0.05456
G1 X159.767 Y177.129 E0.05478
G1 X141.565 Y177.170 E0.73567
G1 X140.142 Y176.939 E0.05825
G1 X138.847 Y176.295 E0.05846
G1 X137.802 Y175.294 E0.05846
G1 X137.102 Y174.028 E0.05846
G1 X136.810 Y172.606 E0.05868
G1 X136.428 Y155.799 E0.67943
G1 X136.429 Y144.179 E0.46964
G1 X137.423 Y128.803 E0.62273
G1 X137.640 Y127.689 E0.04588
G1 X138.205 Y126.510 E0.05283
G1 X139.027 Y125.572 E0.05040
M204 S1500
G1 X139.413 Y125.916 F18000
G1 F1500
M204 S1000
G1 X139.432 Y125.895 E0.00113
G1 X140.425 Y125.259 E0.04764
G1 X141.553 Y124.918 E0.04764
G1 X157.025 Y124.866 E0.62533
G3 X161.278 Y128.616 I-0.005 J4.293 E0.25000
G1 X163.051 Y144.080 E0.62910
G1 X163.431 Y160.867 E0.67861
G1 X163.430 Y172.432 E0.46742
G1 X163.222 Y173.684 E0.05132
G1 X162.688 Y174.775 E0.04907
G1 X161.866 Y175.675 E0.04928
G1 X160.828 Y176.306 E0.04907
G1 X159.651 Y176.622 E0.04928
G1 X141.573 Y176.653 E0.73064
G1 X140.289 Y176.444 E0.05255
G1 X139.132 Y175.863 E0.05235
G1 X138.200 Y174.963 E0.05235
G1 X137.579 Y173.826 E0.05235
G1 X137.325 Y172.551 E0.05255
G1 X136.945 Y155.790 E0.67758
G1 X136.946 Y144.189 E0.46886
G1 X137.939 Y128.844 E0.62147
G1 X138.137 Y127.832 E0.04169
G1 X138.652 Y126.772 E0.04764
G1 X139.373 Y125.960 E0.04387
M204 S1500
G1 X139.757 Y126.307 F18000
G1 F1500
M204 S1000
G1 X139.796 Y126.264 E0.00233
G1 X140.685 Y125.709 E0.04235
G1 X141.692 Y125.420 E0.04235
G1 X157.025 Y125.383 E0.61969
G3 X160.770 Y128.716 I-0.005 J3.776 E0.22128
G1 X162.534 Y144.101 E0.62589
G1 X162.914 Y160.869 E0.67786
G1 X162.913 Y172.418 E0.46675
G1 X162.726 Y173.536 E0.04581
G1 X162.249 Y174.500 E0.04350
G1 X161.515 Y175.294 E0.04370
G1 X160.590 Y175.845 E0.04350
G1 X159.543 Y176.114 E0.04370
G1 X141.580 Y176.136 E0.72599
G1 X140.438 Y175.948 E0.04677
G1 X139.418 Y175.432 E0.04619
G1 X138.597 Y174.631 E0.04638
G1 X138.056 Y173.624 E0.04619
G1 X137.841 Y172.502 E0.04619
G1 X137.462 Y155.786 E0.67575
G1 X137.463 Y144.199 E0.46830
G1 X138.454 Y128.885 E0.62022
G1 X138.632 Y127.983 E0.03716
G1 X139.093 Y127.042 E0.04235
G1 X139.717 Y126.351 E0.03760
M204 S1500
G1 X140.097 Y126.700 F18000
G1 F1500
M204 S1000
G1 X140.152 Y126.640 E0.00331
G1 X140.935 Y126.164 E0.03701
G1 X141.818 Y125.925 E0.03701
G1 X157.024 Y125.900 E0.61456
G1 X158.063 Y126.071 E0.04253
G1 X158.996 Y126.567 E0.04271
G1 X159.719 Y127.332 E0.04253
G1 X160.161 Y128.292 E0.04271
G1 X162.002 Y143.910 E0.63560
G1 X162.397 Y160.867 E0.68552
G1 X162.397 Y172.405 E0.46629
G1 X162.231 Y173.386 E0.04022
G1 X161.811 Y174.224 E0.03790
G1 X161.169 Y174.908 E0.03790
G1 X160.360 Y175.381 E0.03790
G1 X159.449 Y175.604 E0.03790
G1 X141.587 Y175.619 E0.72191
G1 X140.588 Y175.453 E0.04093
G1 X139.706 Y175.002 E0.04004
G1 X139.000 Y174.307 E0.04004
G1 X138.536 Y173.431 E0.04004
G1 X138.357 Y172.462 E0.03986
G1 X137.979 Y155.777 E0.67451
G1 X137.980 Y144.208 E0.46755
G1 X138.970 Y128.925 E0.61897
G1 X139.128 Y128.131 E0.03272
G1 X139.536 Y127.311 E0.03701
G1 X140.056 Y126.745 E0.03109
; INIT printing object union_3.stl id:0 copy 0
G1 E-0.75000 F3000
M204 S1500
G1 Z0.600000 F18000
; printing object union_3.stl id:0 copy 0
G1 X143.534 Y130.473
G1 Z0.200000
G1 E0.75000 F1800
;TYPE:Internal perimeter
G1 F1500
M204 S1000
G1 X145.706 Y130.473 E0.08777
G1 X145.706 Y132.644 E0.08777
G1 X143.534 Y132.644 E0.08777
G1 X143.534 Y130.533 E0.08535
M204 S1500
G1 X143.017 Y129.956 F18000
G1 F1500
M204 S1000
G1 X146.223 Y129.956 E0.12957
G1 X146.223 Y133.161 E0.12957
G1 X143.017 Y133.161 E0.12957
G1 X143.017 Y130.016 E0.12714
M204 S1500
G1 X142.500 Y129.439 F18000
;TYPE:External perimeter
G1 F1500
M204 S1000
G1 X146.740 Y129.439 E0.17136
G1 X146.740 Y133.679 E0.17136
G1 X142.500 Y133.679 E0.17136
G1 X142.500 Y129.499 E0.16894
M204 S1500
G1 X142.846 Y129.639 F18000
G1 X144.480 Y130.654
;TYPE:Solid infill
;WIDTH:0.654057
G1 F1800
M204 S1000
G1 X145.292 Y131.466 E0.05424
G1 X145.292 Y132.197 E0.03452
G1 X143.981 Y130.886 E0.08753
G1 X143.948 Y130.886 E0.00157
G1 X143.948 Y131.584 E0.03295
G1 X144.827 Y132.463 E0.05868
G1 E-0.75000 F3000
M204 S1500
G1 X153.534 Y132.463 F18000
G1 E0.75000 F1800
;TYPE:Internal perimeter
;WIDTH:0.56
G1 F1500
M204 S1000
G1 X153.534 Y130.473 E0.08046
G1 X155.706 Y130.473 E0.08777
G1 X155.706 Y132.644 E0.08777
G1 X153.534 Y132.644 E0.08777
G1 X153.534 Y132.523 E0.00489
M204 S1500
G1 X153.017 Y133.161 F18000
G1 F1500
M204 S1000
G1 X153.017 Y129.956 E0.12957
G1 X156.223 Y129.956 E0.12957
G1 X156.223 Y133.161 E0.12957
G1 X153.077 Y133.161 E0.12714
M204 S1500
G1 X152.500 Y133.679 F18000
;TYPE:External perimeter
G1 F1500
M204 S1000
G1 X152.500 Y129.439 E0.17136
G1 X156.740 Y129.439 E0.17136
G1 X156.740 Y133.679 E0.17136
G1 X152.560 Y133.679 E0.16894
M204 S1500
G1 X152.700 Y133.332 F18000
G1 E-0.75000 F3000
G1 X154.480 Y130.654 F18000
G1 E0.75000 F1800
;TYPE:Solid infill
;WIDTH:0.654057
M204 S1000
G1 X155.292 Y131.466 E0.05424
G1 X155.292 Y132.197 E0.03452
G1 X153.981 Y130.886 E0.08753
G1 X153.948 Y130.886 E0.00157
G1 X153.948 Y131.584 E0.03295
G1 X154.827 Y132.463 E0.05868
; INIT stop printing object union_3.stl id:0 copy 0
; INIT printing object union_3.stl id:1 copy 0
G1 E-0.75000 F3000
M204 S1500
G1 Z0.600000 F18000
; stop printing object union_3.stl id:0 copy 0
; printing object union_3.stl id:1 copy 0
G1 X158.762 Y144.266
G1 Z0.200000
G1 E0.75000 F1800
;TYPE:Support material
;WIDTH:0.56
G1 F1500
M204 S1000
G1 X156.287 Y146.741 E0.14149
G1 X152.244 Y146.741 E0.16338
G1 X151.741 Y147.244 E0.02875
G1 X151.741 Y152.756 E0.22274
G1 X152.244 Y153.259 E0.02875
G1 X156.287 Y153.259 E0.16338
G1 X158.762 Y155.734 E0.14149
G1 X141.238 Y155.734 E0.70828
G1 X143.713 Y153.259 E0.14149
G1 X147.756 Y153.259 E0.16338
G1 X148.259 Y152.756 E0.02875
G1 X148.259 Y147.244 E0.22274
G1 X147.756 Y146.741 E0.02875
G1 X143.713 Y146.741 E0.16338
G1 X141.238 Y144.266 E0.14149
G1 X158.702 Y144.266 E0.70585
M204 S1500
G1 X158.421 Y144.571 F18000
G1 F1500
M204 S1000
G1 X141.908 Y144.571 E0.66739
G1 X142.425 Y145.088 E0.02955
G1 X157.575 Y145.088 E0.61229
G1 X157.058 Y145.605 E0.02955
G1 X142.942 Y145.605 E0.57049
G1 X143.459 Y146.122 E0.02955
G1 X156.541 Y146.122 E0.52870
G1 X156.180 Y146.483 E0.02063
G1 X152.137 Y146.483 E0.16338
G1 X151.981 Y146.639 E0.00892
G1 X148.019 Y146.639 E0.16014
G1 X148.517 Y147.137 E0.02848
G1 X148.517 Y147.156 E0.00076
G1 X151.483 Y147.156 E0.11987
G1 X151.483 Y147.673 E0.02090
G1 X148.517 Y147.673 E0.11987
G1 X148.517 Y148.190 E0.02090
G1 X151.483 Y148.190 E0.11987
G1 X151.483 Y148.707 E0.02090
G1 X148.517 Y148.707 E0.11987
G1 X148.517 Y149.224 E0.02090
G1 X151.483 Y149.224 E0.11987
G1 X151.483 Y149.741 E0.02090
G1 X148.517 Y149.741 E0.11987
G1 X148.517 Y150.259 E0.02090
G1 X151.483 Y150.259 E0.11987
G1 X151.483 Y150.776 E0.02090
G1 X148.517 Y150.776 E0.11987
G1 X148.517 Y151.293 E0.02090
G1 X151.483 Y151.293 E0.11987
G1 X151.483 Y151.810 E0.02090
G1 X148.517 Y151.810 E0.11987
G1 X148.517 Y152.327 E0.02090
G1 X151.483 Y152.327 E0.11987
G1 X151.483 Y152.844 E0.02090
G1 X148.517 Y152.844 E0.11987
G1 X148.517 Y152.863 E0.00076
G1 X148.019 Y153.361 E0.02848
G1 X151.981 Y153.361 E0.16015
G1 X152.137 Y153.517 E0.00892
G1 X156.180 Y153.517 E0.16338
G1 X156.541 Y153.878 E0.02064
G1 X143.459 Y153.878 E0.52870
G1 X142.942 Y154.395 E0.02955
G1 X157.058 Y154.395 E0.57050
G1 X157.575 Y154.912 E0.02955
G1 X142.425 Y154.912 E0.61230
G1 X141.908 Y155.429 E0.02955
G1 X158.421 Y155.429 E0.66739
G1 E-0.75000 F3000
M204 S1500
G1 X146.086 Y151.086 F18000
G1 E0.75000 F1800
;TYPE:Internal perimeter
G1 F1500
M204 S1000
G1 X143.914 Y151.086 E0.08777
G1 X143.914 Y148.914 E0.08777
G1 X146.086 Y148.914 E0.08777
G1 X146.086 Y151.026 E0.08535
M204 S1500
G1 X146.603 Y151.603 F18000
G1 F1500
M204 S1000
G1 X143.397 Y151.603 E0.12957
G1 X143.397 Y148.397 E0.12957
G1 X146.603 Y148.397 E0.12957
G1 X146.603 Y151.543 E0.12714
M204 S1500
G1 X147.120 Y152.120 F18000
;TYPE:External perimeter
G1 F1500
M204 S1000
G1 X142.880 Y152.120 E0.17136
G1 X142.880 Y147.880 E0.17136
G1 X147.120 Y147.880 E0.17136
G1 X147.120 Y152.060 E0.16894
M204 S1500
G1 X146.774 Y151.920 F18000
G1 E-0.75000 F3000
G1 X144.860 Y149.095 F18000
G1 E0.75000 F1800
;TYPE:Solid infill
;WIDTH:0.654057
M204 S1000
G1 X145.672 Y149.908 E0.05424
G1 X145.672 Y150.639 E0.03452
G1 X144.361 Y149.328 E0.08753
G1 X144.328 Y149.328 E0.00157
G1 X144.328 Y150.026 E0.03295
G1 X145.207 Y150.905 E0.05868
G1 E-0.75000 F3000
M204 S1500
G1 X153.914 Y150.905 F18000
G1 E0.75000 F1800
;TYPE:Internal perimeter
;WIDTH:0.56
G1 F1500
M204 S1000
G1 X153.914 Y148.914 E0.08046
G1 X156.086 Y148.914 E0.08777
G1 X156.086 Y151.086 E0.08777
G1 X153.914 Y151.086 E0.08777
G1 X153.914 Y150.965 E0.00489
M204 S1500
G1 X153.397 Y151.603 F18000
G1 F1500
M204 S1000
G1 X153.397 Y148.397 E0.12957
G1 X156.603 Y148.397 E0.12957
G1 X156.603 Y151.603 E0.12957
G1 X153.457 Y151.603 E0.12714
M204 S1500
G1 X152.880 Y152.120 F18000
;TYPE:External perimeter
G1 F1500
M204 S1000
G1 X152.880 Y147.880 E0.17136
G1 X157.120 Y147.880 E0.17136
G1 X157.120 Y152.120 E0.17136
G1 X152.940 Y152.120 E0.16894
M204 S1500
G1 X153.080 Y151.774 F18000
G1 E-0.75000 F3000
G1 X154.860 Y149.095 F18000
G1 E0.75000 F1800
;TYPE:Solid infill
;WIDTH:0.654057
M204 S1000
G1 X155.672 Y149.908 E0.05424
G1 X155.672 Y150.639 E0.03452
G1 X154.361 Y149.328 E0.08753
G1 X154.328 Y149.328 E0.00157
G1 X154.328 Y150.026 E0.03295
G1 X155.207 Y150.905 E0.05868
; INIT stop printing object union_3.stl id:1 copy 0
; INIT printing object union_3.stl id:2 copy 0
G1 E-0.75000 F3000
M204 S1500
G1 Z0.600000 F18000
; stop printing object union_3.stl id:1 copy 0
; printing object union_3.stl id:2 copy 0
G1 X159.138 Y160.892
G1 Z0.200000
G1 E0.75000 F1800
;TYPE:Support material
;WIDTH:0.56
G1 F1500
M204 S1000
G1 X156.663 Y163.368 E0.14149
G1 X152.620 Y163.368 E0.16338
G1 X152.117 Y163.870 E0.02875
G1 X152.117 Y169.382 E0.22274
G1 X152.620 Y169.885 E0.02875
G1 X156.663 Y169.885 E0.16338
G1 X159.138 Y172.360 E0.14149
G1 X141.614 Y172.360 E0.70828
G1 X144.089 Y169.885 E0.14149
G1 X148.132 Y169.885 E0.16338
G1 X148.634 Y169.382 E0.02875
G1 X148.634 Y163.870 E0.22274
G1 X148.132 Y163.368 E0.02875
G1 X144.089 Y163.368 E0.16338
G1 X141.613 Y160.892 E0.14149
G1 X159.078 Y160.892 E0.70585
M204 S1500
G1 X158.797 Y161.197 F18000
G1 F1500
M204 S1000
G1 X142.284 Y161.197 E0.66739
G1 X142.801 Y161.714 E0.02955
G1 X157.951 Y161.714 E0.61229
G1 X157.434 Y162.231 E0.02955
G1 X143.318 Y162.231 E0.57049
G1 X143.835 Y162.748 E0.02955
G1 X156.917 Y162.748 E0.52870
G1 X156.556 Y163.109 E0.02063
G1 X152.513 Y163.109 E0.16338
G1 X152.357 Y163.265 E0.00892
G1 X148.395 Y163.265 E0.16014
G1 X148.893 Y163.763 E0.02848
G1 X148.893 Y163.782 E0.00076
G1 X151.859 Y163.782 E0.11987
G1 X151.859 Y164.299 E0.02090
G1 X148.893 Y164.299 E0.11987
G1 X148.893 Y164.816 E0.02090
G1 X151.859 Y164.816 E0.11987
G1 X151.859 Y165.333 E0.02090
G1 X148.893 Y165.333 E0.11987
G1 X148.893 Y165.851 E0.02090
G1 X151.859 Y165.851 E0.11987
G1 X151.859 Y166.368 E0.02090
G1 X148.893 Y166.368 E0.11987
G1 X148.893 Y166.885 E0.02090
G1 X151.859 Y166.885 E0.11987
G1 X151.859 Y167.402 E0.02090
G1 X148.893 Y167.402 E0.11987
G1 X148.893 Y167.919 E0.02090
G1 X151.859 Y167.919 E0.11987
G1 X151.859 Y168.436 E0.02090
G1 X148.893 Y168.436 E0.11987
G1 X148.893 Y168.953 E0.02090
G1 X151.859 Y168.953 E0.11987
G1 X151.859 Y169.470 E0.02090
G1 X148.893 Y169.470 E0.11987
G1 X148.893 Y169.489 E0.00076
G1 X148.395 Y169.987 E0.02848
G1 X152.357 Y169.987 E0.16015
G1 X152.513 Y170.143 E0.00892
G1 X156.556 Y170.143 E0.16338
G1 X156.917 Y170.504 E0.02064
G1 X143.835 Y170.504 E0.52870
G1 X143.318 Y171.021 E0.02955
G1 X157.434 Y171.021 E0.57050
G1 X157.951 Y171.538 E0.02955
G1 X142.801 Y171.538 E0.61230
G1 X142.284 Y172.055 E0.02955
G1 X158.797 Y172.055 E0.66739
G1 E-0.75000 F3000
M204 S1500
G1 X146.462 Y167.712 F18000
G1 E0.75000 F1800
;TYPE:Internal perimeter
G1 F1500
M204 S1000
G1 X144.290 Y167.712 E0.08777
G1 X144.290 Y165.540 E0.08777
G1 X146.462 Y165.540 E0.08777
G1 X146.462 Y167.652 E0.08535
M204 S1500
G1 X146.979 Y168.229 F18000
G1 F1500
M204 S1000
G1 X143.773 Y168.229 E0.12957
G1 X143.773 Y165.023 E0.12957
G1 X146.979 Y165.023 E0.12957
G1 X146.979 Y168.169 E0.12714
M204 S1500
G1 X147.496 Y168.746 F18000
;TYPE:External perimeter
G1 F1500
M204 S1000
G1 X143.256 Y168.746 E0.17136
G1 X143.256 Y164.506 E0.17136
G1 X147.496 Y164.506 E0.17136
G1 X147.496 Y168.686 E0.16894
M204 S1500
G1 X147.150 Y168.546 F18000
G1 E-0.75000 F3000
G1 X145.236 Y165.721 F18000
G1 E0.75000 F1800
;TYPE:Solid infill
;WIDTH:0.654057
M204 S1000
G1 X146.048 Y166.534 E0.05424
G1 X146.048 Y167.265 E0.03452
G1 X144.737 Y165.954 E0.08753
G1 X144.704 Y165.954 E0.00157
G1 X144.704 Y166.652 E0.03295
G1 X145.583 Y167.531 E0.05868
G1 E-0.75000 F3000
M204 S1500
G1 X154.290 Y167.531 F18000
G1 E0.75000 F1800
;TYPE:Internal perimeter
;WIDTH:0.56
G1 F1500
M204 S1000
G1 X154.290 Y165.540 E0.08046
G1 X156.462 Y165.540 E0.08777
G1 X156.462 Y167.712 E0.08777
G1 X154.290 Y167.712 E0.08777
G1 X154.290 Y167.591 E0.00489
M204 S1500
G1 X153.773 Y168.229 F18000
G1 F1500
M204 S1000
G1 X153.773 Y165.023 E0.12957
G1 X156.979 Y165.023 E0.12957
