; generated by SuperSlicer 2.4 on 2022-07-09 at 18:05:05 UTC

; object:{"name":"tapered_cube","id":"tapered_cube.stl id:0 copy 0","object_center":[142.878680,132.878681,0.000000],"boundingbox_center":[142.878680,132.878681,5.000000],"boundingbox_size":[15.000000,15.000000,10.000000]}
; object:{"name":"tapered_cube","id":"tapered_cube.stl id:0 copy 1","object_center":[157.121321,147.121320,0.000000],"boundingbox_center":[157.121321,147.121320,5.000000],"boundingbox_size":[15.000000,15.000000,10.000000]}
; plater:{"center":[150.000000,140.000000,0.000000],"boundingbox_center":[150.000000,140.000000,5.000000],"boundingbox_size":[29.242641,29.242639,10.000000]}

;TYPE:Custom
print_start EXTRUDER=240 BED=110 CHAMBER=40 MATERIAL=ABS

; SET_RETRACTION RETRACT_LENGTH=0.75 RETRACT_SPEED=50 UNRETRACT_SPEED=30 UNRETRACT_EXTRA_LENGTH=0
M107
G21 ; set units to millimeters
G90 ; use absolute coordinates
M83 ; use relative distances for extrusion
SET_PRESSURE_ADVANCE ADVANCE=0.0535
M109 S240 ; set temperature and wait for it to be reached
M190 S110 ; set bed temperature and wait for it to be reached
M107
;LAYER_CHANGE
;Z:0.2
;HEIGHT:0.2
;BEFORE_LAYER_CHANGE
;0.2

G1 Z0.2 F18000
;AFTER_LAYER_CHANGE
;0.2

TIMELAPSE_TAKE_FRAME
G92 E0
; INIT printing object tapered_cube.stl id:0 copy 0
G1 E-0.75 F3000
G1 Z0.6 F18000
; printing object tapered_cube.stl id:0 copy 0
M204 S2000
G1 X136.326 Y131.226
G1 Z0.2
G1 E0.75 F1800
;TYPE:Internal perimeter
;WIDTH:0.56
G1 F900
G1 X144.532 Y131.226 E0.32988
G1 X144.532 Y139.432 E0.32988
G1 X136.326 Y139.432 E0.32988
G1 X136.326 Y131.286 E0.32747
G1 X135.809 Y130.709 F18000
;TYPE:External perimeter
G1 F900
G1 X145.049 Y130.709 E0.37145
G1 X145.049 Y139.949 E0.37145
G1 X135.809 Y139.949 E0.37145
G1 X135.809 Y130.769 E0.36904
;WIPE_START
M204 S5000
G1 X136.155 Y130.909 F18000
;WIPE_END
; INIT stop printing object tapered_cube.stl id:0 copy 0
; INIT printing object tapered_cube.stl id:0 copy 1
G1 E-0.75 F3000
G1 Z0.6 F18000
; stop printing object tapered_cube.stl id:0 copy 0
; printing object tapered_cube.stl id:0 copy 1
; acceleration to travel
G1 X146.45 Y141.308
; decel to extrusion
M204 S2000
G1 X150.568 Y145.468
; end travel
G1 Z0.2
G1 E0.75 F1800
;TYPE:Internal perimeter
G1 F900
G1 X158.774 Y145.468 E0.32988
G1 X158.774 Y153.674 E0.32988
G1 X150.568 Y153.674 E0.32988
G1 X150.568 Y145.528 E0.32747
G1 X150.051 Y144.951 F18000
;TYPE:External perimeter
G1 F900
G1 X159.291 Y144.951 E0.37145
G1 X159.291 Y154.191 E0.37145
G1 X150.051 Y154.191 E0.37145
G1 X150.051 Y145.011 E0.36904
;WIPE_START
M204 S5000
G1 X150.398 Y145.151 F18000
;WIPE_END
; INIT stop printing object tapered_cube.stl id:0 copy 1
;LAYER_CHANGE
;Z:0.4
;HEIGHT:0.2
;BEFORE_LAYER_CHANGE
;0.4

; stop printing object tapered_cube.stl id:0 copy 1
G1 Z0.4 F18000
;AFTER_LAYER_CHANGE
;0.4

TIMELAPSE_TAKE_FRAME
G92 E0
M104 S235 ; set temperature
M140 S105 ; set bed temperature
; INIT printing object tapered_cube.stl id:0 copy 0
G1 E-0.75 F3000
G1 Z0.8 F18000
; printing object tapered_cube.stl id:0 copy 0
; acceleration to travel
G1 X147.75 Y142.477
; decel to extrusion
M204 S4500
G1 X144.952 Y139.652
; end travel
G1 Z0.4
G1 E0.75 F1800
;TYPE:Internal perimeter
;WIDTH:0.44
G1 F900
G1 X136.106 Y139.652 E0.27308
G1 X136.106 Y130.806 E0.27308
G1 X144.952 Y130.806 E0.27308
G1 X144.952 Y139.592 E0.27123
G1 X145.327 Y140.029 F18000
;TYPE:External perimeter
;WIDTH:0.4
G1 F900
G1 X135.729 Y140.029 E0.26645
G1 X135.729 Y130.431 E0.26645
;TYPE:Overhang perimeter
G1 F2400
M204 S3000
G1 X145.329 Y130.429 E0.26651
G1 X145.329 Y139.969 E0.26484
; INIT stop printing object tapered_cube.stl id:0 copy 0
; INIT printing object tapered_cube.stl id:0 copy 1
G1 E-0.75 F3000
M204 S5000
G1 Z0.8 F18000
; stop printing object tapered_cube.stl id:0 copy 0
; printing object tapered_cube.stl id:0 copy 1
; acceleration to travel
G1 X147.774 Y142.444
; decel to extrusion
M204 S4500
G1 X150.348 Y145.048
; end travel
G1 Z0.4
G1 E0.75 F1800
;TYPE:Internal perimeter
;WIDTH:0.44
G1 F900
G1 X159.194 Y145.048 E0.27308
G1 X159.194 Y153.894 E0.27308
G1 X150.348 Y153.894 E0.27308
G1 X150.348 Y145.108 E0.27123
M204 S3000
G1 X149.971 Y144.671 F18000
;TYPE:Overhang perimeter
;WIDTH:0.4
G1 F2400
G1 X159.571 Y144.671 E0.26651
G1 X159.569 Y154.271 E0.26651
;TYPE:External perimeter
G1 F900
M204 S4500
G1 X149.971 Y154.271 E0.26645
G1 X149.971 Y144.731 E0.26484
;WIPE_START
M204 S5000
G1 X150.318 Y144.871 F18000
;WIPE_END
; INIT stop printing object tapered_cube.stl id:0 copy 1
;LAYER_CHANGE
;Z:0.6
;HEIGHT:0.2
;BEFORE_LAYER_CHANGE
;0.6

; stop printing object tapered_cube.stl id:0 copy 1
G1 Z0.6 F18000
;AFTER_LAYER_CHANGE
;0.6

TIMELAPSE_TAKE_FRAME
G92 E0
; INIT printing object tapered_cube.stl id:0 copy 0
G1 E-0.75 F3000
G1 Z1 F18000
; printing object tapered_cube.stl id:0 copy 0
; acceleration to travel
G1 X147.678 Y142.205
; decel to extrusion
M204 S4500
G1 X145.052 Y139.552
; end travel
G1 Z0.6
G1 E0.75 F1800
;TYPE:Internal perimeter
;WIDTH:0.44
G1 F900
G1 X136.206 Y139.552 E0.27308
G1 X136.206 Y130.706 E0.27308
G1 X145.052 Y130.706 E0.27308
G1 X145.052 Y139.492 E0.27123
G1 X145.429 Y139.929 F18000
;TYPE:External perimeter
;WIDTH:0.4
G1 F900
G1 X135.829 Y139.929 E0.26651
G1 X135.829 Y130.329 E0.26651
G1 X145.429 Y130.329 E0.26651
G1 X145.429 Y139.869 E0.26484
;WIPE_START
M204 S5000
G1 X145.082 Y139.729 F18000
;WIPE_END
; INIT stop printing object tapered_cube.stl id:0 copy 0
; INIT printing object tapered_cube.stl id:0 copy 1
G1 E-0.75 F3000
G1 Z1 F18000
; stop printing object tapered_cube.stl id:0 copy 0
; printing object tapered_cube.stl id:0 copy 1
; acceleration to travel
G1 X147.772 Y142.345
; decel to extrusion
M204 S4500
G1 X150.448 Y144.948
; end travel
G1 Z0.6
G1 E0.75 F1800
;TYPE:Internal perimeter
;WIDTH:0.44
G1 F900
G1 X159.294 Y144.948 E0.27308
G1 X159.294 Y153.794 E0.27308
G1 X150.448 Y153.794 E0.27308
G1 X150.448 Y145.008 E0.27123
G1 X150.071 Y144.571 F18000
;TYPE:External perimeter
;WIDTH:0.4
G1 F900
G1 X159.671 Y144.571 E0.26651
G1 X159.671 Y154.171 E0.26651
G1 X150.071 Y154.171 E0.26651
G1 X150.071 Y144.631 E0.26484
;WIPE_START
M204 S5000
G1 X150.418 Y144.771 F18000
;WIPE_END
; INIT stop printing object tapered_cube.stl id:0 copy 1
;LAYER_CHANGE
;Z:0.8
;HEIGHT:0.2
;BEFORE_LAYER_CHANGE
;0.8

; stop printing object tapered_cube.stl id:0 copy 1
G1 Z0.8 F18000
;AFTER_LAYER_CHANGE
;0.8

TIMELAPSE_TAKE_FRAME
G92 E0
; INIT printing object tapered_cube.stl id:0 copy 0
G1 E-0.75 F3000
G1 Z1.2 F18000
; printing object tapered_cube.stl id:0 copy 0
; acceleration to travel
G1 X147.778 Y142.105
; decel to extrusion
M204 S4500
G1 X145.152 Y139.452
; end travel
G1 Z0.8
G1 E0.75 F1800
;TYPE:Internal perimeter
;WIDTH:0.44
G1 F900
G1 X136.306 Y139.452 E0.27308
G1 X136.306 Y130.606 E0.27308
G1 X145.152 Y130.606 E0.27308
G1 X145.152 Y139.392 E0.27123
G1 X145.529 Y139.829 F18000
;TYPE:External perimeter
;WIDTH:0.4
G1 F900
G1 X135.929 Y139.829 E0.26651
G1 X135.929 Y130.229 E0.26651
G1 X145.529 Y130.229 E0.26651
G1 X145.529 Y139.769 E0.26484
;WIPE_START
M204 S5000
G1 X145.182 Y139.629 F18000
;WIPE_END
; INIT stop printing object tapered_cube.stl id:0 copy 0
; INIT printing object tapered_cube.stl id:0 copy 1
G1 E-0.75 F3000
G1 Z1.2 F18000
; stop printing object tapered_cube.stl id:0 copy 0
; printing object tapered_cube.stl id:0 copy 1
; acceleration to travel
G1 X147.872 Y142.245
; decel to extrusion
M204 S4500
G1 X150.548 Y144.848
; end travel
G1 Z0.8
G1 E0.75 F1800
;TYPE:Internal perimeter
;WIDTH:0.44
G1 F900
G1 X159.394 Y144.848 E0.27308
G1 X159.394 Y153.694 E0.27308
G1 X150.548 Y153.694 E0.27308
G1 X150.548 Y144.908 E0.27123
G1 X150.171 Y144.471 F18000
;TYPE:External perimeter
;WIDTH:0.4
G1 F900
G1 X159.771 Y144.471 E0.26651
G1 X159.771 Y154.071 E0.26651
G1 X150.171 Y154.071 E0.26651
G1 X150.171 Y144.531 E0.26484
;WIPE_START
M204 S5000
G1 X150.518 Y144.671 F18000
;WIPE_END
; INIT stop printing object tapered_cube.stl id:0 copy 1
;LAYER_CHANGE
;Z:1
;HEIGHT:0.2
;BEFORE_LAYER_CHANGE
;1

; stop printing object tapered_cube.stl id:0 copy 1
G1 Z1 F18000
;AFTER_LAYER_CHANGE
;1

TIMELAPSE_TAKE_FRAME
G92 E0
; INIT printing object tapered_cube.stl id:0 copy 0
G1 E-0.75 F3000
G1 Z1.4 F18000
; printing object tapered_cube.stl id:0 copy 0
; acceleration to travel
G1 X147.878 Y142.005
; decel to extrusion
M204 S4500
G1 X145.252 Y139.352
; end travel
G1 Z1
G1 E0.75 F1800
;TYPE:Internal perimeter
;WIDTH:0.44
G1 F900
G1 X136.406 Y139.352 E0.27308
G1 X136.406 Y130.506 E0.27308
G1 X145.252 Y130.506 E0.27308
G1 X145.252 Y139.292 E0.27123
G1 X145.629 Y139.729 F18000
;TYPE:External perimeter
;WIDTH:0.4
G1 F900
G1 X136.029 Y139.729 E0.26651
G1 X136.029 Y130.129 E0.26651
G1 X145.629 Y130.129 E0.26651
G1 X145.629 Y139.669 E0.26484
;WIPE_START
M204 S5000
G1 X145.282 Y139.529 F18000
;WIPE_END
; INIT stop printing object tapered_cube.stl id:0 copy 0
; INIT printing object tapered_cube.stl id:0 copy 1
G1 E-0.75 F3000
G1 Z1.4 F18000
; stop printing object tapered_cube.stl id:0 copy 0
; printing object tapered_cube.stl id:0 copy 1
; acceleration to travel
G1 X147.972 Y142.145
; decel to extrusion
M204 S4500
G1 X150.648 Y144.748
; end travel
G1 Z1
G1 E0.75 F1800
;TYPE:Internal perimeter
;WIDTH:0.44
G1 F900
G1 X159.494 Y144.748 E0.27308
G1 X159.494 Y153.594 E0.27308
G1 X150.648 Y153.594 E0.27308
G1 X150.648 Y144.808 E0.27123
G1 X150.271 Y144.371 F18000
;TYPE:External perimeter
;WIDTH:0.4
G1 F900
G1 X159.871 Y144.371 E0.26651
G1 X159.871 Y153.971 E0.26651
G1 X150.271 Y153.971 E0.26651
G1 X150.271 Y144.431 E0.26484
;WIPE_START
M204 S5000
G1 X150.618 Y144.571 F18000
;WIPE_END
; INIT stop printing object tapered_cube.stl id:0 copy 1
M106 S153
;LAYER_CHANGE
;Z:1.2
;HEIGHT:0.2
;BEFORE_LAYER_CHANGE
;1.2

; stop printing object tapered_cube.stl id:0 copy 1
G1 Z1.2 F18000
;AFTER_LAYER_CHANGE
;1.2

TIMELAPSE_TAKE_FRAME
G92 E0
; INIT printing object tapered_cube.stl id:0 copy 0
G1 E-0.75 F3000
G1 Z1.6 F18000
; printing object tapered_cube.stl id:0 copy 0
; acceleration to travel
G1 X147.978 Y141.905
; decel to extrusion
M204 S4500
G1 X145.352 Y139.252
; end travel
G1 Z1.2
G1 E0.75 F1800
;TYPE:Internal perimeter
;WIDTH:0.44
G1 F900
G1 X136.506 Y139.252 E0.27308
G1 X136.506 Y130.406 E0.27308
G1 X145.352 Y130.406 E0.27308
G1 X145.352 Y139.192 E0.27123
G1 X145.729 Y139.629 F18000
;TYPE:External perimeter
;WIDTH:0.4
G1 F900
G1 X136.129 Y139.629 E0.26651
G1 X136.129 Y130.029 E0.26651
G1 X145.729 Y130.029 E0.26651
G1 X145.729 Y139.569 E0.26484
;WIPE_START
M204 S5000
G1 X145.382 Y139.429 F18000
;WIPE_END
; INIT stop printing object tapered_cube.stl id:0 copy 0
; INIT printing object tapered_cube.stl id:0 copy 1
G1 E-0.75 F3000
G1 Z1.6 F18000
; stop printing object tapered_cube.stl id:0 copy 0
; printing object tapered_cube.stl id:0 copy 1
; acceleration to travel
G1 X148.072 Y142.045
; decel to extrusion
M204 S4500
G1 X150.748 Y144.648
; end travel
G1 Z1.2
G1 E0.75 F1800
;TYPE:Internal perimeter
;WIDTH:0.44
G1 F900
G1 X159.594 Y144.648 E0.27308
G1 X159.594 Y153.494 E0.27308
G1 X150.748 Y153.494 E0.27308
G1 X150.748 Y144.708 E0.27123
G1 X150.371 Y144.271 F18000
;TYPE:External perimeter
;WIDTH:0.4
G1 F900
G1 X159.971 Y144.271 E0.26651
G1 X159.971 Y153.871 E0.26651
G1 X150.371 Y153.871 E0.26651
G1 X150.371 Y144.331 E0.26484
;WIPE_START
M204 S5000
G1 X150.718 Y144.471 F18000
;WIPE_END
; INIT stop printing object tapered_cube.stl id:0 copy 1
;LAYER_CHANGE
;Z:1.4
;HEIGHT:0.2
;BEFORE_LAYER_CHANGE
;1.4

; stop printing object tapered_cube.stl id:0 copy 1
G1 Z1.4 F18000
;AFTER_LAYER_CHANGE
;1.4

TIMELAPSE_TAKE_FRAME
G92 E0
; INIT printing object tapered_cube.stl id:0 copy 0
G1 E-0.75 F3000
G1 Z1.8 F18000
; printing object tapered_cube.stl id:0 copy 0
; acceleration to travel
G1 X148.078 Y141.805
; decel to extrusion
M204 S4500
G1 X145.452 Y139.152
; end travel
G1 Z1.4
G1 E0.75 F1800
;TYPE:Internal perimeter
;WIDTH:0.44
G1 F900
G1 X136.606 Y139.152 E0.27308
G1 X136.606 Y130.306 E0.27308
G1 X145.452 Y130.306 E0.27308
G1 X145.452 Y139.092 E0.27123
G1 X145.829 Y139.529 F18000
;TYPE:External perimeter
;WIDTH:0.4
G1 F900
G1 X136.229 Y139.529 E0.26651
G1 X136.229 Y129.929 E0.26651
G1 X145.829 Y129.929 E0.26651
G1 X145.829 Y139.469 E0.26484
;WIPE_START
M204 S5000
G1 X145.482 Y139.329 F18000
;WIPE_END
; INIT stop printing object tapered_cube.stl id:0 copy 0
; INIT printing object tapered_cube.stl id:0 copy 1
G1 E-0.75 F3000
G1 Z1.8 F18000
; stop printing object tapered_cube.stl id:0 copy 0
; printing object tapered_cube.stl id:0 copy 1
; acceleration to travel
G1 X148.172 Y141.945
; decel to extrusion
M204 S4500
G1 X150.848 Y144.548
; end travel
G1 Z1.4
G1 E0.75 F1800
;TYPE:Internal perimeter
;WIDTH:0.44
G1 F900
G1 X159.694 Y144.548 E0.27308
G1 X159.694 Y153.394 E0.27308
G1 X150.848 Y153.394 E0.27308
G1 X150.848 Y144.608 E0.27123
G1 X150.471 Y144.171 F18000
;TYPE:External perimeter
;WIDTH:0.4
G1 F900
G1 X160.071 Y144.171 E0.26651
G1 X160.071 Y153.771 E0.26651
G1 X150.471 Y153.771 E0.26651
G1 X150.471 Y144.231 E0.26484
;WIPE_START
M204 S5000
G1 X150.818 Y144.371 F18000
;WIPE_END
; INIT stop printing object tapered_cube.stl id:0 copy 1
;LAYER_CHANGE
;Z:1.6
;HEIGHT:0.2
;BEFORE_LAYER_CHANGE
;1.6

; stop printing object tapered_cube.stl id:0 copy 1
G1 Z1.6 F18000
;AFTER_LAYER_CHANGE
;1.6

TIMELAPSE_TAKE_FRAME
G92 E0
; INIT printing object tapered_cube.stl id:0 copy 0
G1 E-0.75 F3000
G1 Z2 F18000
; printing object tapered_cube.stl id:0 copy 0
; acceleration to travel
G1 X148.178 Y141.705
; decel to extrusion
M204 S4500
G1 X145.552 Y139.052
; end travel
G1 Z1.6
G1 E0.75 F1800
;TYPE:Internal perimeter
;WIDTH:0.44
G1 F900
G1 X136.706 Y139.052 E0.27308
G1 X136.706 Y130.206 E0.27308
G1 X145.552 Y130.206 E0.27308
G1 X145.552 Y138.992 E0.27123
G1 X145.929 Y139.429 F18000
;TYPE:External perimeter
;WIDTH:0.4
G1 F900
G1 X136.329 Y139.429 E0.26651
G1 X136.329 Y129.829 E0.26651
G1 X145.929 Y129.829 E0.26651
G1 X145.929 Y139.369 E0.26484
;WIPE_START
M204 S5000
G1 X145.582 Y139.229 F18000
;WIPE_END
; INIT stop printing object tapered_cube.stl id:0 copy 0
; INIT printing object tapered_cube.stl id:0 copy 1
G1 E-0.75 F3000
G1 Z2 F18000
; stop printing object tapered_cube.stl id:0 copy 0
; printing object tapered_cube.stl id:0 copy 1
; acceleration to travel
G1 X148.272 Y141.845
; decel to extrusion
M204 S4500
G1 X150.948 Y144.448
; end travel
G1 Z1.6
G1 E0.75 F1800
;TYPE:Internal perimeter
;WIDTH:0.44
G1 F900
G1 X159.794 Y144.448 E0.27308
G1 X159.794 Y153.294 E0.27308
G1 X150.948 Y153.294 E0.27308
G1 X150.948 Y144.508 E0.27123
G1 X150.571 Y144.071 F18000
;TYPE:External perimeter
;WIDTH:0.4
G1 F900
G1 X160.171 Y144.071 E0.26651
G1 X160.171 Y153.671 E0.26651
G1 X150.571 Y153.671 E0.26651
G1 X150.571 Y144.131 E0.26484
;WIPE_START
M204 S5000
G1 X150.918 Y144.271 F18000
;WIPE_END
; INIT stop printing object tapered_cube.stl id:0 copy 1
;LAYER_CHANGE
;Z:1.8
;HEIGHT:0.2
;BEFORE_LAYER_CHANGE
;1.8

; stop printing object tapered_cube.stl id:0 copy 1
G1 Z1.8 F18000
;AFTER_LAYER_CHANGE
;1.8

TIMELAPSE_TAKE_FRAME
G92 E0
; INIT printing object tapered_cube.stl id:0 copy 0
G1 E-0.75 F3000
G1 Z2.2 F18000
; printing object tapered_cube.stl id:0 copy 0
; acceleration to travel
G1 X148.278 Y141.605
; decel to extrusion
M204 S4500
G1 X145.652 Y138.952
; end travel
G1 Z1.8
G1 E0.75 F1800
;TYPE:Internal perimeter
;WIDTH:0.44
G1 F900
G1 X136.806 Y138.952 E0.27308
G1 X136.806 Y130.106 E0.27308
G1 X145.652 Y130.106 E0.27308
G1 X145.652 Y138.892 E0.27123
G1 X146.029 Y139.329 F18000
;TYPE:External perimeter
;WIDTH:0.4
G1 F900
G1 X136.429 Y139.329 E0.26651
G1 X136.429 Y129.729 E0.26651
G1 X146.029 Y129.729 E0.26651
G1 X146.029 Y139.269 E0.26484
;WIPE_START
M204 S5000
G1 X145.682 Y139.129 F18000
;WIPE_END
; INIT stop printing object tapered_cube.stl id:0 copy 0
; INIT printing object tapered_cube.stl id:0 copy 1
G1 E-0.75 F3000
G1 Z2.2 F18000
; stop printing object tapered_cube.stl id:0 copy 0
; printing object tapered_cube.stl id:0 copy 1
; acceleration to travel
G1 X148.372 Y141.745
; decel to extrusion
M204 S4500
G1 X151.048 Y144.348
; end travel
G1 Z1.8
G1 E0.75 F1800
